/* XPM */
static char *f57ad130100b45349fdf6e4676945e3cgpRlLk8XMbgr51NR[] = {
/* columns rows colors chars-per-pixel */
"496 834 256 2 ",
"   c #030105",
".  c #05010C",
"X  c #0A020D",
"o  c #0A0609",
"O  c #050013",
"+  c #0B0214",
"@  c #06001B",
"#  c #0C011B",
"$  c #0D0917",
"%  c #11041C",
"&  c #130A1C",
"*  c #120716",
"=  c #150F18",
"-  c #0D0123",
";  c #0E002A",
":  c #0B0623",
">  c #120324",
",  c #150A23",
"<  c #190C25",
"1  c #14032B",
"2  c #150A2B",
"3  c #1A0B2C",
"4  c #19052C",
"5  c #1C122C",
"6  c #191225",
"7  c #150333",
"8  c #1A0534",
"9  c #1C0B33",
"0  c #1B053B",
"q  c #1D0B3B",
"w  c #160537",
"e  c #1D1233",
"r  c #1E123A",
"t  c #0E0032",
"y  c #220D3C",
"u  c #210C36",
"i  c #221335",
"p  c #23133C",
"a  c #28193B",
"s  c #21142D",
"d  c #2B223B",
"f  c #1D0743",
"g  c #1E0E45",
"h  c #230D43",
"j  c #240C4B",
"k  c #260A49",
"l  c #251343",
"z  c #291444",
"x  c #2B1B44",
"c  c #26124A",
"v  c #2A144C",
"b  c #2D1B4B",
"n  c #261945",
"m  c #311C4D",
"M  c #311A48",
"N  c #280C55",
"B  c #2C1453",
"V  c #2E1A52",
"C  c #2C1559",
"Z  c #321C54",
"A  c #341C5B",
"S  c #34185A",
"D  c #320F5C",
"F  c #33234B",
"G  c #342254",
"H  c #35225B",
"J  c #3A245C",
"K  c #3B2858",
"L  c #2F234B",
"P  c #351C63",
"I  c #391D64",
"U  c #3B1C6B",
"Y  c #351668",
"T  c #3C1C73",
"R  c #3C1778",
"E  c #300D6B",
"W  c #3C2364",
"Q  c #3D2A63",
"!  c #3D236B",
"~  c #3A2566",
"^  c #3E2374",
"/  c #3E3165",
"(  c #412D5D",
")  c #421D7C",
"_  c #411D76",
"`  c #401E6B",
"'  c #422B65",
"]  c #41256C",
"[  c #432B6C",
"{  c #442968",
"}  c #47336A",
"|  c #432473",
" . c #452B73",
".. c #492D74",
"X. c #44237B",
"o. c #462A7B",
"O. c #4B2C7C",
"+. c #49267C",
"@. c #4B3374",
"#. c #4C337B",
"$. c #4A3675",
"%. c #51347C",
"&. c #533B7C",
"*. c #533A76",
"=. c #503377",
"-. c #57437B",
";. c #614E7D",
":. c #3E1782",
">. c #3E2382",
",. c #431C83",
"<. c #451C8B",
"1. c #481C8A",
"2. c #4A1D93",
"3. c #511F99",
"4. c #462283",
"5. c #4A2584",
"6. c #4C2B84",
"7. c #4B248C",
"8. c #4D2A8B",
"9. c #462488",
"0. c #512D85",
"q. c #522C8D",
"w. c #51278D",
"e. c #4D3283",
"r. c #4E3289",
"t. c #523484",
"y. c #543B83",
"u. c #54338C",
"i. c #59358D",
"p. c #553A8B",
"a. c #5A3B8C",
"s. c #593C85",
"d. c #4D2493",
"f. c #4E2992",
"g. c #4E2599",
"h. c #512694",
"j. c #532C94",
"k. c #592E95",
"l. c #52269B",
"z. c #552C9B",
"x. c #592E9C",
"c. c #58269D",
"v. c #553293",
"b. c #5A3495",
"n. c #5C3B94",
"m. c #56319B",
"M. c #5B339C",
"N. c #5D3A9B",
"B. c #563993",
"V. c #4E3193",
"C. c #623C9D",
"Z. c #61399A",
"A. c #603D8F",
"S. c #562CA2",
"D. c #5A2DA3",
"F. c #5C2DAA",
"G. c #5627A4",
"H. c #5D33A3",
"J. c #5E39A3",
"K. c #5E33AA",
"L. c #5B35A6",
"P. c #5E33B1",
"I. c #5C2CB0",
"U. c #612EAB",
"Y. c #6135A5",
"T. c #633BA4",
"R. c #6235AB",
"E. c #643BAC",
"W. c #693DAD",
"Q. c #683CA7",
"!. c #6435B2",
"~. c #6936B4",
"^. c #663AB2",
"/. c #6A3CB4",
"(. c #663AB9",
"). c #6C3DBA",
"_. c #6735BA",
"`. c #713EBC",
"'. c #703EB5",
"]. c #622EB3",
"[. c #521EA2",
"{. c #5D438C",
"}. c #5B4485",
"|. c #5D4293",
" X c #5E429A",
".X c #62488C",
"XX c #624494",
"oX c #644B94",
"OX c #64439C",
"+X c #6A4C9C",
"@X c #674A9A",
"#X c #6B539A",
"$X c #705599",
"%X c #6542A4",
"&X c #6944A5",
"*X c #6B4BA4",
"=X c #6641AB",
"-X c #6B43AC",
";X c #6D4AAB",
":X c #6649A3",
">X c #714CAC",
",X c #7149AA",
"<X c #6D52A5",
"1X c #7254A4",
"2X c #7353AC",
"3X c #775AA9",
"4X c #6C42B4",
"5X c #6E49B3",
"6X c #6E42BB",
"7X c #6A44B5",
"8X c #7145B5",
"9X c #724BB4",
"0X c #7244BC",
"qX c #744ABC",
"wX c #794DBD",
"eX c #794BB8",
"rX c #7552B3",
"tX c #7A55B4",
"yX c #7B5BB4",
"uX c #7652BB",
"iX c #7B53BC",
"pX c #7D5ABB",
"aX c #7659B4",
"sX c #6E52B3",
"dX c #7E61B6",
"fX c #7B62AB",
"gX c #6448A2",
"hX c #6D3CC2",
"jX c #6A38C2",
"kX c #713EC3",
"lX c #6E42C1",
"zX c #7444C2",
"xX c #764AC3",
"cX c #7A4CC4",
"vX c #7B4CCA",
"bX c #7746C8",
"nX c #7C53C3",
"mX c #7D52CB",
"MX c #7C58C3",
"NX c #7D4DD2",
"BX c #7E62C2",
"VX c #815CBB",
"CX c #815DAD",
"ZX c #8465BA",
"AX c #876BB4",
"SX c #825CC4",
"DX c #8254CB",
"FX c #845BCB",
"GX c #8357C7",
"HX c #8658D3",
"JX c #814ECE",
"KX c #8865C7",
"LX c #8C64D4",
"PX c #936ED2",
"IX c #9667E4",
"UX c #A285D6",
/* pixels */
"N R 8.B.B.u.8.4.f.v.m.v.m.M.=X7X%XN.8.9.8.v.M.N.%X9.,.M.Q.m.m.Q.E./.6X/.^.R.^./.)./.(.(.).).).).(./.4X4X/.L.L.-Xn.S k z B N v.uXnXqX0XxXlXzXNXNXNXzXhX(.^.).6X7XmXmXmXmX6XzXHXxXcX).^./.R.z.l.H.g.L.FXFXcXcX/.c.R.x.^.4X!.6XNXzXxXzXbXvX6X!.~.(.F.!.!.F.G.G.F.K.!.!.^.(.!.K.R.E.E.l.g.R./.R.E.wX6X/.!.R.K.K.K.R.R.R./.K.^.6XF.R.^./.E.8X/.R.6XcXcX/.R./.4X4X8XcXmXmXxX0XxXcXxX6XzXxXxXxXxXzX6X^.K.E.Y.x.D.R.^.K.T.+X&.u > y ' ] u.w.b.q.b.6.b.B.T.N.J.4X6X7X(.7X).7X7X^.K.L.L.L.4X4X=X4X5X=XY.R.^.7X7X4XW.Q.Y.M.J.=X4XR.E.6X6XK.7X6X7XL.x.M.M.k.q.5.5.6.9.X.T X._ 6.6.+.t.t.+.0.w.v.7.9.j.j.q.XX} p 1 0 %.i.u.j.h.x.z.1.,.7.j.j.j.v.v.j.M.%XC.j.v.j.M.Q.N.j.M.N.j.M.J.k.k.N.k.7.J.M.j.J.J.j.Y.5XE.j.f.M.C.C.N.b.+.6.u.q.n.N.5.8.q.8.5.7.9.R o.y..XK 1 8 Z k I ] ! P P [ &.&.[ C S C S P ! O.t.t.^ Y U T R 8.N.B.OXOX|. XN.r.v.8.v.i.6.6.C.N.q.u.q.8.9.9.v.%X%XM.m.=X9XuXeXuXuXuXQ.b.M.8.4.9.X.! Z x > > 9 -.@XN.4X^.GX;X9X9XnXcX4Xz.g.H.9XFXiXiX=XM.J.T.N.N.M.5.,.) T.&XN.;X9X9X9X5X4XR.x.R.cXwXwX4XwX8X9XGXeXeX5X9XiXiX5X=XM.E ",
"T 6.u.u.6.9.9.8.4.m.J.M.m.J.J.J.-XN.v.8.8.8.v.N.N.b.j.5.j.J.=X=X/.^.^./././.^.R.^.!.R.R.!.^.~.!.F.^.4X8X4XL.z.J.p.N y x Z k 9.9XnX5XxXxXzXxXNXNXzXjXhXlXlXxXcX6X^.4XwXmXxX6XzXK.G.G.S.S.R.4X/.D.K.d.K.0XW.Y.D.W.R.2.c.8X/.^.6XzX^.^.zXvXzX).!.F.K.!.!.K.F.F.K.K.!.!.!.~.R.D.K.E./.R.R.E.E.D.D.H.6X^.F.K.!.(.!.R.!.(./.!./.0X6XxX6X^.H.4XwX6X0X6X/.^.4XcXcXwXqXwXcXvXcXxXxXcXcXxXcXvXvX0X).^.!.K.K.E.E.Y.E./.).W.T.XX*.u > u ( ] 0.5.8.5.6.T 5.u.q.N.=XQ.^.7X6X7X^.E.K.K.E.4X4XW.4X4X4X4X5X=XJ.R.W.^.^.R.L.Y.R.Y.Q.4X8X8X4X^.7X6X7X7X^.E.R.Y.N.j.q.) T ) 5.5.X.X.) +.X.X.t.t.X.+.4.,.R ,.b.N.b.i.J q ; 0 %.a.b.M.J.H.x.z.h.f.j.M.C.T.T.N.N.N.N.v.T.Q.Q.k.9.7.k.j.M.J.M.M.J.Q.Q.M.M.M.j.j.f.<.j.j.f.7.j.N.b.u.q.5.5.6.6.T 4.u.q.OXb.j.8.7.7.j.n.#X} H 7 1 Z Z ] N Y ~ ! W [ @.! B P P ] ..o.e.a.a.e.o.e.B.V.v.B.r.v.n.p. X XB. XN.n.:XOX6.q.v.v.b.v.8.R R 9.M.N.M.-X=X5X9X9XQ.;XiX,XQ.9X>X&X%Xv.e.} x @ > a .X1XOX5XR.5X=X;X9X8XwX0X4XwX4XL.H.M.=X5X=X-X&XN.T.;X;X;X%X;X;X>X;XJ.Q.Y.Y.W.R.L.4XcX4X4XW.W.H.k.Y.Q.9XiX9X&X9X9XiX;X,.",
"6.i.n.u.6.X.T T u.N.T.J.N.T.-X5XN.v.j.j.8.8.j.C.T.&XN.9.,.j.J.M.E.E.^.^.^.^.^.R.6X/.^.^.(.).).(.(././.W.W.H.z.N.e.j y x Z j 6.5XMXnXmXDXvXbXbXbXlXhXbXvXcXxX6XR.c.c.c.^.6X0X0XF.^.7X/.E.4XnX8XY./.c.R.W.W./.Q./.R.R.8XqX/.6XxXzX(.!.!.!.P.!.P.G.F.F.F.F.F.K.K.F.F.F.K.R.F.D.D.R.c.R./.E.E./././.(.!.R.R.^.(.^.R.R.0X/./.6X).xXcX8X/.E.qXmXcXcX6X6XqXcXcXxXqXwXcXcXvXvXbXcXcXvXvXxXbXzX).R.K.R.R.R.R.E.W.^./.^.E.T.A.} 8 > 8 ( ..0.5.5.) ) E X.q.v.C.&XQ.^.4X7X^.^.^.^.E.E.4X4X4X0X4XW.W.8XW.L.L.E.E.R.H.H.Y.Q.=XQ.R.W.0X4XE./.xX0X/.K.L.Y.T.M.j.5.) T X.6.6.6.6.6.6.+.+.0.X.U _ R 9.7.7.j.q.8.t.J p ; 0 #.i.b.M.N.z.l.k.z.7.7.j.7.8.8.8.7.7.j.j.M.M.Y.M.h.j.k.7.:.,.f.J.Q.J.f.,.f.J.J.Y.Y.N.N.f.m.f.7.5.4.4.X.E R 6.N.u.q.q.X.5.5.q.v.v.M.C.|.a.[ m 7 1 ( @.&.] | !  .#. .I P !  . .t.y.O.#.p.p.|.s.i.B.8.8.B.N.v.6.| t.|.n.v.X.+.t.n.OXOXi.u.N.b.N.C.OX;X>X%Xv.N.8.5.M.&X,XeXGXVX;X9X>X;XrX<X<X-.x @ > M .X1X:X4XL.J.-X>X9XE./.4X4X8X4XW.Q.Q.9X9X;X5X;XQ.T.T.N.Z.N.M.Z.9X,XJ.eXiXW.E.W.H.c.D.D.R.-XW.T.J.M.W.W.J.M.j.Y.5X9X5X7.",
"X.O.t.t.6.6.u.u.b.q.v.N.N.m.N.&X&X;X;X%XN.M.N.T.;X-XQ.M.j.7.f.j.D.R././.K.L.K.^.^.^.!.!.^.^.(.).0X4XE.Y.R.L.m.m.| N y u M A i.T.nXnXFXHXmXbXbXbXbXzXvXmXvX0X/.D.H.c.2.D.6XwX0XD.D.K.^.4X8XwXMXGXW.H.H.x.Q.wX8XQ.R.0XDXzXR.!.zX).xX(.P.G.[.F.F.G.G.F.F.F.F.F.F.F.F.F.!.^.!.R.R.E.E.4X4XE.R.E././.K.^.).(.R.R.!.^.R.xX6X0X0X!.6X0X^.0X0XcXcX0XcXxXzXcXcXzX6X0XxXcXvXvXvXcXzXzXzX0X).).).!.R.R.!.(.^.R.E.E.E.!.^.^.%Xs.' 1 1 y [ s.u.u.q.X._ _ +.q.N.b.M.=X8X7X^.^.E.7X6X/.E./.6XwX4X/.R.R.4XW.H.H.H.H.D.D.H.Y.W.W.W.H.D.E./.E.^.6X6XE.K.L.Y.N.j.w.) ) +.6.+.X.X.5.q.8.6.6.+.U U X.9.j.M.j.8.4.)  .' p 1 0 @.t.b.N.T.M.M.H.M.k.j.j.7.5.5.5.9.,.9.7.j.,.7.M.Y.N.k.f.j.7.f.k.M.j.f.f.9.k.m.Y.Q.Y.Y.j.M.j.j.9.4.8.q.) 5.u.n.+.) 6.6.8.5.q.M.N.N.N.u.#.*.y 1 z *.&..Xs.s.e.t.}.t.!  .y.y.#.#.O.U U ^ X.o.e.|.*X%XB.v.v.8.X.Y ^ t.p.n.u.i.6.6.i.A.N.C.;X;X>X>X>XuXtXrX&Xv.v.j.j.N.-X9X;X;X%X>X>XrXZXyX#X*.x # > a *.+X2X5X4XM.&X;XuX-X0XFXwXwX4X=X4XJ.J.5XQ.T.%X-X%XN.8.5.8.j.j.Y.T.Y.iXiXqXwXnX8XE.x.h.x.H.h.M.Y.M.Y.f.j.M.m.m.M.T.-XT.",
"T T U Y Y T X.6.6.8.v.N.C.N.v.8.9.n.T.b.j.M.C.N.&XQ.&X9X9XQ.J.Y.S.R./.^.K.D.K.^.K.!.^.^.^.^.).6XR.R.H.R.4X7XJ.B.O.v u 3 M J i.N.4X7XcXmXxXzXzXzXzXlXbXmXvXcXqX/.W.4X^.wXmX0XE.l.^.0XnXcX8X=X4X5XQ.1.R R d.Y.D.Y.8X/.`.zX(.F.~.lXlXhX).(.F.!.P.G.G.F.P.F.F.F.F.P.F.!.(.0X0X)././././.E.R.R.H.R.R.K./.0X6X^.!.(././.cX8XzX0XR.).).!.zXxXcX0X).cXcX(.zXxXxXzXxXvXvXJXbXzXzXzX0X).(.(.(.!.~.~.~.(.).(.R.R.R.E.^.7X6XT.O.Z 1 1 l @..Xn.C.n.5.) 5.5.+.q.w.M.&X4XE.E.^.D.R.R.E./.0XxXwX/.E.H.H.E.Y.D.D.D.c.c.D.R.E.R.L.4XE.R.R.R.!.!.R.E.J.E.4X&XN.w.5.X.X.X.T U E Y T 9.R T 4.X.X.6.v.M.v.j.j.q.8.X.U K r ; 7  .y.n.C.T.T.Y.M.M.M.k.7.7.,.,.7.j.j.j.k.N.7.7.M.M.M.x.k.Y.M.M.M.k.h.j.M.Y.J.h.z.k.j.J.J.9.j.N.N.b.OX&XZ.6.5.+.E E q.N.C.b.q.q.v.v.8.u.{.=.7 1 G ;.*.&.%.y.oXXXe.O.y.y.#.y.o. .| U Y T T U X.i.OX%XB.8.v.n.XXt.t.| T i.OXA.@XOX6.6.OX;XN.b.C.%X%X&X;X%Xb.j.N.%XT.C.T.Q.Q.C.N.C.b.N.2X:Xy.' p > # 9 K {.*X=X9XQ.;X>XuX5X4X4X4X9XW.Y.Q.E.5X=XT.M.N.&X;X;X&XT.M.Q.b.7.k.N.M.h.E.4XE.4XcXcX8XR.Y.<.7.k.k.J.j.&XiX5Xm.f.M.9XuX",
"| T U U Y E E E R 8.v.8.b.;X;Xb.j.C.Q.N.M.T.Q.Z.M.Y.=X9XiXeX5XW.R.R.R.R.R.R.R.K.R.^.).)././.).6XK.K.H.J.wXMXuXrXXXV 9 i K J t.%X4X7XxXxXlX).).(.).).zXcXcXcXwX8X/.DXFXHXDX/.!.^.^.xXDXnXnXGX9XT.h.1.R E ,.Z.c.x.8X/.R.~.`.zXzX(.(.(.zXlX~.!.!.F.F.!.(.!.P.P.!._.F.!.(.zXzX)././.H.D.D.R./.E.^./.^./.6X6X0XzX0X(.).0X(.(./.^.).0X6XcXzXxXxXzXvXzXzXzXlXzXzXbXNXJXvXbX0XzXzXzX).).0X).(.).).(.!.!.R.R.D.D.K.^.6XqXM.X.V - 1 l $.{.n.;XC.b.5.q.5.) 5.N.-XQ.H.L.H.L.R.K.K.E.wXmXcX8X/.^.H.D.H.D.c.D.H.D.D.R.W.W.R.L.R././.R.F.R.!.R.E.E.E.J.N.M.n.b.n.0.| T T T T T q.R R 4.0.n.OXC.N.v.v.v.5.4.X.U H q ; t ] %.i.N.Y.T.J.z.j.z.h.<.9.,.,.7.m.J.J.M.M.Y.;X=XY.T.W.Y.k.M.M.M.j.7.7.j.5XW.k.x.k.f.M.J.j.f.8.j.N.>X>XN.) U _ T X.N.N.b.q.5.5.q.v.r.n.#X*.w 8 M *.&.s.y.t.s.t. . .e.e.o.#.|  .#.O.O.6.6.O.t.6.6.8.8.8.N.OX1X+XoXO.Y T | O.i.OXn.6.i.OXA.b.OX&X&X%XN.v.4.b.8.8.T.,X-XT.Q.-XC.C.8.6.OX|.#.Q q # O 3 m #.B.5XiXM.5.w.N.4XnX5X5X8XW.J.Y.M.J.T.=X&XQ.&XT.T.&XT.j.Z.k.w.Q.-Xk.z.z.D.4XwX/./.cX8X8XY.M.M.J.&XQ.T.9X-XM.M.T.;X-X",
"X.+.6.u.n.v.v.v.4.8.8.4.9.M.%XN.&XT.N.j.w.7.7.1.k.M.J.Q.&X&XQ.Y.R.K.L.L.K.K.K.F.K.K.K.R.^.E.R.K.^.^.H.L.4XqXnXBX*XS u p F Z t.>XnXzXxXvXzX).hX).zXzXbXbXzX0X8XE./.mXcXvXxX/.6XmXmXHXHXcXwX4XH.1.h.Y.Y.h.x.W.x.c.W.8X~.F.).JXbX!.(.~._.(.!.P._._._.).)._.!._._._.P.!.~.).).^.R.R.E.R.R.R.^.E.E.^.(.6X0X6X0XcX0X(.!.K.K.F.(.6X(.zX0XvXxXxXxXxXvX).bX)._.).lXzXbXNXbXzX0XzX0X`.).`.zX0X0X0X).!.R.R.R.~.R.D.D.R.^.E.j.| Z 1 1 q [ t.b.Q.T.C.8.q.5.q.j.Q.5XQ.H.D.D.S.R.R.E./.xXnXxX/././.H.D.H.D.D.E.R.R.R././.E.E.E.R.^.^.R.K.R.^.^.W.Q.J.f.5.w.v.b.n.0.X.| O.t.u.6.M.5.9.q.u.C.&XC.v.j.M.v.4.) X.! H p ; t ] %.i.N.T.T.Y.M.M.M.M.M.J.J.J.M.T.Q.Y.k.k.E.8X8XW.4X4XY.=XQ.H.h.1.7.k.Y.k.J.x.x.l.d.j.7.J.j.9.9.8.n.N.q.b.) 5.4.5.Z.N.q.T ) 5.v.N.OX@X#X-.w 8 q K } }..Xt.| ! |  .! ! |  .U | #.t.t.i.a.6.A.n.b.N.N.B.B.u.t.%.s.s.o.| Y X.T O.u.X.T b.3X2X2X&Xb.q.v.N.C.;Xj.) 8.N.M.j.w.N.N.>X>X&X&Xn.#.Q 8 # O 9 b ..X.,.T.T.%X>XM.h.d.M.m.Y.T.5XuX&XY.M.&X;X&X&XN.j.M.j.8.j.j.Y.9XeXeX8XW.0XLXIXW.2.D.Y.Y.&XT.N.T.J.T.8.M.j.M.%XN.J.%X",
"n.i.u.v.b.b.N.C.rX-X%XT.j.:.R 8.b.9.,.w.k.j.M.Q.k.f.f.k.k.j.M.Q.M.H.H.D.c.c.D.K.^.R.R.^.4X4XE.H.D.E.E.K.E.E.=X5XOXA y 4 p v y.;XwX6XzXxXxXxXbXbXvXbXJXHXvXzX8X!.(.0X^.6XbX6XzXmXHXvXvXmXcXE.K.E.Q.-XeXeX8XD.1.Y.cXcXcXcXDXvXzXbX).!.~.(._.!._._.).).(.!._._._.!.(._.(.).).^.!.R.R.R.H.D.D.R././.^.0XxX0X).6X).(.K.G.F.F.).cX(.zX(.cXcXzX6X).0X(.~.F.P.zXNXbXzXzXbXzX0X0X`.(.).0X0X0X0X0X/.R.R.).`.qX8XR.H.R.K.z.8.o.Q 7 1 0 ~ e.8.k.M.Q.7.1.,.N.T.M.H.W.4XE.K.K.l.H./.4X4X6X6X4X^.^.H.D.H.H.R.0XR.R.E.E.R.D.R./.0X/.E.E.(.(.!.R.k.J.N.j.5.9.X.R T _ X.o.e.i.n.n.7.7.v.v.9.u.%XOXb.5.5.q.8.q.6.U b q ; t { y.A.OXN.j.j.x.x.k.M.T.f.j.k.m.Y.9X9XW.=Xx.z.Y.E.R.E.R.E.E.Y.M.z.z.z.j.k.E.H.j.7.d.k.7.,.w.T.M.,.R 5.v.C.8.b.N.N.%XN.8.R ) 8.b.%X<X#XoX*.- > 8 x Z ' #.#. .! ! ] ] ] U ! Y P |  ...t.a.+.n.u.4.8.v.v.N.i.t.| | | ] +.| U U 0.n.+.T 6.u.C.C.N.q.8.b.C.%XN.N.j.) R ) 7.j.5.) b.%Xn.q.6.y.H 9 > O 3 z [ T N.-XM.v.%X5.k.R.Y.T.5X5X5X&Xj.,.M.T.N.N.-X-X%X>X&X,X-XQ.8X8XQ.iXSXGXqXW.4XW.c.z.k.j.Y.j.k.Q.M.T.T.N.5.v.T.v.N.uX",
"6.N.B.C.%XT.=Xj.M.-XuX5XT.N.T.;X>Xb.k.N.M.N.Q.Q.Q.N.j.j.7.,.,.7.M.L.x.W.^.L.K.G.E.K.E.^.4X=X=X4X/./.4X^.^.^.P.J.B.N q p y v s.>XnX6X^.).6XzXvXbXlXlXcXzX~.(.).F.F.^.).^.).bXvXvXvXbXxXxXzX/.R.R.c.k.Q.Y.1.1.Q.wXcX0X).qXJXDXvXcXvX).K.F.!.!.~.~._._._.!._._._._.).P.!.).).K.F.^.^.R.E.4X/.R.R.^.!./.6X6X0X0X).^.R.F.F.R.).6X0XzX6X0XqX4X^.R.R.R.F.F.F.(.zXzXzXzX).0XzXxXzX0X).^.!./.`.^.R.W.^././.~.R.W./.E.E.W.%Xs.-.1 ; 0 ~ e.M.E.Y.M.M.k.M.T.Q.M.M.R.E.^.^.E.R.Y.Y.E.4X/.E.K.R.K.D.D.Y.E.W.W.E.R.R.R.R.D.D.H.R.K.K.^.6X4XR.L.x.M.M.j.5.6.X.T Y Y Y | O.6.t.i.m.f.9.9.6.6.8.v.8.5.5.8.8.6.O.] b q 1 ; @.{.u.Z.N.T.M.j.z.J.Y.H.k.k.x.J.Q.4X=XE.R.D.c.x.D.D.R.E.W.R.Y.E.E.H.x.x.H.H.W.R.R.W.Y.Y.N.j.b.T.T.j.7.7.w.q.w.j.b.j.b.n.5.v.w.j.&X*Xa.&.J 1 - - 8 H W W [ A [ ..W W ! P I P Y P ] O.y.a.| 0.q.8.b.C.N.B.n.| Y Y P ] t.t.i.i.i.i.u.6.+.X.) X.5.4.8.b.%X%X-XC.v.7.9.,.8.j.b.5.9.4.B.n.X.#.Q 4 # % > z W X.N.uXrX&Xu.%X4X8X5XuX9X9X5XQ.J.5.j.M.N.Q.5XtXiXtXVX,XiXVXtX>XT.iXGXFXeX=XW.W.W.M.T.j.j.j.j.v.T.-X%X%X%XN.B.v.T.9X",
"8.b.v.N.N.m.M.j.J.M.j.j.M.N.Z.Z.C.%X,X;XN.C.-X&Xk.N.Q.Q.M.8.,.,.j.=XR.x.x.K.7XS.L.L.K.R.Q.Y.Y.Q./.^.W.E.E.P.K.J.B.N 8 a y v O.N.5XnXnXK.l./.mX0XHXzX^.G.2.G.F.2.<.G.!.!.!.).bXNXHXvXxXmXmX0XF.<.Y.w.7.h.j.W.GXFX8X/./.).0XzX`.(.).(.^.).).(.~.(.hX).).).).).).).hX).!.!.!.^.).8X0X0XwXcXwX4X!.R.(.6X0X0X0X0X).(./.R.K.(.0X0X0X0XxX/.R.^.8X4XD.1.S.F.).vXJXvXhX_.zX0X).6XcXcX).R.R.R.R.D.Y.E.W.W.Y.R.Y.Y.E.4X6X5X%Xa.*.7 1 w ~ e.M.E.E.E.E.Y.T.Q.=XY.Y.Y.L.D.D.S.W.T.Y.H.H.R.^./.K.R.R.E.W.W.E.Y.W.E.E.E.E.E.E.^.D.D.K.E./.E.R.L.J.m.f.5.8.8.6.X.T Y Y Y T X.O.8.9.f.8.X.) 6.8.6.6.5.5.8.8.6.O.] G p 1 ; ' y.t.b.Z.T.T.H.J.E.Q.E.g.j.m.J.E.E.H.x.Y.H.D.D.D.c.D.R.Y.H.H.x.x.H.H.H.H.Y./.E.Y.E.Y.T.T.b.M.Q.;X&XQ.Y.N.j.7.j.T.T.N.j.j.j.5.j.%XOX#.[ b - # > q H Q ~ { A ] [ W W W I S I ! I S ! y.#Xa.i.q.B.;X;Xb.q.T Y Y ] | t.XX@X2Xn.+.X.6.i.i.u.i.6.8.b.b.v.N.;XT.-X;XT.j.j.Z.;X&XM.v.8.N.OX6.y.' 2 # # > l W O.N.;X%X&XN.;X5XuX5XiXuXiX9X;X5X&X9XuX9X;X=X=X&X%XiX9XtX;X;X9XQ.T.T.5XT.W.;X&X8X9X&XM.f.f.j.M.M.j.N.N.%X%XN.N.N.%X",
"T.T.N.T.M.j.M.J.M.d.,.R ) X.5.q.u.OX2X;XN.C.%XM.j.%XuX9X-XN.b.v.9.M.J.Y.L.H.E.L.H.H.J.Y.J.N.N.T.4XW.R.Q.^.^.=X-X XB 1 3 u Z t.OX-X=X9X9X4XQ.R.Y.E./.qX4XK.D.S.g.2.G.F.R.^.lXlX).).).).).).^.R.Y.9X&X-X,X8XiXnXwXR./.qXcXcXcX0X(.6X6X).).!.!.(.0X(.(.(.(._._._._._.hX).!.~.zX0X^.R.R.R.E.(.(.^.R./.0X0X0X0X8X).^.^.F.D.^.0X0X0X0X8X/./.wXcX0XE.Y.R.R.^.6XzXxXbXbX6XxXcXqX8X6X/./.R.D.l.h.D.E.E.Y.R.W.Q.k.k.Y.R.J.C.y.' 8 1 t ~ e.m.K.R.R.=XQ.J.T.M.k.J.Q.K.K.E.K.m.N.Y.Q.E.K.H.L.R.E./.4X4XW.Y.J.M.k.z.x.x.S.H.J.R.R.E.^.E.L.L.L.M.k.j.v.B.v.r.6.6.+.X.T Y Y X.8.9.j.v.9.X.6.q.6.6.9.9.6.6.6.X.] m 1 - ; A %.t.u.q.k.M.H.M.H.L.Y.H.x.x.z.z.x.D.D.H.H.Y.D.D.l.c.D.D.Y.R.D.D.R.R.H.H.R.8X/.E.4XW.4XQ.T.J.Q.9XeXeXeX-X=X=X8X9X9X9X>XZ.j.9.8.b.6.C c p # @ > q G J Q ' A W ] W ] ] ] s.s.%.] I U %.oX@X*X2XZXpXN.4.6.U Y Y Y | i.@X@Xu.0.0.u.n.B.b.B.2Xv.) 8.N.C.&XrX-X9X9X-X&X-X5X;X9XQ.N.v.N.N.B.{.' 2 # # > x ..|.*X;X%X:X%X-X=X9X=X5X&X5X;X-XiXSX9X9X9X-XT.J.Q.-Xv.N.&XC.T.>XQ.N.;X9X&X-X;XN.T.Q.M.w.8.8.j.N.M.9.R 4.j.N.b.u.8.8.",
"E ,.8.T.-XQ.J.H.m.7.) R T T X.t.u.n.OXN.b.N.M.8.M.=X;XT.b.N.OX&Xj.j.m.&X=XJ.H.R.J.H.M.M.v.q.q.v.Q.N.N.T.=X=X=X=X|.V - > i G y.@X:X6.4.N.N.v.M.&XJ.Q.=XJ.g.d.z.D.0X0X0X0X0X6X^.F./.^.^.E.R.R.4XiXT.&X,X-X5XqX8X4XL.E.xXDXmX8XR.D.K.K.K.F.G.G.F.!.!.!.!.!._.!.!.!.I.(.(.!.!.6X).F.S.D.S.c.K.).0X/.^./.6X).).)./.!.R.F.F.!.0X0X6X).4X6XqXwXW.x.x.T.H.R.4XqXxXxXzX)./.qXcX0X^.E.E./.E.H.l.z.H.Y.Y.J.z.c.x.w.j.M.J.J.n.y.K 8 4 ; [ u.m.L.H.J.Q.T.M.N.j.v.T.T.H.m.L.M.N.N.m.k.z.x.L.E.K.R.R.L.J.J.J.T.M.M.m.m.H.L.K.E.E.E.^.W.K.x.x.H.m.M.N.N.v.4.8.B.p.u.6.+.^ T X.6.8.8.q.i.t.O.O.6.9.4.4.9.6.O.X.[ K 2 1 7 v ] | T 5.8.j.k.x.l.x.H.Y.H.x.l.h.l.D.E.H.Y.R.R.Y.D.D.U.D.Y.E.E.R.H.D.c.z.c.R.H.Y./.E.W.J.Y.N.M.Y.4X4XW.W.4X5X;X=X&X5X9X9XQ.J.J.T.i.! Z p # @ # i F H Q } { I ] ....%...@XoXa.#.] ] #.s.XXn.n.rXKXrXB.u.6.| Y ^ t.@X:Xn.n.n.n.b.b.N.&XrX&Xv.9.9.b.;XuXuX5X9X9X-X;X9X8XQ.;X=XC.M.N.N. X@X} 2 # # > b @.{.:X%XOXOXOXT.Y.R.=X=XN.%X&XQ.;X9X5X9X9X&XJ.N.T.%XN.N.C.b.q.9.5.8.8.T.;XpXVX-XM.8.9.8.j.j.j.C.C.j.N.%X;X-XN.8.) R ",
"8.5.9.,.8.Q.9X9XT.q.X.5.0.t.t.s.a.i.u.i.B.b.v.B.M.M.j.T R X.u.C.%XB.v.v.J.=XE.E.H.j.8.8.8.5.5.5.q.5.6.u.b.B.m.B.t.v > 3 a F [ t...o.o.| | t.OXOXN.u.) R ,.j.M.H.qXFXHXDX0XE.E./.6X/.7XqXMXMXiXiXtX>XT.k.Y.4X8X5X6X4XcXFXcXL.g.l.l.c.H.R.K.F.F.F.K.!.!.~.~.~.~._.).).!.F.F.!.^.!.K.R.D.G.D.(.).!.R.!.(.(.(./.(.!.(.K.K./.0X0X/.^./.H.D.R.W.E.W.-X;X8X8X8X8X6X).).6X7X^.E.W.W.R.H.=XQ.J.T.T.T.J.J.x.j.j.b.M.j.m.N.|.s.G 9 4 7 [ a.M.J.M.M.N.N.v.v.B.B.N.N.m.M.T.T.N.v.j.j.z.m.L.L.x.S.x.z.j.m.M.T.T.Y.Y.J.J.R.E.E.L.H.L.L.L.m.m.M.N.M.m.j.4.T 4.u.r.6.X.X.6.r.6.X.8.6.6.t.6.o.X.X.+.4.4.9.6.o.o.[ K 2 1 7 k { .._ 5.8.j.M.H.x.D.L.c.c.D.L.D.c.S.H.R.Y.R.R.^./.^.R.H.H.R./.E.c.l.c.D.c.H.H.E.8X/.W.Y.Q.W.Y.Y.W.4X/.0X/.R.Y.Q.=XQ.Y.-X;X5X-X;X*XXX@.b > @ # i K K } &.s. .#.s.s.a.e.O.s.a.t.| | %.{.t.e.6.v.sXrX:X Xv.i.s.|.<X2X:Xn.>XC.u.v.N.OX&X&X5.M.%X%XT.=X9XuX=XuXMX5XQ.=X8X8X=X=XQ.T.N.%X;X<X} 2 @ # % p H  .r.B.N.n.N.C.Q.Y.Q.&X%X9X;XM.M.v.&X-X-X-X&X=X=X&X;XOXq.+.) T 4.9.R v.b.C.;X-X%Xv.j.v.M.M.M.%X%Xb.>XrXrX;XN.v.u.v.",
"q.b.&XT.&XtX;XT.C.N.i.t.O...=.%.t.t.6.u.n.8.8.%XN.N.8.R E Y X.0.b.X.4.q.J.T.J.=XM.j.8.9.9.X.X.X.T _ X.o.5.9.9.o...z > < a x J @.W W W S S ..O.Y Y U Y U 5.8.q.M.N.T.-X8X4X5X9X9X8X8XeXeX9X;X&X&XtXSXiXeX9X4X7X6XmXqX6X8X^.c.l.H.R.E.E.E.R.R.R.K.K.K.!.!.!.~.~.~.hXhX(.~.!.R.R.R.D.R.K.D.F.R.K.G.F.R.!.^.(././.^.R.F.K.).0X0X/.(.^.D.c.Y.8XeXeXeX,X-XT.M.H.R.4X0X7X7X7XW.E.E.Y.H.;X=XQ.%X%XT.N.M.J.M.N.C.N.8.8.q.a.%.F 3 > 7 W t.N.J.m.v.v.q.6.6.u.6.6.6.6.B.%X%X6.8.v.N.J.J.S.z.z.z.x.m.m.M.N.N.N.J.J.J.J.J.J.L.J.L.L.L.L.M.m.m.M.k.j.j.f.9.4.4.4.e.u.r.5.4.5.9.9.q.6.X.X.O.X.Y X.X.4.4.6.o.o.[ G 4 - 1 0 { O.6.5.w.j.k.H.H.H.H.l.l.c.H.D.c.S.H.R.Y.U.R./.8X8X^.E.D.D.E.R.c.c.R.E.H.R.R./.wX4XW.Y.W.4XW.E./.4X6X0X0X7XE.E.E.E.Y.Y.E.=XQ.%X<XoX} F < @ @ a K ( *..X+Xy.a.@XXXXXt.u.i.i.u.t.6.t.t.^ t.n.B.%X&XJ.N.N.OXOX@X:X XB. Xq.v.OX;X>X%XN.b.N.C.-X9X;X=X;XuX=X5X5XQ.E.=X8X8XE.Q.T.%XJ.%X2X+X} 2 @ # % p Z ! 5.v.OXB.OX%X4XW.N.%XQ.%XN.j.N.T.N.N.T.&X;X-X=XQ.v.v.+.+.u.C.C.6.) u.6.4.8.b.C.b.C.N.M.N.%X>X>XC.v.B.B.u.8.B.%X;X",
"q.q.C.n.N.&X%X;Xb.C.a. .S B B S U ^ | 6.u.4.4.N.%X%X%XB.5.T ^ O.) E X.v.M.m.f.J.M.M.b.v.5._ T T U | ..| _ | X.^ [ l % * s a m J J h 7 0 h k N j D U Y D D Y T b.n.j.7.j.T.-X&XT.&X;X;XC.8.) ) 5.5.Z.-X9X9X7XE.qXqX7XL.S.z.l.x.H.E.E.R.H.S.D.K.D.R.K.K.K.!.!.!.!._.hXzXlX).!.K.D.D.R.!.R.!.!.!.F.D.K.!.!.^.(.(.^.F.D.R.6XzX0X6X0X/.E.E.E.Q.Y.k.8.) w.k.M.J.Y.Y.H.J.7X7X=XL.H.H.H.T.J.M.N.N.m.j.8.9.7.j.v.v.j.f.q.o.] M > # 8 S O.B.N.v.6.6.X.U U ^ U Y U U X.4.T 6.6.8.8.j.m.H.J.m.m.m.m.M.N.N.N.N.J.J.J.J.E.E.E.7XE.E.E.J.H.m.m.j.k.m.m.m.v.8.4.r.N.OXB.4.R 4.8.6.u.u.X.^ | | Y T ^ 4.5.5.o.o.[ ( a 1 7 0 ] U _ 5.w.j.j.x.H.H.S.L.c.S.H.H.D.D.R.R.R.U.U.R././.^.E.H.D.R.R.Y.R./.R.D.H.D.R.4XR.R.H.Y.R.R.R.R.R.^.F.(.6X/.H.H.H.Y.4XE.W.=X%X*X.X' x 3 @ @ s L b ' s.1XXXOX*Xn.n.u.OXN.u.u.i.i.6.| Y | 5.v.;XuX=XB.*X@Xn.B.n.r.r.OXb.%X>XrX;X%X&X;XuX%Xj.j.Y.5X9X;X=XY.H.J.W.4X8X5XQ.=XY.Q.M.M.;X|.Q 1 # % % i H #.u.B.&XOX;XT.-X=XT.T.j.j.j.j.Q.Q.N.N.N.T.T.N.j.w.q.b.q.N.%XOXn.T Y 6.u.i.b.u.v.v.T.M.M.N.T.;X>X;XN.B.v.8.u.N.:X;X",
"OXn.*Xn.0.6.X.t.s.s...B k h y 8 N Y Y X.u.4.T 8.C.:X2X<Xp.^ T 5.T 8.N.4.R q.8.8.b.N.C.n.+.Y Y P I [ @.] I ! ! ~ J p % & s s 1 7 q 7 z K Z v B A C I P P | o.6.XX*XOXi.q.6.5.X.) ) ) X.+.6.O.O.0.q.8.) ,.N.T.-XMXqXqXE.z.m.J.Y.M.k.L.W.W.E.W.^.E.E.E.R.R.R.R.R.!.).zXbX(.!.!.!.R.D.H.K.K.H.H.K.K.D.K.R.R.R.^.^.E.E.E.4XwXcX0X0X0XH.L.Y.Q.;XQ.w.R R ) 9.9.8.j.v.v.N.m.m.m.M.J.j.9.v.8.5.8.u.8.9.X.R 5.6.+.X.X._ U W Z M > # p Z @.u.p.u.O.o.U S A B N Y | #.y.t.^ Y | u.p.B.u.q.q.B.v.8.8.r.v.u.u.u.i.u.r.u.N.N.N.N.N. XOXN.B.B.B.j.v.v.4.4.8.B. X XB.u.e.e.u.6.+.6.O.O. .! P P ~ U ! | o.o.o. .[ F p 4 l V %...0.8.b.M.k.M.R.R.H.H.x.R.4X4XR.D.D.H.H.H.D.D.R.^.E.H.H.H.L.Y.E.R.L.R.L.E.R.^.0X7X4X8X4X4X/./.E.^./.D.R.R.E./.4XE.H.4Xx.x.T.%X:X}.Q x 3 + . & < - l @.#X{.oX@Xu.n.u.6.6.6.6.O.O.O.O.U 6.u.u.v.m.N.=X;X Xu.n.*X Xv.OX&X%X%X&X%XC.N.M.T.T.j.R f.5X9XJ.J.Y.T.Q.E.E.8XiX5X;XQ.%Xv.v.&Xs.J > # % @ 3 Z #.t.6.n.OX>XN.Q.=X&XQ.j.j.J.Q.J.7.7.5.j.N.T.N.M.N.b.b.q.OXOX6.6.6.OX:XN.u.9.R q.%XC.N.N.C.b.M.-X9X-X%XN.b.%XrXuXrX",
"| o.#.t.#. .A B v ' K q 8 u q q B P O.u.OXN.X.q.i.O.| e.B.u.9.>.9.v.m.8.4.r.u.6.X.O.y.s...S B S J J A A H H Z V m r - - 3 a p r q l v H H B c B P !  . .O.t.a.XXs.....#.| I ! | U C C !  ... ...U Y | 0.n.@X<X:X%X;XsXsXN.9.R ,.m.=X5X5X=XE.4X9X4XW.J.R.K.H.H.R.^.^.^.^.^.R.K.D.K.R.E././.E.E.E.^.P.L.L.K.E.R.H.T.Y.=X-X;X-X&X%XY.=X5X-XT.8.R E Y X.6.t.e.t.y.{.OXr.5.u.OX:XOX XOX X X|.i.6.o.O.] ' { ] H A A A J m y 8 4 u M J  . .@. .W A Z A V A H J Q ~ W W W ~ ' ..@.@.@.@.@.@...O. . .[ ] [ W W I P W ! ~ } @.@.@.@.$.#.#.e.u.u.e.r.u.p.r.u.e.e.o.#.#. .!  . . .~ A V B v j B H ~ [ [ [ } K L p l H } #.X.r.r.j.m.J.J.m.f.f.f.k.J.N.M.M.N.J.J.J.E.W.E.L.L.R.f.k.j.J.m.Q.Q.5X5X5X4X7X4X7X4XW.=XY.H.H.R.4X4XY.E.E.J.z.j.x.Y.Q.7.h.M.w.u.s.[ M > + + X + = 5 K *.oX#X.Xy.#.^ | Y Y  .| P U o.O.X.u.%XT.m.m.H.-X;X%X8.4.8.N.%X%XT.J.N.J.T.%X-X9X%X8.5.N.T.Y.9X9X-XQ.Q.Q.Q.9XiXeX%XC.b.q.C.%XO.G - - @ - p l @.{.t.i.;X>XY.W.nX9XeX8X-X;X=XY.M.N.N.Q.-X&XY.T.&Xb.OX;XOXq.4.q.%X;X;X>X;XN.5.5.v.M.C.-XuX9XT.N.N.M.N.N.J.T.-X5X5X",
"o.#.@.[ W Z v z p x u 1 4 8 u b } %.a.n.OXn.O.e.] I A I o.6.r.V.V.B.B.r.r.B.u.e.t. .! [ =.} Z h m b b b b m b b x 9 - - 2 p a p b v b V H A W ! ~ !  .#.e.e.#. .W B V B B S I A A S S W ~ H V A B C !  .#.y.{.{.a.p.u.e.6.6.r.B.N.N.B.v.V.v.N.%XJ.M.m.M.M.M.J.Y.E.R.K.K.K.J.J.L.L.J.J.L.R.Q.=X=X=XE.J.J.J.J.N.u.T T X.5.6.u.u.i.C.OXC.B.q.4.X.^ e.O. .! W A G H ! P P  .y.y.#. . . . .! P S B V J K K G M x x x z p u 8 9 p x F H H H H Z v b b b b b z l l l q l l z b b b z z l l z v v v V v z z l h q y p p p a p p z V H H W ~ .. . . . . .W W P A W W ' ' J Q J H b y q 8 w q l L G G V L x a e r b ' .. .O.e.u.v.v.q.6.X.X.X.5.6.0.6.6.0.b.b.b.C.T.J.M.m.j.j.M.q.5.6.b.N.&X=XT.J.M.m.S.H.E.J.m.m.J.-X=XY.Y.Q.Q.Y.k.j.j.k.W.h.j.j.5.5.O.W K i # + . . X & 5 F ( } Q A A A P !  .! [ @.%.#.o.X.6.u.b.%X%XM.T.;X;X Xr.8.u.v.v.M.T.%XT.N.N.%X%X%XB.v.N.N.N.-X-X&X,XtXVXiXtXVXVXOXi.u.t.A.n.] K > : @ - 8 8 K .XoX@Xn.b.n.N.v.T.T.T.&X;X>X;X%X;X;X>XrX,XC.N.C.OXXXn.p.u.i.OX2X2X*X:X*X:XN.N.N.:X2XaXpXrX%XB.B.N.%X;X;XrXrXrXrX",
"y.y.$.[ H V G G b l q q a p x ( } &.$.#.t.O. .[ S V v c C ! e.r.B.B.B.B.u.u.r.e. .! A A W Q Z h l p q q i i p a e 2 - - 2 i a x b c c V C C A ~ ~ P C P ! o.e.#.] A V k f j j f B B A H A B c c B B W ~ A P ! ~ | ^ | o.t.|.@X*XB.r.^ ^ 4.8.u.v.u.v.v.B.N.N.C.-X-X=XY.J.H.J.J.J.M.M.M.N.C.N.v.6.6.6.6.o.O.o.^ P S C N C S I W W ] | ] ! I I ! [ W W W ' } K b y q 8 q b G G b x b x z p q 8 3 9 q u u q 8 4 8 9 4 4 4 3 i a a p p g q p p q 9 9 e e 3 1 > 1 1 1 ; 1 1 1 4 > > > > > 1 4 1 1 1 1 4 > > - - - - > > % # - 2 q l z b G K G v l h h 0 h h y y z M m b M b x i 3 > > - - > 2 9 e p i < , > > q b H W ' @.y.y.#. .! P S C V S S S S A ] ]  .O.t.O.O.o.) 5.4.T E ^ +.^ T ^ ) ^ 4.8.j.m.m.M.J.J.J.T.=X-X9X9X9X;X=XT.J.T.Y.j.k.M.5.6.u.@.Q p # @ O . O @ # < p a r q c G W @.*.Q W [ ' A ] | #.y.i.XXn.6.n.@X@Xp.6.t.@X3X<X:XOX%X:X%Xn.v.OX:X%X%X&X%XC.&XtX;XC.OX%X&X;X2XOXu.u.i.6.6.e.! L & + O @ , > x K } *.[ ..XX@X{.s.y.y.y.{.oX{.y.{.a.{.XX.Xy.#.#.s.}..X.X}.&.}..X.X}.s.}.s.$.@.#.XX#X3X3X1X+X|.a.a.XX+X+X#X#X#XoX",
"/ Q H v l l n x x a a F F L F K G ' H W ~ W ' Z b b b z V Q ..#.o.^ ^ ! ! ~ W W V A Z c h l z z i 5 < > > , < 3 , > > , < i d L G V V G H H W W ~ W P P ~ ~ P S H Z Z Z V Z A B V A J J H c c v b b Z V h f h f w f f j C ~ ! W ! P C C C P P P P P ! ^ | | o.e.e.6.+.X.X.X.X.o.6.O.6.e.O. .U D B B B V V V c f h q 0 8 q y h y h h c v Z H J Q Q Z c l l l q 4 % @ @ # , , : > , , , # @ @ @ # # - > - # # - > > > > 3 i a a i e 9 1 1 1 > - # # # @ O O @ # # @ @ + + + $ # # % % % # + @ @ @ + + + # # # % % + + @ # - - 1 7 3 u p i i 4 4 4 1 4 8 8 4 9 9 4 4 8 4 4 > # @ @ > , , > % : > # * $ # # > 3 p x Z J ' ' K Z m z z y 9 9 9 9 9 9 y y z m Z Z A W U ^ P P C #. .C P P Y U U ^ X.o.4.8.v.v.r.r.B. X%X%X&X&X%XOXN.N.v.q.v.B.v.i.a.$.J q # @ O O @ + & & , 5 3 2 p G } ' ' ( G x y y H H @.&.%.[ @.$.s.oX#XoXs.y.{..X1X{.#. .#.#.o. .t.a.a.|.n.p.p.n.XXa.t.e.O.! P P I I  .%. .! ! J a $ O . O $ @ 3 i a x F K ' } @.' J K K J ' K Z H Z H K J H Z V b G ' } K m b m m F G G b p l b V W } } } } [ W Z H H H J J J H ",
"l r 9 1 1 1 2 < < 5 i a i 5 5 i L K L F b b G p i a x L K / / Q H B g g c g l n l l q 4 2 i p 9 5 6 < % # % , , , , > , 3 i d F F L n n b G Q [ J H H Z Z b c l z p x K G G H G G K K K x p p x a i a i 3 9 q 8 q r q 7 w l z l b n g q q q 0 7 w 0 g l h g l v B c j j B B V V Z V v z l l z b i i i i i a i 3 3 4 > , 5 i i e 3 3 e a F K K F F l 7 1 - - - # & + + $ + + @ $ $ $ + + . X X + # : : - # # # # 2 , , 3 a L F x e 2 1 2 , : + + $ @ + + @ @ @ $ + + + + + $ $ $ + + + + + $ $ $ o o + + + # + $ + + $ $ # @ - 4 > % > > > 1 1 1 > 1 1 1 1 4 1 - 1 7 1 1 1 > > > # 2 5 3 2 > > @ * + + + + % > 3 3 i i i i s 3 , 5 < & * * % % % % % > 3 3 i p x Z H V Z G -.} c b V V Z H W [ ..#.^ ~ ^ #.t.#.o.#.#.t.y.y.#.#...t.t.s.{.{.y.$.' F 9 @ + . . + . * o + & , < 5 a a p a F L e 3 a x l b G b b K } } } *.*.*.} } } ' K G b l l V Q Q Q [ [ [ [ @.} ' H G V c 0 w q l q l G K G b p 5 $ + . . . . . , & & 5 5 3 3 e 5 5 3 < 5 i 5 , e 3 2 2 3 2 1 > 9 > - > < 3 > > # % , < % + & < - 9 r 9 9 e q 3 8 2 > > 4 3 3 > ",
", > # @ # $ $ $ + $ & & + $ & $ 5 e 5 i 9 3 i , % , 5 i d L n r p e 2 2 2 2 2 e < , # @ # , , & & & & $ $ & & < , , , < s a a d a a p p p x x L x n p 9 8 9 i a i < i L a 9 9 q a a a i 3 2 3 5 6 & % % # % < % % > % # # > , , i e 3 , > > > 2 - > 2 2 2 1 2 3 2 4 4 2 3 9 9 9 4 2 2 > > > , < & = & & & & & $ & & & & 6 6 6 6 6 & & , 5 i i 9 - 1 1 1 1 ; ; - @ O @ + @ O @ O O O O O O O + + O @ @ # # - - - 2 2 2 2 a L F L r 9 2 2 < , > , $ $ $ & & & % & $ $ $ $ & $ $ $ $ $ + $ $ $ = = $ * * $ + + + + % + + + @ @ - q u 8 8 u z M Z G K Z b v Z J J J A A Z Z V Z Z Z G K F l 9 8 w 4 # + . @ @ @ @ # % % # + + % * + * * o X X o * o o X + $ + # % < > 3 9 e 9 L x 3 3 3 3 3 e a F K G v c b V G Z V V Z Z G Z Z V b H J W ~ [ ' H n i % . . . X & $ o o   X $ $ # # # % , < < , , , 1 2 2 - > i a 3 a p e q p x b F 5 5 5 e 5 2 9 p x l z z l z Z x x p 2 - - @ - e 3 4 4 9 9 3 4 , , + O . . O + + + + + + + % $ $ + + + X + $ $ + $ @ O O @ @ O O > @ O O # @ # $ + X . . X o X . + : : # # # # # % % # # % , % @ ",
". . . . . . . . o . o o   o $ X + O + $ O + + + X . + $ , : # @ O O O . . . O . . . + X .   o * $ # & & , , < 3 3 , > 3 i a a i s i a a a i 3 < < 3 s s < % @ . * X * & & & , % % % % % * * * * * X X X     X     . X + * + + $ X X . . . . X + X . . + . . . O + + + . X . . . X X X X X X                 .   . . . . .       . . . . O @ # - 8 7 1 ; - ; 7 w ; ; ; ; ; ; ; ; ; ; ; ; ; 2 1 - ; ; 1 9 8 w 8 w q r p l b G G G z l q r r 9 9 3 > > , 3 5 3 3 5 6 6 < < < , , , < , & & $ = = = = = & < 3 3 9 e 3 > > 4 7 w g v H A W @.s..X#X$X#X#XoXoX+X1XfXdXZXdXyXaXyXfXZXAX3X#X}.[ P A S c 8 > > > 4 > - # > > # + X + + X   . X   . X X X X X + + + O O @ . . + . . . + . & $ $ + . + @ $ @ # - : @ O # > - > > > > - - - # 1 4 4 8 2 > @ & .   o   o = = o o . . . + @ O O $ # O O + + O O # , @ + % $ . + # # > > - @ O + o . o * $ O O # @ - - @ - > # : # : < , # # - > 4 4 > - # - 3 - - @ @ # , 5 5 5 6 & + + + + . . X X . . . . . . . . . O @ @ O O @ # # O O O O $ + .           . . . . . . . + . O @ O O @ O O ",
"+ + + + X . + * * . . + . . + X & . $ $ . + . X o   . . O O O + . X $ X . . X . .   . X o . o * & < 5 5 3 5 e i 9 3 4 8 p x p 9 % > , , > % > > > % % % % & & & = * * * + & & + & % % * * * + X X   X X     o X $     X X   . X . . X X .       .     . . . . . X . . . . X .   X                       . . . . . . . . . .       . O O O # - 1 7 q c V V B c j W W P A A A A A A W W W W Q W H H J J J H H V V V A H H W ~ W A A S S V V c h l y q y p p u y p 9 9 q q 9 8 8 8 9 3 < < , = 6 = 6 5 e a x G H K J G Z J [ [  .#.s.u.u.i.u.u.u.B.:X;XrX5XrXpXBXKXuXrX5X;X5XrXpXpX;X;X:XOX:X<XOXs.A v v v m z y 8 7 4 > # @ + @ + O @ $ @ + + @ @ @ @ # > - # # # & . + . + . X . . . X + X . . . $ O . + + @ + @ O + @ @ @ @ # % @ , > # - # @ + * X o o   o $ = * * + . . O @ O @ O @ @ @ O @ $ O O # $ . . X + + . . . + @ @ @     o .   . O # @ @ > > @ # > @ 1 - - ; 7 7 w q w w 7 1 q h 0 8 q q 7 ; 1 8 x x a 5 > % # + + + . X + . . . @ @ O O @ @ # @ @ @ ; - - - ; - - # O O @ . .   . X . . . + + . . O O # - # @ @ - - ",
"> 2 3 2 > : , < - # , # O @ O # , . $ . X . $ .   X $ O O @ @ O . $ O . . + O . . + . . + + + % 2 9 p n n b F G z q g c v c h q 9 9 3 4 8 q 8 1 3 3 3 3 < , < 6 & 6 % % , 3 5 # < % < % % < > % % % $ O + $ $ @ $ + O $ % + # % $ + O O + $ @ O O O O @ @ @ O O @ O O O O O @ % O . . . . . . . X . . . O O O O @ O O . . $   . . + O @ - - w g Q }..X}.#X1X1X2XdXpXaXrXrX2X<XsX;X*X:X*X2X2X*XOXoXoXoXoX+X+X+X+X@X+X1X+X@X+X*X*X2X*X*X2X1X@X.X.X.Xs...[ [ ..[ ] Q Q Q W I I I A B k v i 3 i 3 3 3 8 z } .. .{.oX#X@XoX@X+X@X Xv.;X=X=X=XJ.m.H.E.7XJ.P.0XnX0X6X0X7X7XE.J.=X7X7XP.J.7X4X5XMXKXiXpX1X@X+X1X#Xs.@.@.H V z 0 8 e 1 - 1 7 w q q q q l q v v q q g q ; - # @ O @ @ # # @ # # @ @ + O . O O O @ $ @ @ O O @ # @ @ # # @ % @ @ > > # # % + . X * * + $ < , 5 6 # @ @ - - @ - - @ > F L # O @ @ O + + .       + . $ . + . .   $ . . , # @ 1 ; ; w h l p h j C ~  .#.}.{.}.{.s.i.XX1X3X1XXX@XoXa.%.%.&.&.@.[ K v y u 4 1 > > # # > - # - 9 4 1 1 u l z G } [ / -.$.}.-.Q l q ; - - # O O . . . . O O O @ - p x F b b Z H J ",
"*.$.} } } } Q G H Z V q w w ; ; > O , + X . + . . . O @ # # # - # - @ @ : @ @ @ @ - - @ # - 1 p b V V V A Q [ } A A A W ~ I P A Z H J Z V V v v h h y y q w 8 q > 3 3 i 9 4 q u y 9 p y 9 y y q q u q w 7 7 7 1 1 8 4 p q - - - 1 9 8 1 - 1 9 q r q r r p l r r l l r p r 9 4 1 1 1 > - - - - - @ @ @ @ - - - ; - - @ @ . + . + O 2 2 r l g V ~ #XdXdXaXZXZX2X;X5XuXFXLXLXFXiX5X-X9XuXuX;X=XQ.=XOXA.b.b.N.C.&X;XrXtXVXVXiXtX>X;X9XeXeX9XtXtXtX1XtXCXVXZXZXZXZXVXAXAXZXVXtXtX>X>XCXXX%.A h p 9 i l Z ~ y.|. X:X%XJ.:X%XB.8.f.=XMX5X0XnXMXnXxXxXxX6X7X(.6X6X(.P.P.^.^.L.S.D.P.^.P.^.7XP.=XnXKXFXGXpXpXpXpXyX<X*X@X<XoXoX}.@.Q Q @.W / $.}.oXoXoXoX1X#X{.{.#. . .$.V b b z z l l p 1 1 1 - - 1 2 2 > - # # - - - - - 1 3 4 4 3 4 4 > 1 8 q q w 7 4 > > - @ # 4 8 4 9 i i 8 1 1 ; ; 7 ; ; 8 F } } F - > # O O O @ & + . X . X . + + . . O @ - q 0 g c ! $. .#.}.{.t.i.N.%X%X*X;X;X&XtXpXSXKXSXGXSXSX;XtXKXKXPXPXZX3X+X.X.XoX}.J k k v Z Z v B J [ [ @.*.&.}..X#X$X#X3X1XAXdXdX#XoX$X#X-.J c 8 ; - - @ @ @ @ @ - l K }.$XfXAXfXZXZXAX",
"+X*X<X2X3X3X3X3XdX2X+Xp.#.e.! S z > < # + + @ $ & - 1 p L G K } } [ [ $.-./ H Q ~ [ [ [ @.$.&.{.oX#X#X#X#X1X3X1X<X<X2X<X2X2X2X<X1X1X2X1X<X*X@XOXn.a.a.{.}.y.%.%.J Z h V Z v I $.y.t.{.s.s.{.a.a.a.a.{.{.a.t.y.y.}.a. . . .[ }.oXy.}.}.%.#.y.{.oX3X1X1X<X1X<X+X@X|.|.}.{.oXoX{.y. . . . .[ ' ~ Q } } } } } @.@.@.Q K K n : # O : n } -.-.&...p. XaXpXuXaXiXiXuXMXFXmXcX0X0XwXnXnXeXMXGXwX=XH.H.H.k.j.j.k.k.M.H.H.Q.E.-X8X4XW.E.R.R.^.^.R.E.8X8XW.T.W.-X;X8X9XeXiXtXtXiXiXnXnXcXwXeX&X2X@X..Z y h B #.|.<XaXMXMXJ.P.=X7X7X7X(./.(.7X6XqXqX5X6X7XR.7X7X7XE.J.K.L.S.V.m.S.S.L.^.5X8XqXuXuXMXLXSX&Xk.R.4X9X9XiXSXKXVXrX%X:XyXdX<X+X<XdX3XsXsXsXsXaXpXsXsXaXBXBXpXaXaX<X+X+X+X@XoX|.{.#.e.y.y.s.%.@.[ [ [ } *.-.-.*.@.&.}.{..X.X.X.X}.$.&.}.{.{.}.y.%.H J A V V ~ ~ W S A H H H H A B A B V H W Q [ Q y 9 1 ; 4 4 - # > # % + * . + O 2 ; g H $.y.B.:XrXrX5X&XT.&XrXKXiX9X&XJ.J.Q.4X8XwXGXHXFXcX0X0XxXcXqX4X4X4X-X;X,XtXtXZXPXKXCX1X3X1X3X$X@X@X1X3X1X3X3X3X3XVXZXZXyXaXsXdXsX:X XsXPXPXKX3X#Xy.W j 0 ; ; 7 w q V @..X{.oX*X*X*X:XOXN.",
"uXuXuXMXMXuXMXMX5X5X5X&X5XpXaX<X}.M q 4 > % > a x b J @.-.}.oX$XfX3X<XdXZX3X@X*XaXyXyXZXKXKXZXZXZXKXKXKXKXZXpXaXpXKXKXBXMXKXKXSXKXKXSXKXLXLXSXuXuXrXtXpXpXaX2X3X#X&.A ! y.t.|.*X*X2XtX2XrXrX;X9XuXrXuXMXMXuXuXpXrXrXrXpXdXyXZXZXdXpXaXrXpXKXKXBXrXrXrXrXrX5X;X&X-X&X%X%X5XpXpXrXpXpXpXpXyXaXaX3X1X3XfXfX3X2X<X+X1X$X#X} 2 : O e *.$X$X#X|.e.B. XpXMXMXnXqX5XcXFXmXcX0X6X0XqXwXwXwXqX8X8X0X0X4X/.R.R.R.W.W.R.R.D.R.D.D.R.R.R.R.!.F.F.F.G.G.R.R.S.c.l.c.l.l.l.D.R.x.H.R.^.).`.zXzXqXeXiX1X .k y v P |.:X%XJ.7XxXlXHXxX^.^.lXvXbX(.6X0X7XJ.L.J.L.l.M.J.E.J.J.Y.Y.J.N.J.=XT.T.E.=XW.9XuXuXuXMXuX;XQ.E.^.7X6XwXnXnXuXMX5X-XSXKXrX;X;X;X-X5X7X7X7X=X7X7XqXqX7X7XMXMXuXpXpXpXpXpXMXpXpXpXrX;X Xn.n.n.n.|.@X2XdXAXZXyX3X*X2XyXpXZXZXVXpXZXZXZXpXpXKXKXyX@XXXXXXXn.u.B.|.+X+X#X$X1X$X#X@XXX{.XX{.#.!  ....X}.@.@.*.} J K G x a 3 < + + @ 0 B  .|.2XuXuXmXxX7X6XvXmXxXnXFXHXGXDXDXDXnXcXwXcXwXxX0X8X/.(.^.(.!.^.8X0X8X6XqXwXGXLXiX9XVXVXVXPXKXVXVXVXtXtXpXKXtX9XpXVXuX>X9XuXuXuXL.V.J.J.7XMXuXuXKXZX2XOXa.}.-.&.-.}.{.XX@X2XrXrX-XJ.z.f.f.",
"mX5X7XxXmXmXxX7X0XqXnX5X9XiX;X%X3X&.' z 8 8 q K *.}.oXoXXXXX@X@XrX5X%X%X;X5X-X-XMXKXSXFXFXiX9XuXKXKXMXuX5X-X-X-XE.4X5X=XE.7X7X7X6X6X8XwXnXwX6X7X^.=X4X5X5X-X&X%X1XoX! X.:X;X;X;X-X9X9X=X=XW.S.K.qX7X7XxXnX0X7XqX5X9X9XMXMXuXrX;XuXqX7X7XqXMXwX7X4X4X4X4X7X4X^.R.^.^.E.E.^.6XqXqXnXwX9X9X9X9X9X9XrXtXpXpXuX5X:X X2X3X$X$.7 - # x {.<XOXu.6.4.v.M.4X4XqXMXnXcXxXxXqX0X0XwXnXGXGXGXGXqXW.W.8XqX8X/.).).~.!.!.(.).).0X/.^.!.!.!.^./.).~.R.K.R.R.R.E.R.K.D.F.F.R.K.F.D.D.R.!.~._.).`.zX0X9XOX] f y Z P a. X%X=X(.lXbXmXxX(.!.!.).vXJX6X6X7XL.H.Y.J.v.8.b.N.N.N.%X%XZ.N.N.C.C.T.T.Q.T.=X-X9X9X;X;X>XeXqX0XqXnXDXcXwXcXcXnX4X8X4XJ.5X5XT.R.E.4X4X7X7X6X6XxXxX/.7XcXcX6X7X7X7X6X0XcXcXnXnX8XW.J.M.j.j.j.T.%X5X9X9XuXuXiX=X=X5X8X8X8XwXwXFXKXMXwXnXFXFXuXuXrXrX;XN.v.H.-XrX>X;X;X;X:XOXC.;X%X:X:XOX X Xn.+X$X@Xa.%. .O.}..X-.} L i @ + # f  .n.%XuXcXlX(._.zXNXbXNXHXHXcXDXGXDXGXGXDXGXcXwX0X4X4X4X4X4X/.K.R.).xXvXcXcXvXHXIXIXDX0XwXwX8XGXiXiXGXGXGXGXGXFXnXnXGXGX5XQ.=XE.7X5X7X6XmX6X7XmX0X7XuXSXKXSXZXZXZXKXKXKXZXrX;XT.5X9X=Xz.7.l.J.",
"cXxXxXmXHXmXlX(.).6XnXnXnXSXiXtX1X3XoXQ 0 y z } .X3XdXrX%X%X%XT.9X9XJ.f.M.=X5X5XMXFXFXnX4XH.L.0XFXFXnXqX7X^.E.L.L.P.^.P.P.P.^.^.^.6XcXcX6X^.^.7X^.^.^.4X=XJ.J.N.OX{.Y Y b.%X%X=X=XqXqX^.7X7XK.).vXlX).zXxX6X^.^.nX8XH.j.j.j.Y.T.E.7X0X7X/.^.E.R./.0X0X(.!.!.R.F.6X6XzXxXxXzXxXvXmXcXcXwXcXcXcXwX5X9XnXMXnX5X=XJ.%X*XoX[ 7 - > F }.:Xu.X.9.j.=X4XJ.S.K.4XxXcXxX/.6X^.K.H.E.8XnXGXeX4XT.H.H.R.R.R.!.!.~.^.).).).).).6X).(./.0X0X6X0X/.^./.6X6X0XwXwX/.K.D.K.!.!.R.R.R.R.!.!._._._.R.R.T.@X%.v z h P e.8.M.7X7X6XlX^.).0X0X).).).zX).6X7XE.J.Y.N.v.8.u.b.i.n.A.A.n.b.B.b.b.N.%X;X9X-X5XuXiX;XQ.&X-X8XW.4XnXDXwX8XwXR.4XR.W././.cX0X8X4XE.E.^./.0XzX^.!.).xXvXxX6X6X6X0X0XzXbXvXDXDX6X0XwXnXGXeX-XT.5X8XwXqX8X6X6X0X6X6X6X0XzXzXxXvXDXDXmXvXmXHXHXcX4X9X5Xm.z.E.5XqXnXeX9X9X8X;X-X-XJ.T.;X-X%X-X9X>X>XtX;XN.b.q.6.6.{.s.-.} F > @ # f u.OX%X9XmXNXzXbXNXHXJXNXbXJXDXqX8X^.R.R.R.4XwX4X0X0X4X/./.7X0XmXcXxXzXzXxXmXHXvXvXcXcX8X/./.0XwXDXFXnXmXHXFXcXFXFXnX0X/./.4X4XH.x.K.6XzXmXbXHXHXmXnXmXFXiX9X9XeXSXPXPXLXGXMXnXJ.Y.R.E.R.L.H.R.",
"cXnXFXFXwXR.R./.wX8XnXiXiX9X&X&X,XyX$X=.k h v &.+XaXMXMXqX4X5X5XiXSX9XQ.Q.;X9X9XeXiXnXeX4XY.W.cXxXxXzX0XzX6X!.G.K.K.P.(.(.(.(.7X/.4XwXwX4XE.E.7X4X4X4X4XQ.J.M.N..X&.k f O.n.C.;XQ.9X8XR.4X0XE.cXcXzX6X0XqX6X4X4X5X-XM.j.9.) 8.7.m.7XqX6XK.D.D.H./.cXcX8X~.~.~.R.).^.(.0X0X/./.wXwX0X4XW.4X4X4X/.0X6X0XxXvXxX7XE.T.;X+X@.7 > , G O.N.q.9.j.Y.9X4XcX7X/.4X^.6X4XF.F.G.S.L.R.E.Y.H.g.d.1.d.c.E.4XqX6X6XxXvXvXxX6X/.^.4X).^./.cXcX0X^.4X^.E.^.4X4X4XnX8XR.L.R.).6X0X0X0X6X).hXhXzXxX0X8XC.A.] y u 8 [ y.X.R z.K.7XxXlX).(.^.^.^.~.!.6XxXxX7XE.Y.N.n.u.u.u.i.n.A.A.n.%X&X%XC.N.N.Q.;XuX=X-X-XT.W.eXeXeX-X=X8X8X=XE.Y.4XwXE.0XcX0XcXK.H.Y.E.8XqX0X)./.cX).!.^.^.W./.4X8X8XqXcXcXcXcXcX/.W.Q.-X>X>X,X>XqXqXwXwXwX0X)./.6X).).).).).kXxXcXnXDXJXDXJXmXcX/.4XY.m.E.MXFXnXqX'././.W.E.W.=XE.=X9X9XW.4XiXGXeXeXT.Y.5X5Xm.R 5.e..X-.( < @ @ 7 s.@X&XeXDXHXHX_._.NXIXIXJXJXHX).`.bXbXxX).).zXzXxXvXbXzX6X6XxXR.W.7X4X6XqXxXxXHXDXvXvXcXwXwXcXcXHXHXcXqXxX6XK.qXwX4XK.S.L.E./.cX/.R./.!.zX(.vX).zXvXHXDXqX5X8XcXHXIXHXcX0X8X0X0X/.W.4X0X4XE.Y.",
"4X4X4X0X4XE./.wX8XE.8X9XeX>XQ.,XtX,Xa.%.Z k k {.yXaXMXMXwX4XW.5X&XtXtX;XT.n.v.n.T.T.Y.W.8XW.W.0XqX).R.!.).6X^.F.K.F.K.(.(.(.(.6X0X/./.0XwX0X/.E.4X4X4X5XW.Y.J.N.a.@.f k i.&X%X,XQ.8X4XH.W./.H.0X8X).4X/.4X8X8XqX9XuX;XT.j.,.5.) x.W.8X4XL.x.c.D.Y.'.qX'.~./.'.8XcX/.^.6X8X^./.cXDXcX0X8X8X8XeX0X0X6X6XzXxXxX6XE.R.;X:X@.8 > > F  .OXT.T.-X8X4XY.R.E.0X0XR.R.^.D.L.F.K.R././.R.M.h.1.,.1.D.^.4X6XvXxXzX6X).^.R.K.R./.E.D.L.4X4XE.E.4X4XL.L.4X4XL.L.H.S.L.^.6XqXqX4X/.^.!.!.!.(.).^.9X;XOXW 0 p p ' +X:X-XuXxXlXzX!.^.(.^.R.R.R.R.P.^.E.L.x.j.v.b.i.t.0.t.a.XXXXXXn.OX%X%XN.N.=X9X9XY.Q.8X&X&XQ.M.Q.Q.Q.&X;X9X9X9XY.8XR.4X/.H.8XR.qX4XW././.^.^.^.~.8X8X/.8XwX0XE.R.W./.0XwXqX8X/.R.Y.Q.-X,X-XC.Y.cX4XR.K.^.).6X).zX0XzXzXkXhXzXbXcXcXDXvXxXzXxXcXwXR.k.J.qXFXnX7XcXqX8X/./.R.E.W.W.H.H.R.E.4XwXnXiXwX4XE.nXLXMXQ.B.n.+X-.K 1 # - k @X2X2XGXcXJXvXbXbXbXvXJXHXHXJX`.zXbXbXkX).zXvXlXzXzXzXzX6X(.^.7X9XwXqXqXcXcXxXzXcXcXxXvXDXcX4XDXFXHXmXxX7XE.E.R.L.R.7X/.L.c.H.8X4X^./.(.JX0X).cXxXzX6XY.c.Y.wXbXJXDXcX0X8X/.W.wXnXGXnXW.H.T.8X",
"W.4XD.4XDX4X4XwX/.qX5X=XiXMXeX9X;Xq..X.Xy h j .X2XrX;X>X;XT.qX-XpX2XOX6._ U U T 0.0.q.Z.W.W.E.H.H.D.L.E.^.K.K.^.^.6X(.P./.6X6XxXmXxX0XqX0X).6XxXzX/.R.R.W.4XE.M.*XO.h y X.Z.E.8X8XW.8X/.W.8X/./.0X6X/.R.E.4X0X8X/.8XT.Y.-XQ.j.j.E.E./.8XW.D.H.W.E.c.D.Y.R.R.D.R.F.6X).^.R.^.zX4X/.xX/.wXcX/.0XwX/.wX6XvXcX7X4XL.L.=X%X#.7 # 3 G O.v.N.=X8X5X^.^.^.^.E.H.H.^./.R.)././.6X4XY.j.7.f.j.k.m.L.7X6XqXzX6X^.R.K.L.H.H.4XL.H./.0XwXwX4X4X4X0X0X/.4X4XH.D.l.L.qXnX0X/./.0X0X0X0X).^.~.~.6X6XuX:X@.7 8 l #.n.>XKXFX6XbXbX^./././.R.H.Y.R.R.^.E.M.v.u.6.| | #.{.s.{.{.O.a.n.n.n.n.N.N.C.%X;X%XT.N.N.%X&XC.T.T.&X%XC.&X>X-X,XN.M.&X8XW.E./.4X/.W.E././.W.R./.6X0X6X^.R.R.E.K.^./.^.7XE.R.^./.4X/.4X8X8X5XwXqX)./.0XwX0X0XxX0XxXxX6X`.xXbXxX0X6X0XzX7X!./.cXnX8X6X6X^.7X7X^.0X8X8X8X4X4X4X=X4X5X4XW.R.E.R.J.Q.W.H.4XGXGXSXiXpX2XoX@.Z q - - 0 +X3XrXeXwX(.zXxXzXkXkXbXJXHXHXHXvXvXHXHXzXzXmXzXxX6XzXNXvX6XxX0XE.E.wXmXwX/./.).(./.xXHXHXvX0X6XDXDX7XE.^.E.E.R.R.wXwXR.H.R././.0X/.0X).8XD.l.R.0XcX7XR.E.4X4XDXDXcXHXcXcX/.4XLXFXGXwX8X8X0XwX",
"R.cX^.R.0XqXwXE.R.qXwXwXnXnXwXiXFX>X3X&.8 z V O.*X>XOX*XC.N.8X&X;Xu.U N N D U | Y E R q.T.Y.E.8X=X5X=XS.L.7X0X/.^.(./.^.7X6X6XxXcX).!.(.zXcXzX0X).(./.8X0X0X/.T.%X| 8 8 _ j.S.R.W.Q././.W.8X/.8X0X6X/.R.R./././.0XGXGX8XT.k.Y.eXwX4XW.qXnXnXwXwXH.D.E.E.R.R.D.R.).zX).6X6X^.!.S.2.6XcXHXLXHXDX7XqXwXbXxXqX8XW.Q.E.7X&Xy.q - 3 b ! b.&X=X7X7X(.(.!././.L.L.K.R.K.0X6X6X7XY.k.j.j.j.M.N.J.H.H.L.L.6X6X/.E.R.E.E./.D.H.W.4XE.Y.Q.E.E.R.E.E.Y.H.H.H.R.^.0X0X/.R.R.R.0X0X0X0X6X6X(.^.6X6X9XOX..7 8 l O.pX5XH.6X6X(.(.!.^.^.E.R.R.E./.6X^.Y.M.v.q.O.O.%.%.%.@.%.}.%.{.s.a.|.|. X XOXOX*X:X;X:X%XOXC.v.T.-X>X&XC.&XtXtX&XT.N.T.Q.T.Y.Y.W.W.E.E.E.E.E.R././././.^.R.R.R.L.E.E.E.7X^.E.W.6XqX7X^.7X6X6XcX6X6X)./.6X0X0X4X0X0X8X/.^.(.).).0X^.K.K.^././.7XqX6X0X6X^.E.^.K.J.J.J.R.Q.=X=X=X8X9X9X5X=X=XQ.Y.Y.H.d.Y.nXFXSXtXOXXX.X@.m 4 @ - B <X2XtXiXxX(.).xXbXbXzXxXvXHXHXmXvXvXvXvXvXzX).xXcX6X).zX6X6XvX0X8X6X4X8X0X/.R.F.).vXmXzX).0XcXxXnXDXDXnX0X/.8X4XR.W.W./.cX0XR.R.'.~.~.S.^.^./.wXwX6X/./.4X4XK.cXLXIXcX0XwX9XW.M.-X8XY.Y.8XnXwX",
"E.cX4XR./.0X8XR.R.8XnXnXnXnXnXGXMXC.{.{ 8 y Z t.OXOXN.A.b.b.W.Q.4.T Y Y U U Y Y +.X.5.b.N.M.J.W.Q.J.k.x.L.E.7X0X/.xXxXmXHXmXqX6XcXwX).R.!.6XcXmX0X0XwXcXwX4XW.=X%X] 8 u X.j.l.F.Q.x.W.^.4X8X/.zXxXxX0X/.^./.4X4X4XGXLXGXnXiXeXeXE.W.8X8X0XwXnXGXwX/./.R.R.^./.xX0X/.D.R.^.R.6X0X!.xX6X/.0XxXcX4X4X/.mXxX0XwXY.W.xX7XM.^ ; - e K  .v.v.d.S.^.(.^./.0XwX4XE.E.(./.E.E.W.Q.Y.J.T.T.v.v.v.k.x.L.^.8X7X).).^.R.L.D.D.c.H.4X5XY.H.E.E.W.R.D.E.8X4X/.4X/.cXcX/.E.8XcXcX6X)./.6XzXxXzX).6X7X5XOX..7 7 q P 2X-Xz.5XmXvXxX(.^.E.R.Y.Y.R.R.R.D.x.N.B.6.o.O.@. .[ [ $.y...#.{.a.s.u.n.@X<XrX;X;X2XrX:XOXC.B.B.%XrXrX;X>X>X&Xv.b.M.M.N.Y.Y.L.R.E.E.E.E.R.E.E.^.^.E.E.E.R.R.K.E.W.E.E.7X4XE.W.L.7X4X4X7X7X^.7X^.6X4XE./.0X0X/.wX0X4X/.(.!.!.^.E.W.E.J.E.7X8XqX7X7X8X5XE.J.E.R.x.k.k.m.J.Y.Y.Y.Q.4X4X4X5X8X9X9X5X-Xj.k.-X9X;Xn.+.o.#.} m 1 # 1 0 | +.N.9XDXDXHXbX0X).).zXmXJXvX6XcXcX0X0XxXcXzXxXvXzX6X0X6XxXHXvXcXcX0X8X0X6X^.(.0XcXxX6X^.!.^.D.R./.wXwX4X^./.4XwXFX0XR.4XwXcXD.).^.U.l.R.xXHXnXcX6XE.R.R.^.6XxXmXDXR.0XnXGXQ.Y.W.E.x.x.E.E.H.",
"/./.E.E.E.E.E.E./.8XwXwXcXwXnXFXFX%X.X' y 8 B %.|.i.6.6.5.q.N.M.v.6.+.X.| U U U +.u.n.n.T.,X8XW.Y.k.k.Q.4XE.W.6X7X6X7X^.7XqX6X6XR.6XxX6X(.6XxXxXcXzXqXwX0X/.W.9X%X] 8 y o.k.D.!.R.x.R.W.4X8X6XvX6X0X6X/.^.^./.4X4XwX8XM.T.iXiXW.H.qXGXwXW.W.wXnX4XW.4X0XcXDX4XE.D.!.^.6X6X/.zXxXxXcX0XwXcX6X6XcXwXwXmXxX0XqX=X9X^.7XN.O.7 - < b t.N.v.f.S.^.(././.6X4XE.H.K.R.E.E.R.Y.T.N.v.8.5.9.8.M.&X4XY.m.z.L.R.^./.E.K.H.H.R.H.Y.Y.J.Y.Y.k.z.c.g.D.wXcX8X0XH././././.4XR.3.R.R.R.(.6X0X).).).^.=XN...0 8 q ..@XpXKXmXmXmX(./.^.R.H.H.Y.H.H.D.x.k.M.v.6.o...@.@.@.@.&.s.#...t.a.a.|.OX*X*X*X*X:X*X2X&XOX:X:XC.OX;X2XrXtX:Xq.R ,.f.m.M.J.Y.Y.R.R.E.E.E.E.E.E.^.E.R.R.R.R.R.L.R.^.E.R.^.E.K.R.z.E.7X^.4X4XE.J.E././.W./.4X4XW.8X4X/.4X/.E.!.).J.4X7X^.^.qXnXnX6X7X8X6X^.E.E.J.L.L.J.J.J.H.H.H.E.W.4X4X4X=X=X=XY.5XJ.M.T.W.-XZ._ Y W ' m 1 # 1 A t.X.8.k.R.D.F.).).(.).zXmXHXmXvXzX6X).).0XxXvXzXzXzXzXxXxXxXvXcX/.E./.^.K.R./.0X/.!.(.0X0X^.H.D.R.^././.wXcX0X/.4XqXR.c.Y.E.0XR.).8X/.R./.mXLXcX4XK.c.l.D.7XnXFXxX6X/.cXnXFXMXMX4XY.Q.qXwX4XE.",
"^.H.R.^.R.H.H./.4X4X8XqX8X8XwXnX5X>XoXA 7 y A  .p.X.T T ) 9.f.7.N.B.v.8.T E Y +.0.i.N.Z.&X>X&XN.j.N.T.J.L.R.L.z.L.7X/.K.^.8X7XK.R.E.R.D.!.cXmXcXzX6X/.4X8X4X8XeXOX! 4 u O.Z.R.8X/.Y.~.W./.0XzXJXcXcXzX0X)./.6XqX/.0X/.D.z.Y.W.E.8XwXqX8X4X8X/.R.W.E.4X0XnXDX4XR.7XcXxXcX0X/.7XE.^./.6X0XxXwXxXFXLXLXvXxX0X4XiXMX/.5X-Xy.q - > l ! u.Q.=XE.S.F.7X0X6X^.L.H.H.K.H.L.J.J.v.8.4.) R C.v.w.M.Q.4X4XqX/.6X6X6X^.E.R.R.R.x.z.z.k.M.j.R :.l.D.D.4XwX4X4XwXR.l.2.g.H.R.R.F.R.R.!.!.!.~.!.^.E.T.n. .0 8 p @.+XZXPXGX6X8XE.E.R.H.H.Y.E.R.R.E.Q.Y.v.q.t.#...@.} [ [ } @.%.%.{.{.{.{.|.@X*X*X:XOX:X*XOXOX*X*X2X:X%X%X&X;X&Xv.R R 7.k.M.k.x.Y.R.R.R.R.E.^.E.R.R.R.H.H.H.L.H.H.H.L.L.H.L.H.H.L.R.4X=XJ.R.E.W.7X/.W.W.=XW.Y.Y.T.H.M.Y.W./.E.^.4X6X4X7XW.qXFXnX4XnX8X5X4XE.R.R.H.W.4X5X4XE.J.J.J.m.H.J.J.L.J.L.J.k.Q.M.M.Q.;X;XC.6.P C H b 1 @ - W i.X.) <.c.S.l.F.`.cXcX/.).mXHXHXmX0X6XzXzXzX6XzX6X).0XxXxXzX^.).R.F.R.R.F.R.6XR.R.R.E./.0XxXxXqX0XwXcXqXcXDXcX/.E./.H.S.D.R.cXcXqXcXcXcXqXmXLXxXR.3.2.S.E.0XwXmXxX6XwX/.4X8XFXFX4XY.W.8X8X/.R.",
"^.E.0X4XR./.4X4X4X/.4XqX4X4X5X4Xx.b.O.Z 1 7 V %.u.X.| _ X.u.j.f.f.v.%X%X8.E E X.*XN.N.&X;XN.7.7.5.7.8.j.j.j.x.H.^.qXqX^.4X5XE.H.W.^.R.S.K.6XcXcX6X4X/.4X0X8X8X;XOX] 4 8 o.T./.qX8XW./.~.W.0XxXJXHXmXcXxX0X0X0XxX0XE.4XcX4XY.E.4X/././.4XqXwX4XY.0X0XcX4X4XcXcXcXcXcX/.^.^././.H.E./.^.l.S.6XqXDXwXDX).xXxX4XiX5X7X5X%X#.7 @ 2 F | q.T.4X7XK.K.6X0X/.R.H.E./.(.E.M.C.Z.q.) R 4.q.q.4.9.T.9X9X4X6X0X6X/.!.R.R.R.R.R.J.J.N.k.j.7.R :.Y.qX4XE./.4X0XE.E./.wXcX0X8XqX/.).6X).(.^.~.!.!.J.T.n. .0 8 p S oXXXB.;XE.R.0XE.E.Y.Y.Y.T.R.R.D.Y.T.N.n.a.y...' ' [ } [ { =.[ y.a.}.{.@X2X3X2X*X*X2X1X@X@X*X@X:X&X&XOXN.C.C.v.N.j.j.M.M.j.l.H.R.H.L.H.R.E.H.D.D.D.D.H.D.H.D.H.x.H.H.H.R.R.R.W.W.4XW.R.W.R.L.R.=XE.Q.-XQ.k.j.j.7.h.M.Q.4X4X/.4X8X9X4X4XwXMXwXW.4XQ.E.E.L.R.W.J.J.Q.4X4XE.Y.Y.E.z.j.l.k.l.f.f.j.M.Z.j.j.T.T.N.6.6.P C V x 2 @ - [ XXu.5.,.g.l.2.S.^.qX/.R.R.6XvXcXHXHXcX6XzXvXxXHXzXzXzXzXxXzX!.!.(.^.R.!.).0X0XE.^.^./.0XcXDXDXnX^.0XFXnXwXcXnXwX0X0X/.R.D.R.DXHXcXbX0XcX/.0XcX/.R.H.R./.0XqX0XxXxX/.0XE.0X0XnXqXwX4XL.x.H.c.g.",
"E.^.nX0XE.wXcXwX0XW.4X8X4X4X4X=X9X&X..' 7 > h %.i.O.u.u.i.%XY.Y.J.N.%X%Xv.R X.b.&Xu.q.C.C.w.5.w.8.,.,.j.j.f.J.nXnXwXJ.z.g.z.x.R.z.R.4X8X/.^.R.H.R./.4X/./.4XW.T.OX .8 8 ..&X/.6X/.W./.R.R.0XzXbXvXzX).).(.^.(./.mXE.R.4X^.E.0XwXE.4X0XwXwXqX0X8XE.8XDXcXwXnX0X/.H.K.H.4XqX7X^.D./.6XxX^.6XmX6X/.Y.R._.zXwX8XW.H.z.J.OXy.q - , x {.%X=X5XcXxX6X6X^.H.S.D.E./.^.R.;X&XZ.5.Y Y ) 6.b.) R 9.k.k.x.K.F.F.D.K.E.^././.H.H.Y.J.M.N.M.7.1.H.8X4XH.R.4X4XcXcXnXnXqX/.(.6XxXxXxXzXzX0X).).^.E.=Xn. .w 9 l A y.U E 7.j.h.Y.E.E.T.Y.Y.Y.H.M.j.k.N.N.A.i.%.} [ } } -.*.} &.{ A  .y.oX3X3X+Xa.OX+X2X*XXX+X+XXXn.n.OXn.b.n.C.v.;X%XT.J.J.J.m.l.H.D.D.H.H.H.D.c.z.x.x.x.x.k.x.x.J.J.M.H.=X4X4X4XY.Y.J.W.5XE.m.M.Q.Q.&X&XT.j.8.5.:.7.M.T.=X4X4XE.R.Q.W.=X4X5X5X=XH.k.H.H.H.J.=X=XJ.J.L.J.J.Y.Y.J.=XE.J.H.l.7.<.7.j.j.,.7.N.n.v.6.o.! H G x 2 # 1 W a.i.N.j.x.D.c.R.~.R.U.D.R.!.^./.mXHXxX(.).vXHXHXvXvXvXzXxXxX(.!.!.!.R.!.).).(.0X6X/.8XcXmXcXxXcXR.8XFXcX0XnXDXDX0XR.D.R.E.S.R.vXcXcX!.(.R./.^.R./.qX0X0X0X0X4X6X/.^.6XcXFXnX0X/.0X0XE.L.E././.",
"R.D.wXqX^.wXcXnXcX/.4X4XR.E.8X5XMXVX%.J - 4 h @.a.e.XXn.XX>X;X4X=XE.-X5XT.8.8.N.N.q.5.6.5.R R ) ,.,.,.,.,.7.Y.9XQ.J.M.J.J.g.7.M.R.x.h.l.D.R.R.D.S.R.E.R.Y./.-XT.OX@.9 4 | T.E.R.R.R.(.D.D.8X6XhXDXxX6X6X6X6X0XzX0XwXDXnX8XwXcX/./.W.4X4X/.R.D.x.E.E./.R.R.0XE.D.E.R.L././.H./.0X/.E.6XxXHXHX6X0XwX^.zX(./.qXY.Y.R.E.N. .1 @ < F e.%X9X5X6X7XP.K.6X/.E.E././.!.L.C.i.X.R T X.6.5.) Y R M.=XT.L.E./.^./.7X4X/.H.l.j.f.f.7.w.C.&XT.Y.D.E./.E.4XwX0XqXwXcXxX0X6X/.(.zX0X0X0XxXxXzX).7X7X4XOX..0 q l H C k E R 7.H.z.H.M.M.M.M.Y.J.J.8XT.b.u.0.o...%.} ' J [ Q H @.] [  . .| O.y.a.t.s.|.XXa.i.@X1XXX:XA.i.u.i.OX:XC.%X-X&XQ.=X5XY.f.x.D.H.H.x.x.z.z.h.k.M.M.x.k.x.M.=XY.k.H.4X9X5X=XE.H.x.J.4XE.H.Q.N.%X-XQ.N.M.j.9.R 7.M.T.=X=XQ.M.M.f.7.j.Q.9X-XJ.m.k.H.J.k.M.Y.Y.=XR.J.J.R.Q.E.J.W.E.E.W.W.E.=X5XM.N.j.k.b.9.5.6.t.$.@.' x : O - ' i.N.,XT.Y.R.R.8X0X8XR.D.R./.zXvX^.F.K.^.(.6XxXxXcXHXHXzXzXbXzXzX(.^.0XzX)./.0X^././.6X0X0X6X4X0XR.4XwXE./.cX0X/.xXxXR.D.D.S.8XzXDXHX!.^.!./.K.R.^././.0XcX4XD.S.l.R.^.cX7X4X/.4XE.E././.E.4XwX",
"R./.4XE.E./.4X/.cX0XwX8X4X4XR.W.4X%X{.Z 1 > v &.{.t.i.@X2X;XY.H.5XH.f.J.=XN.C.v.9.5.) ) ) ) ) 5.) R R 9.w.j.b.N.v.f.k.T.M.f.7.,.1.7.f.z.R./.E.c.K.H.L.L.R.W.Y.j.u. .4 4 | N.E.D.R.W.R.F.R.W.).zX^.0X0XzX0X6XzX6X6XxX/.l.l./.0XH.4X8XqX8XW.H.S.x.E.W.H.K.4X^.D.H.x.R./.4X/.W./.4X7XwX6X7XxXzX/.0XnX0XhXzXxX0XW.J.S.J.N. .1 # > b t.%X=XE.G.7X6X^.mX0X6X0X/.R.F.z.b.6.) U E _ 5.6.R R 8.T.M.f.j.R./.E.R./.7XE.H.H.h.M.7.,.k.Q.T.T.-XE.T.E.W.W./.4XwX0X4X4X).).6XzX0X)./.0XxXzXlX6X6XE.m.8.! f w b Z A Y T 8.T.Q.T.W.T.M.M.M.Y.H.H.k.k.j.u.u.%...{ ' } ' J ' ' { *.%.%.y.s.y.t.t.t.#.O.u.o...t.a.+X@XOX|.n.i.u.B.%X>X%XT.&X-X;X=XN.M.H.H.H.k.k.k.f.j.m.k.M.f.Q.Y.M.J.M.M.=X5X=X=X=X=X=XJ.Y.=X=X=XJ.T.N.b.R E ) E R ) b.T.N.T.T.M.m.j.J.Q.Y.T.M.k.M.j.j.k.m.M.M.M.m.Q.Y.Y.Q.Q.E.E.=XY.T.=X=XQ.E.E.Q.M.j.8.8.9.4.9.t.y.y.@.J p 2 @ - B u.N.&XeXE.c.c.Y.R.R.Y.R./.).).).0XR.2.2.K.0XmXzXvXmXvX(.F.~.xXvXzXmXcXxXxX!.(.^.wXqXmXcX^.0X4X/.wX/.D.R.R.R.4X^.R.!.(.^.R./.cXmX!.).^.K.(.!.^.0X(.D.^.^.R.8XR.R.L.H.^.6X6X6XwX/.E././.H.H.Y.R.",
"c.D.R.R.H.D.D.H.W.W.8X8X4X4XL.J.m.v.y.Z 1 > z *..X|.XX+XOXb.M.R.J.J.J.E.T.T.;XT.q.) Y T 5.0.5.) T T ) v.%X&XC.b.v.w.j.J.J.J.J.k.M.M.H.H.H.D.K.E.S.H.R.R.R.H.j.,.r.~ 1 1 | N.E.D.Y.E.R.S.Y.R.!.).!.^.!.0X0X/.0X6X4XS.g.c.K.R.0XDXFXqXnXLXFXW.D.E.R.R.c.S.E.E.L.R.0X8X/.L.H.R.^././.xXwX6X0X/.^.6X/./.hXzXzX0XW.J.G.L.B.! 1 - > F a.-X5X4XK.^.(.6X^.4XxX0X^.E./.Y.b.) E T 6.b.q.R 4.v.J.M.m.M.J.R.R.E.4X4X/.R.Y.E.W.Q.M.M.C.M.w.M.T.W.E.H.D.E.0XwXW.E.R.^.(.(.(.).0X).).0XzX6X).).).7XJ.6.I f 8 l ' ..t.n.&X5X4XW.Y.W.W.Y.j.d.h.k.M.k.w.6.6.O.@.@.[ @.' J ' ' [ &.&.@.#.y.t.O.O.t.|. .| Y P U ] a.a.p.p.n.n.n.b.b.OX%X&X-X%X%X&X-XT.M.M.M.k.M.N.k.j.M.M.J.j.J.J.M.m.T.T.Y.=X9X5XQ.J.Y.T.9X9XQ.J.j.N.N.8.E R 8.9.6.C.:XOXb.N.J.8.R M.5X9X&XJ.j.<.,.<.f.M.J.J.m.f.7.7.7.j.M.E.Q.Q.=XE.Y.Q.Q.Y.J.J.T.9XN.j.v.N.b.9.T a.}.&.} p - O - [ OXN.N.8X4XW.Y.R.8X0X/.R.R.^.).R.0X).F.l.G.R.0XxX0X).6X6X).).6XvXzXvXvXcXxXR.R.R.xXnXFXcX/.0X8X0X4XR.R./.0X6X4XxX8X).)./.(.).zXR.G.).zX).0XR.F.(.(.R.R.R.R.cXxX0X^.K.E.wXmXxX/.E.R.R.H.c.c.H.x.",
"H.R./.0X4XR.R./.W.4XwX8X4XW.x.m.H.B.y.Z > > h } y.t.y.i.0.4.j.R.L.J.S.m.M.E.=X5.R R ) 6.b.Z.N.b.8.C.>XtX>X&XC.N.n.v.v.v.M.T.Q.N.M.N.Q.8XW.H.c.H.c.D.H.H.M.x.k.j.6.P - 1  .N.E.K.R.E.R.D.W./.).`.6X/.^.qX0X^./.4X4X/.E.H.E.0X0X/.wX4XW.8X9XW.K.R.c.c.l.c.R.R.H.R.R.4X4XW.E./.4X/.4XqX7XK.D.D.R.qX/.8XzXhX/./.T.J.D.J.b.! 1 # > G u.v.Y.^.7XP.(.lXK./.wX4XR.E.^.H.b.T E Y ) q.N.C.M.Q.T.m.j.M.L.H.D.H.E.W.R.H.H.Y.M.J.M.N.Z.b.b.Q.k.Y.Q.H.R.8XqX4XR.H.R.!.).).).).!.!.(.6XzXzXzXzX^.6X=Xu.~ h 9 l Q #.OX>X>X-XE.H.H.E.W.T.z.h.z.M.Y.M.q.6.+.| [ } ' } ' ' ' ' [ &. . .$.s.y. .! ! t.O...P P | ! U | O.i.OXOXOXOX%X&XOXC.%X:X;X;X&X;XT.T.%XN.N.M.w.j.j.M.T.7.j.j.M.N.T.Q.T.Q.;X=XT.;X&XT.-X=XM.Y.=X%X%Xq.q.N.%X;X2XtX&Xq.4.8.v.v.m.f.T.=XQ.=X=XY.H.M.J.J.M.j.j.k.M.7.<.7.j.M.J.J.J.k.k.k.k.k.z.m.J.T.T.%X;X%Xv.6.O.t.%.@.' a - O 1 ..2X>X&X8X8X8XW././././././.).^.^./.(.).xXvXcXvXxX0X(.(.zXvXxX6XbXzXxXcXcXzXR.R.^.6X4XwXcXcXnX4XwX/.E.4X8XqXxX0XxX0X6X).).).^.!.6X!.^.K.F.).0XcX!.0XqXcX8X0XDXcX/.7X^.K.!.).^.L.H.K.K.L.H.E.W.R.",
"H.R./.8X/.R.R.W.0X8XMXqX4X4XL.J.=XN.s.Z > # y } [ ! ! | O.5.j.L.L.L.z.g.f.M.H.:.R 8.b.b.Z.,XtX>XOX2XpX2XOXn.b.u.C.n.v.w.j.J.&XY.eX=XY.M.H.H.H.R.c.c.x.x.x.H.Y.J.r.~ 1 7 | v.L.K.E.E.R.R.8X0X0XzX0X0X/.8X/.R./.8X/.D.H.0XcX0X/.4X4XR.H.H.Y.R.E.E.E.W./.4X0X7XE.W.L.Y.L.H.c.H.8XFXwX0X^.K.D.K.^.6X8XcXbX(.K.E.W.W.E.E.N.! ; # % F u.j.L.E.mXlXxXbX6X4X4XW.R./.^.x.8.T R 5.q.b.;XtX9X=XJ.m.j.d.g.x.x.x.x.H.J.M.k.z.M.Q.T.j.w.M.N.N.k.k.x.Y.0XnX0XR.E.R.R.^.).).(.).).6X0X0X6X).(.).^.7X-XB.] h 8 l W s.2XtX9X4XE.R.R.Y.J.M.M.x.x.k.j.j.q.8.+.| ] W Q ' ' ' } ' { [  .$.s.}.y.#.| U ! o.O.] ] #. .P N D U O.p.n.XXOXn.i.6.0.n.n.u.6.q.q.n.%XC.N.b.v.8.w.j.T.f.j.j.M.-XT.T.=XQ.M.M.T.%X&XQ.;X;XT.Q.T.N.N.8.C.:Xv.OX2Xi.6.9.v.N.8.8.T.=X=XT.Q.9X9X=XT.Y.Q.&XQ.J.M.k.k.M.k.j.f.j.z.M.H.M.k.k.k.k.z.M.Y.j.T.uXuXT.8.8.n.| ! Q K p - @ 9 s.2X;X&XqXwX/.D././.W./.0XxX6X^.R.F.K.).DXHXvXvX0XzXzX6XzXvXvXbXxX).).6XzX6X!.R.R.^.H.R.4XcXDXwX/.H.E./.D.D.R.^.R.^.).).6X6X).!.6X0XzX).^.6XzXxX).zXcXcXqXcXcXR.D.K.R.K.K.K.K.D.R./.^.E.4X8X8X8X",
"H.^./.R.D.D.H.H.E./.qX5X4X4X4X4XJ.B.%.m > # q [ [ ~ I | O.q.k.L.z.L.L.L.g.f.E.T.Q.;XT.v.Z.tXtX&X>X%Xb.q.b.OXOXb.C.n.v.5.9.M.&X&X=X-X-X=X=XQ.H.d.z.z.x.H.L.L.m.f.B. .w 7 Y 9.S.L.E.E.R.R./.4X(./.K./.E.R.H.Y.0X0XY.D.D.E.4X4XE.E.W.x.x.4X7Xx.S.7XqXqXnXnX6XW.E.E.R.M.x.J.H.z.H.4X7XE./.0XxXxX6XR.^.8XhX!.F.E.5X4X^.7XN.! - @ % M t.J.7X^.mXzXbXlXvX6X4X4X4X0XqX4X;Xq.4.j.%X9XSXSXGX8XQ.L.x.l.l.H.Y.Y.M.M.M.M.M.M.T.Q.Q.k.j.J.T.M.Y.j.j.T.qXwX8X/.E.R.R.!.^.!.!.!.!./.6X6X).).hX6X^.E.=X X .0 1 l W s.*X9X5X7X4X6X4XE.x.k.k.k.z.f.1.7.w.q.6... .[ ] J J ' } } { ] %.{.}.#.#.y.a.t. .P P | | P U #.! C C Y O.n.p.u.6.u.6.X.X._ Y | +.+.i.@XOXB.N.N.v.q.v.%XM.N.M.T.>XQ.T.%XT.j.v.Q.T.-XQ.&X-X&X-XN.C.:XN.%XOXu. X@XB.u.4.^ 4.4.V.-X9X5XQ.=X9XQ.M.J.T.T.Y.J.H.M.M.m.T.J.M.m.k.M.J.T.T.M.m.M.m.j.M.T.&X&X;X5XT.j.8.6.^ P A V p - @ 1  .>XVX9Xz.<.R.cX8XwXcXwX6X).).).F.!.).zXzX~.K.).(.0XzX6XzXbXmXvXzX^.F.!.^.!.!.!.K.^.4XR.D.E.wXDX0XE./.4XH.D.E.^.K.^.).6X6XzXzXzX6XvXvXvXxXzXzX0XDXDXDXcX0XcXbX).R.S.S.^.zXxX6X^./.qX6X/.0X0X4X4X",
"4XwX0XE.H.R.R.H.D.H.W.R.R.4XR.Y.m.v.%.Z > - 9 J [ ! ! ^ | X.7.x.S.S.S.L.z.z.=X4XY.9X9XT.Z.%XZ.6.b.6.) _ +.i.A.A.b.q.5.4.) 8.M.M.J.T.M.f.7.M.W.4XK.H.x.S.H.x.z.f.B.#.q ; C ,.S.K.W.W.R.R.Q.Q.D.R.D.4XE.H.D.H.4X/.R.wXwXE.E.0XW.2.x.x.x.H.x.x.K.6XqX7X6X6X^.^.7X7XE.H.Y.8X8XR.l.d.c.g.z.^.xXDXcX^.R.(.).!.K.R.W.W.^.7XN.! - @ # b O.5XnX7XxXlXlXvXmX0XqXwX4X4XxXcXSX%Xm.N.;XiXGXMX9XwX4XR.L.R.R.H.Y.Q.T.M.h.j.M.Q.Y.M.J.Q.T.M.M.k.j.j.M.8XqX4X/.4XR.R.!.^.^.!.!.!.K.!././.).6XzXzX6X7X=X:X#.f 1 b P e.N.J.L.E.).).W.E.Y.x.x.k.x.M.j.j.q.q.6.O.....} J Q { ' [ } [  .%.t. . .t.a.t.o.! P ] U C W #.y.t.O.X.X.o.e.e.X.O.| U | U D P X.T +.n.i.u.b.C.n.v.v.%XN.T.N.N.-X;X&XT.N.N.N.T.%X9X&X%X-X>X9XC.9.N.u.X.4.u.n.u.8. XN.v.N.%Xm.9.M.Y.=X9X9XT.Y.5XQ.J.z.j.j.M.T.=XJ.Y.T.Y.J.Y.Y.J.N.m.M.J.T.J.Q.9X9X-X%X-X&XN.q.6.^ P S v r - @ 1 y.N.T.=X4XE./.R./.8X0X8X/.).(.^.F.!./.zXcX(.F.F.K.R.!.(.6XxXbXxX6X~.G.R.!.F.!.!.^./.wX/.Y.E.E.qXFXcXwXwXwXcXcXcXcXxXzX6X).(.).lXvXmXzX6X0X).cXHXvXDXHXDX0XbX0X8XR.H.E.0XxX6X/.).^.0X6X/.qX4XR.4X",
"0X8X/.R.H.R.K.R.R.R.Q.M.x.J.x.z.m.v.y.H 4 # 8 J [ ! U I U T 7.m.J.S.g.S.H.L.=XJ.M.T.;X,XC.q.) R R T ) _ R Y T X.X.U Y ) 4.8.j.j.9.7.9.7.f.m.R.W.7XE.L.x.k.z.m.M.V.e.l 7 D f.^.7X8X8X/./.W.Y.S.D.E.4XW.E.E.Y.W.Y.4X/.0XnXnX8XE.W.x.E.R.l.l.4XMXMXnX7X7XqXqXnXmXnX9X-XE.Y.R.E.R.H.z.2.g.K.^.xXcX/.^.^.(._.^.^.E.R./.7XC.[ 1 # # x u.uXMXnXvXvXbXNXxX0XqX8X4X0X0X/.M.T.9XSXGXMXwX4X4X7X^.^.W.E.K.Y.J.C.M.7.,.,.k.T.;XT.Q.W.x.f.7.,.<.h.T.eXqX4X/./.K.R.(.6X).^.^.(.zXxXzX6X).).(.^.0X5X5X:X#.h 1 l ~ e.N.M.L.^.).(.R.R.E.Y.H.H.Y.E.J.M.j.8.6...[ ] [ J ' ' Q ' @...!  . . .o.O.O.O.O.t...| ] ! #. .%.}.{.t.X.^ | X.U T Y D  .] D D D N Y o.+.O.0.i.u.u.q.N.v.C.N.N.%X;X;X&XC.N.N.N.N.;X9XiXiX>X-Xb.v.v.r.X.u.*XOXn.N.:XN.u.N.;X&XJ.H.5X9X5X5X=XQ.=Xj.m.J.Q.=XQ.T.J.Q.Q.Y.Y.T.Q.J.k.J.M.J.=X5X5X9XSX9X-X=X5X;X%XN.v.X.! W v q - : 2  .b.T.;X4X/./.S.R.R.D.U.R.^._.P.R.F.S.R.zXzXR.G.F.F.!.(.6X6XzXzXzX).K.).6XR.(.^.0XR.^.^.4X4XH.Y.wXwX0X4XwXcXwXqXmXzX6X6X).^._.).).zX^.xXmX6XzXmX/.(.cXcX).).R.R.H.^.0X6XR.G.D.!.R.6X/./.wXE.x.W.",
"0X^.R.E.E.R.E.4X0X/.R.l.l.L.M.m.m.r.#.b > - q ' $.] P Y | q.N.=XH.L.H.L.H.Y.9X-X9XN.j.C.C.5.E E X.+.0.i.6.U D D D N N T q.N.C.N.N.7.E R 7.k.J.W.8X4X4X4XY.k.z.m.V.e.l 7 P N.xXxX8XeX8X4XW.H.c.D.R.E.Y./.4XE.E.Y.0XcXwX4X/.8X8X/.J.E.E.E.E.4XwXMXcXE.E.7X5XcXqXE.L.5X8XL.c.L.E.R.^.R./.6X/.).).K./.R.~.).0X8X4X6X0X9X%X .7 % @ z s.5XE.7XxXxXP.6X6X7X4X4XqXnXwXx.7.N.iXLXFXGXnX9X4XH.Y.qX8XH.D.W.T.M.5.R R 9.j.N.M.J.Q.J.h.x.H.7.7.j.M.T.-X0X0X4Xc.H./.0X6X(.^.).).8X8X6X0XxXcXxX6X8X5XOX..h 1 w P o.u.j.S.E.R.F.^.E.Y.Y.Y.H.M.x.x.k.j.q.6.o.] W W H [ } J W [ [ #. . .O.o.| o.e.|.i.o.O.O.| s.{.a.a.s.p.|.n.6.T U O.X.| t.%...t.i.X.o.i.u.X.T U 6.6.6.b.q.C.T.T.-XQ.&X9X&Xj.j.N.&X;X&X>X&XZ.Q.C.OX9.4.4. X*Xr.u.u.B.B.%X;X&XJ.-X=X9X-XJ.Q.9X4XJ.M.J.Y.Y.Y.Y.Q.=X-XQ.N.M.T.=XY.j.m.j.k.Y.T.J.Q.9XiX-X=X5XuX;XN.q.6.O.~ V w - - ; ! B.J.H.z.H./.F.S.R.~.K.S.G.P.~.6X6X!.R.).).!.K.F.K.(.zX).~.).xXzXzX).vXvX^.).(.!.c.R.E.E.E.x.W.Y.qXqX/.4X4X/.qX(.R.R.6XxXzXzXxX(.lXP.zXmX).zXHXJX(.`.).).qX~.!.K.^./.R.F.K.F.G.R.).^./.0XD.d.L.",
"R.4X/.^.wX0X/.6X^.R.4Xx.j.J.j.m.v.B.#.B ; ; q Q &. .| +.q.N.%XC.H.z.k.E.5X5X=X=X=Xj.8.M.T.v.9.X.X.6.|.X.o.D f N D Y Y u.OXB.N.b.v.4.R R R f.5XnXnX=XJ.J.m.z.d.:.9.y.c ; S i.W.E.R.=XW.=X4XL.x.W.^.F.F./.cXcX0X8XcXcX0X/.4XwX4XK.L.L.S.S.R.6X4XE.9X4XJ.J.P.P.L.L.E.^.^.L.z.S.E.7X/.7X6X7XE.K.L.D.W.W./.).(.).6X6XqX=XOX .7 # < x s.=X5XW.4XwX^.g.l./.wX8X=X=XY.m.j.;XVXVXSXSXSXeX-X9XqXeX8XW.x.1.7.R E 9.j.7.j.M.j.j.k.H.R.E.W.4XE.H.k.x.Y.E.L.D.S././.6XcX/.R.xXE.E.E.E.^.).zXzXzX8XQ.OX .7 - q A e.o.T ,.g.L.H.R.H.x.M.J.J.k.f.j.k.j.j.u.O.| ..] ' ' [ } ] ] $.a.t.t.t.u.u.u.i.u.b.n.n.OX:XOXp.OXi.n.OXOXOXn.u.N.q.q.n.OX+XOXu.v.8.6.|.XXY k P | o.O.6.u.OX;X9X;X;X-X%XC.b.b.N.&X%X,XeX,X&X,X,Xu.v.u.6.i.C.n.6.T ^  XN.%X=X5X5X5X&X-XT.T.&XN.M.Q.=X9X9XT.=X9X5XQ.&XT.Q.&XQ.Q.M.Q.N.k.k.M.J.J.M.T.M.m.=XuX5XM.4.4.t.#.B w ; @ q e.;X=XE.S.K.!.)./.^./.0X0X/.!.~.(.).).K.F.(.zXcX).^.K.F.F.~.(.~.^.(.).).6X0XzXzX(.(.zXR.D.0X4Xl.h.W.8XW././.R.^.R.!.).zXvXvXzX).(.(.).).!.F.F.(.zXzXzX0X6X6X(.R.E.R.R.R.F.R.).8XR.F./.0X8XR.d.g.",
"/.^.H.H.4X4X^.6XK.x.H.z.j.k.f.m.N.B.#.j t ; q Q &.y.i.B.N.C.b.8.j.j.m.H.Y.T.J.M.7.7.9.,.5.8.5.) 6.OX<Xo.^ Y C C Y o.e.n.N.u.v.8.b.v.b.N.M.J.=X=X4XR.L.m.d.d.z.m.8.y.c 1 Z s.=XE.c.=XW.H.K.R.W.4XE.K.R.6XmXvX6XR.R.xXHXnX/.K.R.E.L.S.S.L.E./.4X5X=XE.R.=X7X7XE.E.K.E.E.H.z.z.S.S.6X^.K.L.K.K.K.H.8X4X^.!.!.~.).0X7XN.|.! 7 @ , x i.v.b.N.Y.H.H.Q.Y.H.x.j.7.,.,.5.N.j.q.N.T.T.T.T.9X-XW.W.Q.M.x.M.j.9.R 7.M.M.=X-XR.z.4X4XD./.nXR.R.E.R.Y.E.E.H.l.R.cX0XK.E.K.g.g.c.l.g.g.S.^.6X6X6XwX=Xn.W 7 1 q W a.p.6.9.<.z.D.H.H.M.M.N.N.M.k.H.H.M.M.b.t.O.%...[ ' ' [ W W ..s.s.t.i.i.i.i.n.q.u.B.OX:X:X@XOXOXi.i.n.n.N.N.v.4.9.b.%X&X;X;XC.v.;X%X+.^ | S k C P U ^ 6.N.:X;XuXuXuXuX;XC.C.T.T.T.>XtX,X&X,X&XC.q.X.0.OXOXi.X.X.8.N.9.N.pXKX5XJ.J.-X5X9X9XT.Y.T.M.Y.=XQ.5XMXiX>X9X;X&X&XC.T.k.Y.T.Q.Y.M.k.H.Y.j.M.T.Q.=X=XT.M.8.e. .c q 2 @ 7  .%XT.7XL.F.P.6XzX6X6X0X0X6XxXvXvXvXxX).!.^./.6X0X/.R.F.F.!.^.(.R./.0X0XzXzXzX).(.F.!./.R.Y.x.z.h.8XwXW.Y.D.Y./.8X/.^.(.).zXxXvX~.!.~.(.(.(.).bX~.xXHXmX6X^.).6X6XE.R.R.R.!.~.U.qXU.S.l.S.x.2.d.",
"8XE.x.H./.W.R./.R.c.H.M.k.j.7.B.N.p. .k t 1 q J }.{.u.5.4.6.0.5.<.z.M.M.M.Y.J.k.<.8.j.f.j.M.T.T.N.rX;Xv.6.X.o.T @X2X%Xu.9.8.=X5X9XuXiXiXiX9XY.L.g.z.L.W.L.m.m.m.r.t.h ; k o.m.z.D.E.Y.x.H.R.E.Q.D.H.H.l.d.l.Y./.0XcXnXwX/.Y.R.E./.E.E.W.E.M.M.Y.J.H.J.W.7XW.E.E.R.E.E.E.W././.E./.4X6X/.K.D.L.R.W.^./.`.`.hX).).W.N.n.W 7 - , x ..5.q.b.N.M.Y.-XT.Y.N.T.T.N.C.%Xq.) R 8.b.q.8.w.1.1.k.-X8XY.Z.T.j.7.,.f.N.Y.=XQ.Y.W.4X/.E.E.E.H./.4XE.H.H.R.E.R./.cXE.l.K./.^./.D.z.h.l.R.8XzX0X4XwX%X6.C 7 1 4 H e.u.v.m.z.K.W.c.h.j.j.j.j.h.j.l.z.j.j.u.6. ...@...{ { @.@.@.&..XA.A.XXa.u.t.t.6.6.6.u.i.n.XX@X@Xi.u.i.b.B.b.q.q.q.b.%X&XOXu.) 8.N.C.i.u.t...] I I Y U | 6.i.N.>X>X9XuX;XC.N.T.Q.&XeXVX9X-X&XT.N.6.9.b.n.q.X.X.8.v.%X9.m.pXKX-XY.J.=X-X5X5XQ.5XiXQ.J.Y.Y.Q.=XQ.9XtX9X>X-XT.&XT.N.Q.W.Y.M.H.Y.Y.f.M.Y.Y.E.5X5X%Xq.p.y.A 0 - @ 9 y.2X-X9X4X6X).(.8X8X6X/.^.6XzXxXxXzX).(.!.R.R.E././.Y.c.G.F.!.(.R.4XxXcXxXxXzX).(.S.R.8X/.H.h.z.x.Q.W.Q././.R.R.S.S.D.R.^.^.!.K.zX(.!.).zXzXzXcXmXxX/.F.l.g.D.E.4X4XcXxX^.R.).).!.R.(.^.E.H.l.c.",
"/.H.D.E.4XH.c.D.H.D.M.M.k.j.8.v.B.t.[ h ; 1 q K &.{.n.6.5.6.+.) 7.z.M.M.M.M.j.f.<.<.7.v.m.v.T.9X9XrX%X;XsX%X%XB.>XpXuX5XE.Y.6X4X9XuX9X;XeX9X4X4XL.x.m.L.H.L.J.m.B.y.l 1 j o.J.S.^.M.j.Y.^.K.x.x.h.Y.W.H.h.h.x.Q.GXwX4X4X/.E.Y.Y.R.H.R.W.E.Y.J.Y.m.k.M.M.H.S.H.E.x.x.D.Y.4X0X4X/.E.4X0X4XK.S.D.R.R.!.).0XzX).~.R.E.N.i.W 7 > < L @.n.A.i.b.&X>X-XW.8X;XC.b.C.N.v.q.b.b.v.q.5.,.) ,.,.7.j.w.1.7.x.M.Y.J.=X5X5X4XY.Y.4X/./.wX/.H./.E.E.R.R.H.H.E.0XDXwX^.R./././.cXE.T.Y.Y./.0X4XE.E.=Xb.^ B 1 4 1 ' e.6.v.T.H.H.D.Y.H.x.M.x.z.z.x.S.J.M.M.b.u.t.%.%.@.[ ..&.s.}..XoX.X.X.Xa.t.+.X.X.X.o.o.O.t.t.e.e.| | 6.u.n.B.u.q.9.q.b.Z.Z.v.4.8.9.u.;X2XXXi.oXi.t.O.| | O.i.OX;X;X9XuX>XT.C.&X-X-XeXiX9X8XW.N.N.v.b.&X&Xv.6.u.N.B.;XJ.=X&X5X=XQ.J.=X5X5X5X=X9X9XM.j.M.Y.T.T.Q.;X9X,X,X&XT.-XQ.Y.Y.H.M.Y.5X4XY.k.M.M.Y.4X9X-XN.u.s.}.Q 8 @ O 9 #.:XC.T.L./.!.S.R./.8X^.R.!.^.!.(.!.!.^.^.R.Y.R.Q.Y.D.c.l.F.!./.W.E./.4X0X4X/./.^./.qX4XW.W.D.z.Q.x.h.x.E./.R.D.R.R.D.D.K.E./.).cX/.R.E.6X0X6X/.4XE.R.R.E.E./.4X6XcXDXDX8X^.0XzX).~.qX0X6X4X^.0X",
"Y.x.H.4XE.z.d.h.x.H.M.j.j.j.v.q.r.O.~ h ; 1 9 K @.y.6.T ) X._ ) j.f.z.H.M.f.<.,.7.9.f.m.M.m.M.=XuX9XJ.9XiXiXSX9X5X9X8XmXmX6X(.K.x.W.W.W.0X/.x.l.4XE.R.R.M.m.m.f.v.o.y 1 v t.-X/.E.z.k.R.E.D.c.x.T.T.M.k.Y.Q.T.x.W.8XeXeXR.z.c.D.R.E.E.E.E.T.M.f.j.f.j.j.j.f.z.M.M.k.k.H.E./.W.E.E.H.l.l.D.R.R.R.(.!.!.!.!.!.F.D.H.b.0.B 7 > , x =.a.u.T _ b.Q.Z.-X&Xn.) E R X.X.;X;X%Xv.4.) ,.) w.q.q.w.9.5.j.C.-XeXeXnXiX8X4XY.H.x.R./.~.8XqXD.D.D.W.qX8XR.R.qX0X8XqXcXcX(.R.R.E.W.E.T.E.E.R.H.Y.M.6.^ Q 1 > 1 W O.6.b.Q.L.L.c.W.Y.x.x.H.x.c.x.g.k.j.8.q.6.o.O.%.%.....&.&.&..Xa.t.%.t.i.t.O.| U  .o.|  ...! D C N D | t.n.N.b.8.q.N.N.8.q.N.%XOXN.n.OXOXXXn.i.t.O.| U Y | a.+X;X;X>X9X;X%XT.&X;X&X5X9XeXeX9XY.M.q.q.C.>X>X%XN.%Xv.;X;X5X%X=X=XJ.H.4XwXiXuX4XwXR.k.g.m.R.Y.L.Q.%X>X-X-X=XT.&XT.=XJ.k.k.R.4X7XJ.H.k.x.W.9X5XJ.q.n.t.$.J r : O - W i.q.M.j.x.D.R.U.(.`./.^.^.(.!.zX).).0X`.R.R.R.D.U.U.D.U.^.'.8X8XH.l.H.R.S.D.R.^.0XcX/.E.4XR.H./.D.3.2.h.c.H.H.W.^././.4X0X0X0X4XY.c.D.E./.E.R.R.E.4X8X8X8XqXnXwX7X6X0X0XzXzX).zX~.).`.xXcXE.L.",
"x.x.T.4XY.z.c.x.M.T.M.j.j.j.v.6.o. .W h ; 1 8 H @.#.U E T _ _ X.7.7.f.H.J.j.f.f.J.=X-XQ.=X5X5XT.E.7XE.E.L.qXFXMXFXwX^.6XzX(.(.!.wX0XR.l.l.D.R.E.D.E.8X5XH.k.m.j.u.! 8 1 k O.;X/.Y.Y.Q.Q.l.G.H.D.T.k.7.1.w.M.Y.x.Y.W.8XQ.x.c.x.R.8X0X4XE.Y.Y.f.R 7.7.f.j.z.j.j.k.T.Y.J.Y.W.W.E.E.H.x.c.c.D.R.R.R.!.!.!.!.~.!.!.R.M.b.O.j 7 1 2 L [  .| T X.q.b.Z.C.b.5.) E E ) q.C.j.8.j.b.b.j.v.5.5.q.q.w.k.C.,X5XwXqXqX8XE.E.D.h.R.W.D.~.cXqXU.R.R./.wX8XD.R.cX/.qXvXcXqX0X).E./.4X4XW.W./.4X4X9XT.n.t.&.w > 1 C 6.v.T.=XR.^.^.R.S.c.c.D.c.l.c.L.R.Y.M.N.b.u.s.%.%...@.&.&.*.&..Xy.%.t.s.t.#.o. . .| P P I P C D N P  .t.i.n.n.N.N.C.b.8.8.b.C.%XN.C.OXC.C.N.u.0.+._ U Y U | t.*X;X>X>X>X;X;X%X-X%X5XuXGXFXFX9XM.M.N.C.%X;X;X&XN.8.b.v.%X;X5X=XQ.Y.4X=X5X8X4X9XW.E.L.Y.W.J.k.M.T.;X-X5X9X;X9X;X=XE.J.J.L.R.R.Y.x.j.M.Q.=XJ.j.q.n.O.&.Q p - O - &.0.X.T.-XR.D.!.R.~.).).).lXzXbXbXzXzXbX0X).~.R.R.~.~.~./.0XbXwXwXH.h.x.D.l.l.R.^./.6X/./.^.K.4X8XD.c.D.U.R.Y.x.D.R.7XqXwX0X/.E.E.H.x.H.R.E.R.H.W.E.Y.M.Y.W.W.W.H.S.K.^.).cXvXbXbX`.zXzXzX6XS.g.",
"k.k.W.4XH.c.H.x.H.T.k.m.j.8.v.8.O.[ H 0 - - 1 b W  .X.t.OXA.X.X.,.7.m.J.T.J.J.T.-X9X9X-X-X9X-XJ.S.S.H.S.d.4X8XqXnXwX^.).).~._.F.l.D.8XwXcXxX6XR.R.E.W.Y.j.M.&X>X X .0 1 j O.;XW.Y.Y.Q.E.S.F.R.D.j.j.k.Z.Z.M.x.M.Q.Q.Y.c.c.R././.R.D.D.H.E.E.H.j.7.7.f.j.z.l.z.k.Y.H.H.H.H.x.D.H.z.H.^.^.R.H.R.!.R.!.R.!.(.).R.Y.N.n.O.j 8 4 9 G } ] | t.a.i.n.C.Z.k.j.8.9.) ) 9.9.9.7.N.;X9X%Xv.k.5.,.) ) ,.k.-X8X8X/.8X8XW.^.R.U.DX0X~.JXJX).bX0X8X'.^.D.D./.DXDXDXvX0X~.(.).^.).0X0X0X0XwXwXwXiX;X:X{.}.w > ; U n.C.=XW.R.!.K.^.R.H.R.R.D.S.H.z.L.m.j.j.q.6.O...#...@.*.&.&.&..Xs.t.t.t.t.t.t.t.O.| I S C W .. .!  .#.e.t.i.i.b.u.v.N.N.C.T.b.b.6.b.&XC.N.T.T.&XZ.b.n.a.t.| U n.OX*X1X2XyXrX%XC.T.;XtXSXKXLXSX;X>X>X;X%X%X;XrXb.9.v.7.M.T.-X=X5X=X=XH.J.4X=X4XJ.=XW.=X9X5XE.=XY.-X&X9X9X9XiX9X=XT.R.Q.Y.M.m.H.l.l.k.m.M.M.M.b.6.| @.' 9 O O 2 =.u.6.;XeX4XR.F.).).).zXzXzXbXbXkXzXbXbXzXzX0X0X0X0X'.).'.qXbXqX8XW.E.E.R.R.R./.^.^./.(./.R.G.8XqXY.R.8X8X4XE.c.W.W.Q.Y.R.R.4X4XR.R.R.R.R.R.Y.H.k.M.H.Y.8XwX8XM.l.x.E.4X/.0XvXvXcXzXzX!.S.S.L./.",
"h.j.E.W.x.j.z.d.f.f.,.j.j.9.b.n.#.[ Z 8 - - 1 z H ! ^ u.2X+XO.0.,.v.T.T.J.T.Q.T.9X;X;X5X;XQ.J.J.L.<.g.L.l.4XE.4X4X0X!.K.F.!.).!.(.^.0X).R.^.4XR.R.E.W.Q.T.Q.;X&Xn.! 7 > h ..&XR.J.1.h.W./.~.~.Q.W.x.w.j.M.Y.Q.W.c.Y.Y.x.D.W./.(.F.l.l.D.E.Y.Y.Y.k.j.f.f.f.f.z.m.E.T.T.Y.H.h.l.c.H.H.K.K.R.^.).6X0X(.K.F.S.D.x.M.n.n.O.k 8 w 9 K @.| | | X.) 5.w.k.M.M.w.j.M.M.8.j.=X;XQ.5XiX=X,.7.,.7.Z.T.k.Z.8XE.R.D.E.4XE.R.D.0X^.'.cXqXR.R.qX'.qX0XR.S.U./.qXvX/.(.8X~.U.!.).!.).6X0X0XqX8X=XQ.C.OXy.&.7 4 1 C 6.j.M.W.7X).R.R.R.R.R.D.g.l.S.z.L.x.f.w.8.5.+. .O.....=.=.@.=.%.#.#.#.#.e.s.XXt.O.#.y.#.W [ }.@. . .O.O.O.i.i.q.v.%X;X%XN.N.b.v.q.v.j.5.M.5X5X=XC.C.,X3X@XO.Y Y +.t.i.OX1XOXu.u.N.&X2XrXpXKXpX>X&XZ.N.C.C.OX&XOXu.C.B.v.j.J.;X=X=X5XY.W.uX5X4X=X9X9X5XiXuX=X=XY.-X=X5X9X5X9XQ.5XY.J.Q.W.H.l.x.x.z.g.7.j.Y.&XOX6.Y H G 9 # . @ V XX2XiX8X0X0X0XzX`.zXbXvXzXhXhXkXvXJXvXvXvXJXvXvXbX`.).).0X0X).R.4X0X4X/.6X8X8X(.6X0X!.^.!.G.).cX8XqXqXY.c.R.E.x.M.H.H.M.m.x.k.c.H.R.R.R.Y.R.Y.E.8X4XY.D.Q.4XW.W.K.E.7X6X0X`.!.F.F.!.F.D.L.S.K.",
"h.j.j.j.k.k.z.f.k.7.9.j.q.9.4.6.] } K p - - q z V P o.u.n.i.s.t.v.%X%XJ.%XN.v.N.N.N.N.N.M.v.j.m.Y.k.7.d.M.Q.J.h.Y.E./.^.R.F.R.~.~.qX0XzXR.^.R.^.l.g.x.M.M.T.&Xb.6.! 0 - k O.Z.Y.T.M.h.h.S.F.D.x.h.Y.Q.x.Y.8X8XY.c.S.3.l.^.8XR.R.F.K.R.R.R.L.H.k.H.d.l.J.l.g.x.L.E.R.E.W.H.g.g.D.S.H.^././.^.7X0X4X6XE.D.z.M.b.q.A.A.[ v 0 1 p } ' | T X.6.8.5.f.j.E.9XW.f.f.M.J.J.=XT.uXiX=XY.j.<.k.Y.W.8X9X8XQ./.E.R.^./.E.^.^.^.R.R.R.R.R.~.).0XqX'.R.D.E././.^.R.0XR.R.).!.6X(._.~.^.4X4X=XQ.N.b.i.O.@.h - 7 o.v.j.M.R.^.6XR.R././.R.x.z.L.E.K.L.m.j.5.4.5.6.| %.t.%.&.s.&.$...t.s.t.e.e.e.i.t.#.O.#...] [ %. .[ %.#.| O.|.n.OXOXN.B.M.N.T.T.;X;XT.m.M.=X4XL.M.Y.T.T.&XOXt.+.Y N P Y P O.XXn.t.X.n.*X*X2X:Xn.n.5.6.n.u.6.u.OX&XC.C.-X-XN.T.9X9X=X5X9X5X=X=X-X=X5X9XiXiX9X-X=XT.%XJ.T.5X-XT.=XJ.T.=XT.J.H.M.M.J.Y.J.H.J.Y.v.4.D k v m i $ X O H a.yXSXwX0XzXbXJXvX).F.G.!.hXbXbXbXbXvXbXbXJXHXHXJXbX`._.(.`.zX^.E.R.K.E.6X6X/.6XzX^.^.!.K.!.F.H.R.H.D.D.H.D.h.x.x.z.j.j.j.f.7.g.2.2.g.c.H.R.R.E.E.E.R.H.H.H.Y.L.R.E.R.R.R.^./.0X(.!.^.^.^.E.^.",
"C.C.M.j.j.j.j.f.8.B.M.v.8.6.6.o.W ' K p > > i b H ~ | ^ T ] #.a.n.&XOXb.B.u.8.v.v.8.8.q.q.8.8.8.9.7.7.f.j.M.k.z.z.c.c.S.S.D.F.R.F.!.!.~.U.R.R.R.R.H.Y.T.k.b.b.4.6.~ 0 - h ..N.Q.T.N.k.k.D.F.S.l.x.H.Q.E.Y.x.D.H.Y.R.G.l.R.^.!.^.!.!.!.R.K.H.x.z.h.j.M.x.g.z.H.m.m.m.J.E.R.L.L.W.E.L.E.qXwXW.^.8X8X5X=XQ.T.N.A.a...] v 8 8 q x K y.s.6.4.4.5.f.k.x.H./.4XW.Q.E.M.H.-X5X9X4XH.=X9XMX9XQ.L.W.qXwX4XH.c.l.D.E.^.^./.8X^.~.^.~.R.R.R.R.R.R.R.^.4X^.D.R.^.qX).^.!.F.K.hX(.!.K.R.Y.Y.N.,.OX2X{.[ 0 1 w ! B.T.=XJ.L./.W.J.J.N.N.J.M.m.z.J.M.v.v.v.u.u.t.o.%.s.}.s.&.@.[ #.#.O.o.e.e.O.#.i.t. . .%.{.%.W ' [ %.%.O.i.OXn.:XOXN.b.b.N.%X-XN.&X9X;X=XW.W.E.W.5X=XT.C.C.n.a.| N N N N | a.%.| | XX1X#X#XXXs.n.u.i.XXi.6.6.O.6.N.C.b.M.-XuXuX9X5X5X9X5X-X5X-XSXFXFXFXFXiX=Xj.m.%XQ.J.Q.N.8.9.f.j.m.m.M.J.T.=XJ.Y.Y.J.Y.N.q.) Y N v M i & + # k u.yXSXwX0XcXHXHXJXbX6X(.~._.(.kXbXvXbXhX_.kXJXHXJXbXkXzXkX_.R.).xX0X!.^.cXxX^.xXvX0X).K.K.lXzXR.R.R.E./.E.R.Y.j.j.j.j.f.7.7.f.z.l.l.l.S.K.E.^.wX4XW./.4X/.R.x.L.m.x.L.4XxXqX8X).0X0X/.7XxX0X^.",
"C.N.q.9.9.8.v.v.6.6.6.o.e.e.| P Z F x 3 # > i x j P #.e.o.U I U O.0.6.6.u.6.6.u.6.4.X.4.6.6.6.6.) 9.j.v.M.m.j.j.7.7.d.c.R.^.^.!.!.(./.R.R.K.E.E./.E.W.Q.M.b.j.4.e.~ 9 # q ] u.T.Z.Z.C.T.R.R.K.H.H.x.c.H.R.R.D.D.l.L.K.K.^.(.^.).(.^.^.R.H.H.m.k.k.j.k.J.J.f.f.J.J.J.J.E.Q.Q.Y.J.Q.M.k.J.R.E.9XMXT.b.b.N.i.O...%.A ' m 7 1 8 x K ! e.u.8.8.j.k.H.R.D.R.4X6XwXnX9XuX9XiX9X=X=X=XwXW.4X5XwXnXnX/.c.E.H.c.L.E././.^././.W.W.R.R.Y.Y.E.R.H.D.R.4X/.E./.4XW.R.K.K.4X6XP.P.P.L.D.k.j.q.X.t..X$.Q w 1 w C e.OX-XY.m.J.N.C.N.b.N.N.N.B.v.N.v.6.6.6.6.| U O.@.@.@.[ Q ' }  . .! ! o.o.^ ^ | | U P W  .[ I  .@.$.] P  .s.n. Xn.N.%X%X%X%X;XT.T.T.Q.-X4X=X=X4X5X5X;X;X;X;X@X+Xt... .U ]  .U C C ..%.@.#.#.%.y.t.s.a.i.a.a.t.i.i.u.i.b.T.-X5X&X%X=X&X=X5XuX9X-XuXSXiX9X;X=X%XT.;X-XN.T.-X-X-XT.T.T.M.M.J.T.J.T.T.Q.=X&XT.M.q.o.I Z x 5 + . @ j 0.&X;X9XnXFXHXDXwX4X6X4X/.).bXNXNXHXNXkX(.hXbXNXNXNXNXzX).!.F.^././.R.R.4X/.K.E.0X6X6X).!.).!.wX4X4X8XW.H.l.z.l.j.m.M.m.f.j.M.R.R.R.R.R.E.E.E././.W.E.R.R.E.W.R.M.x.Y.8XnXwX6XR././.E./.qX7XL.",
"O.X._ U T | O.e.O.! ! #.y. .P S l p e % @ % 9 l A ! O.o.| I I I o.X.X.O.6.O.T U Y E E Y U T T X.X.4.9.j.N.N.j.7.1.7.z.R.4XqX6X^./.R.!.l.F.z.R.R.x.k.k.j.8.5.4.T #.~ 8 # w A 0.N.N.Z.C.T.R.K.R.R.Y.E.E.L./.wX0XR.g.D.R.E./././.7X/.^.E.L.H.m.M.M.j.M.M.M.N.8.9.N.N.M.M.N.%X-XT.v.R 8.v.B.N.%XT.u.u.u.u.t...] ' ' ( ( F q 1 7 l H t.OX:X XJ.J.H.H.R.D.R./.E.4XuXGXuX-X9X=XT.Q.m.J.4X=XR.S.x.R.6XwX7XE.K.R.E.E.E.R.R.R.R.~.R.R.Y.H.D.E.0XqX4X/.R.H.D.E.H.E.E.H./.R._.(.^.^.E.N.q.0.6.Y P H K 4 - 7 B o.p.OXOXb.b.6.O.o.| ] ! | O.e.O.o.|  .#.y.%...[ W H H V v Z ' @.&.%.%.s.y.#.y.] |  . .W C A ] W [ $. .P Y | e.n.i.B.%X:XOXOX&X;XN.v.N.-X;X5X9XiXuX9X9X>XrXrX@X1X@X@XoX%.] I S C N S B N B S ! $... . . .%.{.{.a.O.| 6.N.OXT.T.&X&X-XT.M.N.&XT.-X9X9X;XJ.v.T.;X9X>X%Xb.M.T.-X;X;X;X-XT.%X&X&X%XT.N.M.T.&X&XC.C.t.I V x < O . O 0 | A.&XiXSXiX8XY.W.eXGXGXnX8X8XHXHXvXvXbXbXzXlXhXbXNXNXbXlX).!.^.K.H./.4XR.R./.W.E.l.l.S.L.^.K.4X8XqXwX4XY.Y.Q.Q.Y.=X9X5X=X=X9XqXcXnXnXnXcX0X4Xl.H.4X8X4XW.E.E.J.J.T.T.W.4X8X0X0X/./.0XqX6X7X^.",
"W W A A A A A A A A ~ } Q v c b p i < % # > e n W ..#.^ Y S I { ..] U ..O.O.| Y Y Y Y Y Y Y T +.X.R T 9.v.M.j.5.7.f.D.R.4X4XE.R.R.H.K.g.D.z.R.L.z.z.f.7.5.,.) ^ o.H 2 @ 8 Z 6.N.N.C.C.N.x.z.z.m.m.=X4XJ.c.H.W.^.W.E.K.L.L.E.7X7XW.E.J.m.f.8.j.v.9.%XOX9.8.B.r.4.B.B.v.v.n.B.6.T T o.u.u.u.u.X.D  .#.%.' Z m m m G a 9 q q p n G y. X XB.J.T.E.W.R.L.W.4XR.J.W.-X%X%XrX%XN.N.v.T.j.J.Q.Q.R.K.H.H.L.L.K.K.L.K.L.H.R.R.E.E.E.R.Y.H.L.=X8X5X4XR.L.L.x.H.g.S.L.x.L.g.P.P.K.J.N.u.6.| ] N V J F > # 3 V [ #.{.XXi.t.| I S B v v V H W W ~ W W [ @.*.} J H H G x q p b v A H W ~ W W W @. ...@.=.[ W A ' W P P S N U u.|.u.r.u.v.u.N.:Xn.n.OX:X&X%X;XpXKXVXtX:XN.OX;X:Xu.t.t.i.e.| ! !  .W A V v B h B A c c B V W %.oXXXoX|.i.n.&X%Xq.b.N.T.M.8.v.Q.%X-Xb.w.j.b.j.j.N.C.b.b.N.%XOX%X%X:X:X%XOX%X%XOXN.N.v.j.N.%X%XN.i.o.C c p < + + @ 0 #.XXN.%X>X;X9XT.>XtXtX>X>X9X5XwXqX0X6XqXxX6X(.lX).).lXHXHXxXL.E.S.H.W.Q.M.M.T.T.J.j.j.M.H.R.x.H.=XqX5XQ.Q.-X5X=XY.E.9X9X5X5X9XwXcXcXnXnXwX8X8XQ.R.J.M.J.Y.J.M.N.T.Q.Q.T.Q.4XwXcX0X4X0XqX6X4X7X",
"J Z Z H A Z V v c G H G b n p 8 9 3 , # + , i x B  .{.e.~ A I { ] S S ] | ....] Y U | | | | o.t.q.8.8.q.q.8.j.j.k.x.H.H.L.L.H.H.H.H.R.D.K.L.L.m.M.M.m.j.q.8.9.r.e.W 3 @ 4 v U 8.A.C.C.N.x.z.S.H.H.m.H.M.k.f.x.Q.=XJ.J.H.M.E.5X=X=XT.N.j.6.4.6.6.6.n.p.o.O.u.e.X.6.5.o.6.e.o.U D e. .|  . .U P P B H H z 8 8 u u a < 3 p e r L Q ! ^ 6.V.J.%XT.W.4XE.W.W.E.E.=XT.%XC.n.i.u.N.B.M.M.M.k.m.H.J.H.H.L.E.^.W.E.E.R.R./././.E.R.R.Y.H.=XY.M.z.x.J.R.E.L.H.g.z.L.L.^.^.F.F.S.m.b.u.%...I B Z y 9 > 6 5 x J [ @.@.W ] J Z x y p x M b x z b b z z b m b G F b x p e a x m G V H } } ' Q ' [ W A ' *.*.[ &.' A I  . .| e.6.+.+.6.6.6.b.OXn.i.u.u.i.n.OX*X1X1XtX;Xq.q.OXOXi.6.X.+.e.t.t.%.s.[ A V A H z V l q f h f c ' &.y.{.oXOXn.u.v.v.v.b.C.n.w.v.T.&XN.q.8.b.N.b.b.C.N.8.B.;X;X:X:X&XC.OXC.N.b.b.v.q.N.N.N.T.&X%XN.0.t.A v p 2 $ + @ l }.oXu.OX>X&X%XC.OXi.| U O.n.%XM.J.Q.W.W.4X7X/././.^.7XcXmX5XK.H.J.J.j.j.j.j.8.8.C.&X>X;XC.N.j.k.Q.4XT.J.T.5X9X4XT.Y.5XiXiX9X9XnXiX9X-X=X-X=X=X9X9X=XM.j.M.T.T.;X-X&X-X5X8X8X0X4XwX0XW.^.5X4XE.",
"z z z x b x l l x x l p x x i > 4 > % + + , i L H ..e. .P I [ =.[ P I ] I A P S P I U ! ! !  .O.n.B.v.u.8.5.f.M.H.M.x.S.S.S.S.S.S.H.x.x.z.S.z.f.l.m.j.8.v.8.9.u.t.Q 3 # 4 h Y X.i.n.n.b.m.S.H.J.T.m.z.J.T.J.Y.=XM.m.N.N.m.N.%XN.T.N.v.8.X.^ X.o.O.U U  . .^ | o.D C P  .#.o. .! ! P W @.@.A B B v c y 9 4 3 3 s < < a a 9 r G / ^ 6.v.%X;XT.m.M.5XQ.E.Y.N.T.T.B.0.X.Y Y T +.6.) q.q.j.j.k.M.J.L.7X7X7X4X7X7X4XE.W.W.R.H.H.H.x.z.g.f.k.H.J.J.m.z.l.f.J.=X4X5X4X5X6X7XE.T.OXXXs.=.( h y - % & d s a b b Z v h z p 9 4 > < 3 5 3 > 1 8 8 2 8 a L L a a i < 2 5 a a L M b F ( } ' ' J ' J v Z } -.-.@.@.@.s.#X@Xe.o.T +.6.6.O.O.0.i.p.O.^ !  .#.e.#.o.O.XXOX6.6.B.v.B.v.6.6.p.XX|.{.y. .W A [ } Z G H b b l w f v V B N U p.i.4.8.%X;X%X&XC.v.8.q.v.&X>XrX>X&XC.%X%X;XC.OX&XN.b.v.8.4.6.q.8.8.u.i.v.b.C.C.Z.C.C.N.u..X] v p , + . O 7 &.#XXX3X2X6.Y Y Y D N N D Y T ) 9.j.v.J.T.R.L.H.E.7XE.E.E.E.J.J.Q.J.j.5.q.0.+.u.C.C.C.b.q.N.M.j.j.k.k.N.&X9XMX9X9X5XuXFXKXSXMXLXMX9X;X;X;X-X&XT.9XpXuX%XN.b.v.-X%X%X&X5X5X-XW.4XqXwX4X4XqXuX5X",
"3 2 , 3 3 > > > - @ # , < @ O % % % % # # , a G J Q ~ W W [ [ ' A V Q [ H S I P W W ! ] [ [  .#.u.6.+.+.4.9.8.b.v.j.j.k.H.H.H.x.H.J.j.m.j.E.Y.T.M.T.M.B.N.q.6.i.$.H 2 # 3 l A | O.O.O.6.9.9.5.8.9.v.B.v.8.v.B.v.N.v.b.u.X.6.B.i.u.e.6.| U P ~ ] A j j B B A W A A C W ..@.~ H H H G G G b z z l y 1 - > < > % , , , e i 9 L K H / o.#.B. XB.v.%Xb.N.%XOXu.6.X.Y B A j C S P #.#.O.t.i.i.t.u.b.OX%X%XJ.J.%X-X-X%XZ.Z.b.q.8.8.w.8.4.8.B.B.v.u.v.B.v.8.N.m.m.%XN.rXtX9X:XOX.X&.' M M 1 4 3 < % d d a a 8 8 8 1 4 > % % % * + + + % % , > @ # < s 5 < 5 6 , , < < & , 3 5 3 i a a F K G G m m m G K W ..~ A  .y.y.y.t.a.s.O.~ U  .#.! [ [ ' ! W W A W I ..#. .#.s.O.T 6.u.t.{.oXoXoX$.$.*.*..X-.V z p a l 9 8 b K H A A ! #.a.a.a.a.OXn.n.OXN.n.n.n.i.OXOXOXOX2X2X@XOXOX*X*Xn.p.p.o.O.e.O.o.^ ^ | | X.0.t.+.+.t.i.s..X' z u > @ O @ 7 }.oX$.y.%.I C j f 0 0 h h c C D E Y ^ u.B.v.9.m.H.M.m.H.T.N.f.v.u.6.X.! Y P !  .$.O.%.%.....] 0.) R T X.5.q.N.C.OXOX%X>XtX2X:X;XOXN.OXOXOXC.i.OXOXn.O.| X.X.T o.6.i.n.N.Z.Z.Z.N.N.T.-X-X%X&X5X",
"$ + . . . . O + $ + O O + + + O $ & & O , 5 e K H H V b b G G b F G G G Z b v B A W W ~ ! [ @.#.O.o. .| ! ^ o.6.O.6.u.N.OXC.C.T.J.m.j.j.8.9.8.B.&XOXN.N.b.v.q.6.[ n 1 - 4 q z J v v k j B Y !  .O.#.#.O.O.#.y.{.s.t.O.| ] ] ..O. .[ ~ ~ ~ W Z b b b M x b F Z b x x L F L L L L a a i i i e 3 < , & % % % % % % > < 9 i a L G / / [ [ / / ..$.@.}.&.} Q Z k f 0 8 9 e 8 q x K ' K Q Q J J Q ' Q [  . .o.#.#.#.@.] W Q ' ' W P P I W W I ! ! [ ! W ]  .@. .[ ..%. . .@.' Z l u 3 3 < , < , 3 a d F a 5 , , , % + + X X X X X X * X . + + + X X + * o X X X X o * X + + $ $ & 6 5 a F L F L K -.L G b c v H } @.@.[ ' J V c g q g l z V Z H Z m b z q l z l v Z B C C W Q } $.$.$.H K } } } K n 9 5 3 3 3 i a F F F K } } } ' } } @.y.e.X.O.#.@...$.%.p.p.r.{.{.{.}.&.@.$.' W A H [ ' Q H A A H H ' W A H H A J J ( z G a - 4 @ # w $.}./ G c 7 9 2 2 2 1 2 p n l c c B C W  .#.e.n.B.B.B.v.B.u.u. .W B 0 7 0 9 ; p p r p r q q u h v Z H W ' ' W ' W W [ $.%.@.[ ! [ ! ~ ~ ~ W A B B B B B S A A P P P I ! ! W I P I !  .#.t.y.y.",
"    o o o o .   .     . . X X . X + $ + 5 a a K K L p 9 9 r p e 9 e i q 8 8 p z b H H J W Q Q ~ A A W ~ ' W W I A I ! O.e.e.t.t.t.o.^ ^ P D D P y.t.%.#.#.O.+.] G e 1 - 1 4 3 q i 9 w 0 h z V V B B V V A H W Q A A Z Z Z Z V v m Z Z V b z l p i a i i e i q 9 5 6 6 2 2 2 ; - , , & & & # # % * * + + + % , < i i a x x l l p g g l v v z l l z p u u 9 1 1 > # , 3 3 2 3 9 q p p p p u p p u l z l l l h y q p 9 9 9 9 7 7 7 1 1 7 1 8 8 w 1 8 8 9 q 9 8 8 u 8 q p p 9 > > > > % , 3 3 9 i a F d s < % % % % + + + % + X + % % $ + @ + $ * $ . . . . X     . . . .     . + $ 5 5 e L L x K F F x l p x b x x p i 9 4 - # # - # - - > > > > > 3 > 2 3 > 1 3 - ; ; 1 2 9 5 9 2 2 2 2 e e e 2 : , & & & & , < < > < e e e 9 9 q b H A C S A b x r z V B B V V L b z z n l p p l p p e q q q e p p u q q q 8 8 9 9 2 F a > > O - g } / n p e < 5 , & , 5 5 e e e q p l l z V H W #.e.e.e.#. .W A Q G l 2 - , , # : : : : > > % > > 3 q i a a p p p p q p z z l y q g g r r p r 9 r r r r p l l z c l h q q q q q q q q q h l z v ",
"    . . . . X . X X + + + + X X $ $ & & 5 i 3 p L p 2 - > > > , , < 3 , > 2 i x x L F G G G G b q w 0 q p y q 0 q q c V A A A A Q H b z h w w q x x x M M x z y i < 2 5 5 5 3 5 5 3 < e a x l r p r q r p p p q 4 4 4 9 i q 4 > 2 3 9 3 4 > > > % & & % % > 1 : O O @ @ # - : , @ $ & & % % % > % % & % % , s i x L G K K F z y w 7 ; 7 1 ; 1 7 7 4 4 8 9 3 3 9 3 3 5 3 3 q q q 7 8 8 1 1 1 1 > - - - - > - > % % + + % % # # # @ + @ + + + + + + + + + + + + + # > > % % + + % + + % s i a L F F M a 8 1 - 1 8 4 4 1 - - - > > - - - - - 4 1 # 4 - - > > - # # # # @ @ @ @ $ # # @ # e 2 @ , < 6 < & % % % # @ # + + + X . X + + @ + + + + + + . . . + X + + + @ @ @ + @ + + + + . . . . + + X . . . . . . . O @ @ # # # # # # > 3 1 ; 1 > @ + @ % > ; ; - # @ , # # # > # # # @ @ @ @ # $ $ $ # # # % % % % & + + s 6 X + X & 9 F x 2 < , $ & & $ & 6 6 & & < 2 3 3 3 3 9 i l g h c c z x x x a i 3 > # # # # & & : & % % % % % > > % > , , > , > > > > > > > 1 4 4 > > , % # , , , , < < < < 3 3 2 , , , < < 5 3 , > > > > > ",
". . . . . . + + . . . . . . . . . . & , s d e e e 1 - 2 < , > , > , , # # : 2 e 2 9 9 9 9 r 9 2 r 9 2 9 9 3 3 9 1 4 8 q q q 0 8 9 2 , , % # # # % % % , > > > > : # , 5 5 6 , , & $ # , < 3 , : > : # # # # @ O # @ # # % % # + + + # # @ @ @ + X X + + @ @ # @ + X + O O @ @ @ @ # % % % % > > % > > > > < i a x M F K ( K Z c z q 7 8 8 4 8 p 9 8 8 9 9 9 3 9 e i e 9 q p p l q q 0 w w w 7 1 > # # % # + X X X X X + + + # @ + + X . . + X . X X X X + + X + + @ + + X X X + % % , 3 i p x G Z V V B B Z W ' [ [ Q H ] } { H B A H H W ' Q Z Z c f q q q q f 0 w 7 7 1 - # # @ # - - # O O . + + + + + + @ + + + X X . . X X . . . . . . . . + + + + . O + @ @ + . . . . . . X X + X . . . . . . . . . O O @ O O O O O O O O X + # # # @ . o     . O O O .   . . . . . . . . . . . . . . . . . . . . + + X + * . * X . * o & p K F i < 3 % + % $ $ * $ + @ $ @ # # + @ @ % > > 1 - - @ # % & % % # # # @ $ & @ @ @ @ @ # + + O @ O O O O O O O O @ O O @ @ O # # + + + + X X X X X X X X X X + @ $ $ $ + $ * + X + + + + + . ",
". + @ + + + + + O O O O O @ # # % # , 3 i L p 8 4 - - 2 3 , % % % & & & , , , > - : - - - 2 1 - @ # : , , @ @ @ % , , , > > > : + + + + + X X X o o + * * * % & , , < 6 6 & & & + + $ $ $ + + O . . . . . . X X X X X X X X X o X X X X + + + X o o X X + O O O X o + + @ # # - > > % > , 2 4 4 1 4 3 9 i p M Z K K J J ' A S v l y u z x p p p p p a a i 9 9 i p x b m Z V v c c c c h h h h 8 > @ + + $ X X X * * * + # # > > @ # # @ @ @ @ O @ @ @ @ @ @ @ @ % % % % % % % > > 4 p m H J } &.y.t.t.t.u.i.n.|.XX@X*X*X1X2X:Xn.OX*X<X@XOX@X@Xa.|.y.#.O.O.O.#.%. .^ ! W A c q w 7 1 1 - @ O . % # # > > > > 1 8 1 1 1 > > > > - ; ; - - - - - - - - - - - - 1 8 4 4 1 1 1 > - - - > > > - - - > > > : # # @ @ @ # @ @ - - - - # X + + # # X   o     o X X X X o   X + X . . X + . . . . . . . . . . . . . . . . . . X X + * X % z ' K q - > > # # % % # # > > # # % % % + + % % # # > # + X o o X X X + + . + $ # @ # @ @ # # # @ @ @ O @ # # @ O @ @ @ # - # O @ @ + + + + X X X X X X X X X X X + + X .   . X       . X + + X ",
"> > > - # - > 4 9 3 4 > > > 1 1 4 - 3 8 q x p 7 8 1 1 1 1 - # @ # # - > , , > - > > - - - 1 1 - - # : , # @ # , $ $ % # % : > # $ $ $ $ $ + + X X X + + + + % % 5 5 5 5 5 5 5 5 & & $ $ + + + $ . X + X . . X $   . o o X       X X . . + + X . X o o o + + + $ X X + # # - 1 9 3 4 4 4 9 q q q q h l v m Z J { ..[ [ ] ] | ] ] Z b z z x x x z b x x x b x b F Z H W Q Q ' ' ~ P A A S S A S v x 3 , , , & & = < < < < 9 p x F G K Q J J H H G H H H Z V Z G G y u u i u y y y k Z { %.a.|.@X<X>X;X;X;X;X;X%XT.N.%X&XT.J.J.=X-X9XuX9X-XT.T.T.C.N.b.b.N.N.b.b.n.&XOXOXOXXXs.$.$.[ Z z q > O O i z V Z Z A A ] { ..[ { ] ] W W W [ [ / [ [ [ } } } $.@.} $.$.$.}.' [ [ @.@.*.@.@.' [ } ' H A H Q H G K K G G v c l g g l c l g l a d a a u +     o   X + @ O . . . O @ O O O @ @ @ @ @ @ @ @ @ @ # # # @ @ # : : O # # @ # % < x Z @.*.A h h y 8 1 9 u 9 u l q 1 4 4 > > > > > - > - # @ + X X o o X X X + @ @ # > > > > - 1 4 8 4 9 9 9 r r r 9 7 w w 7 w q w 1 8 4 > > > # + + + + + + + + + + @ @ + O . . X + * $ + . @ + @ + ",
"( J K Z b Z J } } ' H H A A Z Z v 0 v v B Q Q A c c h q 8 9 8 4 1 1 7 7 9 8 8 9 8 8 8 7 w q 0 7 9 2 ; - - - - 4 > > > > > 4 4 4 > - - - 1 - - # > 1 4 4 4 4 4 8 q q q r p a a a 2 , # @ @ @ @ O @ @ @ O O . . . . + + + * + + + + + + # # # + + X X o $ $ $ & & & & % > 1 7 q h b b b Z A W ] ' [ [ [ ..@.%.%.t.a.a.A.A.A.A.Z.A.}.&.@.J A J J K Z b b G H K J [ [ $.%.#.y.a.|.XX3X3X1X1X1X3X3X$X}.} b p e < , , > 9 l b H [ $.%.@X:X<X@X X X:X2X2X<X*X@X@X<X<X*X+X#X#X#XoXoX.XXXa.n.OX%X-X%XJ.J.J.Y.Q.5X9XwXwX5X4XE.K.L.S.L.E.7X6X4X7X4X^.W.R.R.Y.R.W.=X&XQ.Q.-X4XQ.Q.;X2X1X*X1X3X$X.X} F 3 # F s.n.OXOX%X%X&X&X;X-X%X%X%X&X&X%XJ.J. X X%X:X;X2XaXdXaX*X:XN.m.N.:X*XsXrXpXpXaXrX2XaXpXrX*X%X:X*XXXoXoXoXoXoX|.|.|.|.|.@XoX{.{..X.X.X-.*.' p + *   . @ > 1 ; - - 4 7 7 7 q l l q z z z l l c v v b b V b b V V v v H v v B Z { }.i.OX1X1XXXa.s.%.oX.X.X.X#XoX{.y.$.@.@.} @.@.} } ' Z h 8 > % + X o X * % , e p u q q 0 0 q h z V $.&.}.{.oXoX{.}.&.}.}.}.y.}.}.}.' Q Q J H l q 7 7 1 4 7 7 8 7 8 1 1 4 8 8 2 1 - - - - 4 q p q 8 ",
"#X$X1X$X$X$X3X3X3X3X1X1X3X3X3X1XoXy.a.#.| #. .P I W W A A H A Z Z A A A S A H W H W Q W Q W W A W H A H G v l y q y y q 0 y h q l l c c v v c c V V A A A Z S A A A A A H H Z b z q w 7 9 9 9 ; 1 > > 1 4 2 4 > 4 > # - > < 2 > 4 3 8 8 7 1 1 , & $ $ = = & & , , < 9 l Z } }.oX{..XoX#X#X3XdXZXZXZXdXdXVXyXyXtXVXKXKXKXKXKXKXKXZXAX3XoXa.s.%.W ] W W [ ..$.&.}.+X3XZXZXZXZXdXpXrXrX2X2XrXyXyX2XoX .c q q r e p l H $.}.@X<X2X<X=X-X%Xm.f.m.;XuXMXuX5X5XuXMXSXiXSXVXVXKXKXKXSXpXSXiX9XnXmXmXxXxX4X7X4X8XwXqX6X7XxX^.R.7XxX6X!.K.R.R.^.0XcXwX6X/.E.E.W.W.R.Y.W.0XwX4X/.9XtXtXyXVXyXZXAX.XQ x 3 b @X;X5X5X5XW.E.Y.E.R.H.L.L.R.E.E.L.L.S.H.J.=X9XuXiXKXFXMXmXqX7XqXMXMXFXFXFXMXiX9X5XiXFXFXiX9XuXMX-X%XN.N.M.N.%X%X%XJ.%X;X%XN.N.OXXX@X@X.X$.z > # # - 9 V W W W Q [ [ [ @.{.$X#XoX#X#X+XoX@X@X#X<X#X<X<X@X|.|.a.t.p.|.u.i.*X1X2XyXSXuXtXKXSXpXVXZXVX2X:X;X>X:XC.N.&XOXOXOX*X<X*X@XXXy...Q Z l < # X * < 3 x K } ' ' W W W ' @.%.s.n. X;XaXyXaXsX:X X:X*X:X X:XsX2X3X3X3X3X1X.X#. .] ! W W ] ] ] [ I ~ [ @.} Q V h h c Q &.oX$X$X#X",
"tXtX2XpX2XrX&X;XC.&X;X>X;X>X>X>XrXaXpXpXpXpX;X XOXn.n.@X@X{..XoX@X*X*X@X*X1X3X3XyX2X*X@X*X1X1X*X:X2X3X<X+X@X{.t...%.s.s.y.s.s.i.|.a.XX<X1X<X*X1X2X1XZX3X2X*XyX*X3X*X1X2X*X1X+Xy.y...[ ! ~ A P W B W W W W Q ] Q Q W ] [ } } @.&.}.}.}.&.&.@.Q K a 5 & & & & = 5 3 l J &.#X3X*X|.B.N.N.:X>X%X-XKXpXpXtX9XuXtXtX9X9XeX9XeXwXGXGXGXSXtXVX,X3XOXXXO.X.^ ^ O.e.p. X2XpXdXMXrX=XJ.J.T.J.T.Q.-X9XuX9X;X%Xa.{...c q n q g $.|.aXpX;XsX5X5X=XN.m.M.T.4X9XuXMXwXwXFXnX8XwXcXnXmXmXmXFXFXMXmXnXcXxXxXxXvXmX4X8XwXwXwXwXwX0XcX0X0X0X/.^.!.K.F.K.^.0XqX0X8X0X^.0X/.H.W.W.W.8XqX8XW.4X-X;X9XtX;XZXKXfX$.J r c i.&X9X8X5X8XW.H.D.H.R.L.H.L.L.L.L.K.K.E.4XwXiXiXMXiXwX9X4X4X4XwXFXFXFXGXiX9X5X5X9XiXMXMXiXwXiXMX6X^.E.^.4X7X4X7XwX4XE.W.W.Y.Y.Q.%X%XN.N.n.P ; - - - W oXyX2X1X+Xn.:X%X;X&X2X;XpXtXuX;X9XpXpX9X9XrX-XuX5X=X5X9X5X5XeX8X8XqX8X/.8XnXwXqXcXnXwXiXGX9X9XMXMX5X=XE.f.d.z.M.m.J.-X5X;X;X%X Xp.$.' l 1 + , 4 z } .X1X<X1X@X@X1X@Xu.6.B.J.5X8XqX4XMX9X5X4XMXMXJ.j.E.9X7XE.uXrXKXPXrX;X:XOXOX*X*XOX*X*XB.b.OX1X3XVXyX2X3X@XyXCXZXVXZX3XyX",
"9XQ.Y.9X9X9X9X9X4X=XR.R.4X8X4XR.qXuXMXMXMXMXSXKXiXtXVXKXKXZX2X2XiXSXSX9XT.T.,XtXQ.Q.;X9X9XT.Z.T.T.5XuXuXuXtXuX;XtXVXKXKXSXVXVXtXtXSXKXSXSXSXpXuX&XT.9X;X>X&XtX>XSXVXKXPXFXSXKXSXKXVXVXZXZXyX2XOX1X2XVXKXKXZXZXZXZXZXZXZXZXyX1X*X*X<XaXKXPXAXoX[ H p < < 5 6 6 e y Q }.+X:X%X%XJ.=X-X=X5XuX7XK.E.5X5X5XwXiXuXwXwX/./././.0XcXcXcXwXwXGXiXSX9X;Xb.8.4.^ 9.B.gXsXBXKXFXMX5X7X7X5XqXnXmXFXLXFXiX4XY.5X:X<X}.V 7 q f g y.:X:X;X5XMXuXuX9X9X=XR.Y.R.E.H.E.~.'.DXDXwXwXlXzXxXbXvXvXvXxXxXxXxXlXxXvXxX6X0X8X4X4X4X4X8X0X/./././.R.D.l.l.R.R.^.8X0X/././.0XW.x.x.Q.Y.M./.0X'.'.8X8X8X9X9XuX-XaXKXoXS 7 W OX&X=X=XW.W.W.R.D.D.H.H.D.x.H.L.R.R.R.R.Q.8XeX8XW.W.Q.H.H.E.0XnX4XGXPXLX8XY.Y.-X4X5X8X9X9XqXwXcXcXqXqXcXcXcXcXcXmXcXwX8X^.W.W.E.E.Y.J.Y.C.! 0 1 1 7 $.<XpXuXrX>X;X9XY.=X5XiX5X8X4X8X8XqXnXDXnXFXcX5XmXnX6XcXcXcXcXcX~.D.!.`.~.~.8X0XcXcXwX4X8XwXW.R.nXIXLXqXR.z.S.D.L.L.K.^.7X7X5X=X&X;X+X#.Z u # > 9 Q {.OX;X;XtXrXtXVXuXJ.z.L./.6X^.6XxXLXnX^.6XxX0XR.c.c.K.E.7XqXW.4X=XM.=X9X-Xm.M.-X;X;X5XQ.M.;XuXSXPXPXPXPXPXPXVXVXiXKXVXSX",
"cX/.E.R.6X6X0X6XD.D.D.F.!.6XxXxX6X/.6XmXLXLXnXnXwX5X5X9XMXKXLXKX4X4X/.E.H.D.l.g.c.R.4X/.H.l.2.3.K.^.0X0XzX0X/.R.nXnXcXqX0X0X0X8X9XiXGXiXwXwX8X4XW.x.Y.Y.Y.k.Q.W.8XqXDXHXDXDXHXHXDXFXLXLXLXLXFXMXGXGXGXGXFXLXFXGXGXnXiXiXiX9XT.M.5X=XJ.=X5XsX X#.~ v 9 e i i e p h ..+X2X;X=X7X7X0XqX7X^.7X6X(.(.7X7X7XcXcX6X6X0X0X0X8X0XzXcXJXDXHXmXmXwXnX9X9X-X,.:.7.=XuXMXMXMXMXmXnX5X7X0XxXxXxXxXxXxXcXcXDXFXuX:X<XoXG ; ; w c $.|.:XuXuX5Xk.=X4X4X8X8XwX0X4X8XqX`.^.)./.).`.zXzXzXzXzXxX0X6X0XcXwXE.R.W.R.x.H.H.T.4X8X4X4X4XW.4X/.W./.D.2.g.c.x.L.E.W.Q.Q.Q.W.-X-X-X&XM.N.eX8X'.W.W.W.T.E.Q.Q.%X;X2Xy.A 0 A N.N.T.=X-XQ.D.c.D.D.D.x.x.x.H.J.H.H.D.D.Y.Q.Q.Z.x.Y.Y.H.Y.W.0X0XeXeXiXSXiX9X9XGX8X-XW.-X8XeXwXcXJXJXJXDXDXcXwXcX0XcXcX8XW././.R.Q.W.R.T.OX! 0 1 - 0 y.*XrX5X9X-XQ.Q.x.Y.W.0XW.W.W.0XqXwXcXcXcXDXqX6XnXwX/.6X/.).0X`.~.~.`.`._.!.R./.qXwXcXGXGXGX8XY.W.qX9XqXwXnX6X^.F.S.G.D.P.7X^.^.4XsX<X}.W h - - y s.2X&X4XqX5XwXnXGXwXP.S.G.^././.xX6XqX/.4XcXwX0X0XE.c.c.R.W.6XE.J.M.f.J.5X&Xm.M.=X-X-X5X4XT.8XeXSXPXPXPXPXPXPXtX9X8XuX8XeX",
"G.F.K.g.K.).mXxX^.).6X6XlXxXmXHXHXlX^./.xXcXxX6XR.H.l.g.H.6XnXnX6X8X8X8XcXcX).R.0XDXDX).U.R.R.F.hX_.F.G.F.).vXJXzX0X).(.).`.0X0XqX4X0XnXcX8X/.6X8XY.c.c.c.h.k.Y.~.).zXzXbXHXHXvXzXvXJXzX`.zXDXHXvXHXHXcXcXHXHXcX^.R.R.R.^.^.K.S.D.E.6XMXMX5XB.o.#.V 0 q a a i l B o.:XrX9X5X0XlX6XlX7X^.P.^.6XbXxX6X6X6X0X6X6X6X0X0X0XzXzXvXDXHXHXvXxX).6X0X4X5Xl.d.f.J.xXMXmXmXcXnXnXcXcXxX6X).^.6XzXxXxXcXcXnXuX XXX.XK 1 - 1 v y.aXKXpX=XT.=XwXqX6XwXnXDXxX^.`.cXcX`.~.~.`.vXzXzXzXzX6X6X6X4X/.wXwX4XQ.&X5X5X4X/.8XwXcX4XW./.Y.4XE.Y./.D.1.h.h.j.x.J.Q.W.W.&Xk.Q.-XT.N.N.T.Q.Q.Q.Q.Q.Y.Y.L.Y.R.4XQ.v.| W h C b.M.Y.4X8X/.Y.c.U.D.S.c.c.x.x.H.D.D.D.D.D.Y.Y.M.D.Q.Q.Q.R.8X0X8XGXT.H.8XwX4XW.qXGXwX4X/.0XwXcXwXwXwXGXGXwXeX8X8X'.0XeX8X'.'.'.Q.Q.W.T.Q.OX] 8 - # w s.OX-X4X5XW.W.8X8X8X8X'./.0X0XDXDXJXcXqX0XwXwXwXnXwX0XqX/./.`.`.0XDXJX`.~.`.8X-XE.Y.Q.qX9XW.W.W.E.T.=XiXMXwXmXxX4X7XE.K.^.6XL.7X4XT.OXoX%.h > - h XXaX4X7X6X!.6XcXwX6XR.F.G.l.S.R.cX^.R.R.DXwX4X8XwX0XR.Y./.R.4X4XW.H.f.z.Y.M.T.Q.Y.L.W.4XR.M.W.eXiXFXGXiXeXeXSXSXVX8XeX-XwX",
"S.l.S.l./.0XmXcX6X/.^.6XvXHXmX0XxXmXmX0X6X0XxXqX0X6X4X0XcXnXwX4X6XwXcXqX0XxXmXDXmXmXcX0X0XzX6X).F.P.P._.).0X(.U.).).zXbXvXvXxXzXmXwXwXmXmXxX0X0X0XE.H.Q.Y.x.h.x.D.).zX).bXHXHXvXNXHXJXkX_.).vXHX(.zXbXvXbXbXcXbXvXcXzXzXxXmXmXmXHXFXmXcX5X5X5X2Xt.A 0 q x a p l S t.;XuXuXcXxX6X^.P./.6X/.K.R.^./.4X/.^.4XcXcX6XR.^.^.^./.6XxXmXzXlX).0X0X0XW.Y.H.j.z.E.5XuXnXmXqXcXnXnXcXxX6X!.(.(.(.^.R.W./.8X9XT.|.}.K 4 - e G &.+X;X%XT.T.9XcXxX0X6XzXxXxX6X!.`.vXbXkXkXbXzX0X0X8X).(.^.^.^.8X0X0X0X8XW.Q.W.4XR.Y.E.E.R.E.0XE.4XE.Y.4XY.l.H.M.H.Y.Y.W.=X;X=XW.N.j.j.N.&X&XN.x.M.Z.Y.T.W.4X4XqX=XJ.%Xa.] f Y v.L.K.H.R.).).U.U.D.G.l.S.S.S.S.K.K.R.K.R./././.R.E.R.c.S.^.qX0XE.R./.wXwX8X4X0XHXcX6X/.6X0XzX0X8XeXwXwXwXwXwXqXwX8XeXwXwX8XW.W.Q.W.T.Q.OX[ y > - 8 s.OX;X0XwX4X4XcXnXwX8XR.Y.E.W.8X8X4X4XW.Y.E././.8X/.wXnX8X8X0XwXwXqXqX'./.0XeX-XY.x.M.W.W.M.T.-X-XE.4X9X=XY.E./.8XwX4XK.K.E./.nX7XN.N.@XoXQ 4 > k {.uX5XzX(.(.zXcXwX8X6XlX6X/.E.H.4XE./.H.R.R.R.E././.Q.E.Y.E.-XW.M.j.j.j.N.N.&X&XY.E.Q.Y.x.h.W.9X8X&XT.Q.,XeXSXGXiXW.=XW.qX",
"W.d.<.z.4XE.E./.D.R.^.4XqXxXqX4XY.wXDXGXDXFXnX7XH.R./.qXcX0XR.S.R.W.W.R.Y.Y.R.R.R.z.S.6XcX/.R.^.vXlXK.G.G.K.R.R.~.^./.0X0X`.`.0X6X0X0X).6XxXxX6XzXqX/.8X/.Y.7.d.2.R.).!.).bXvXvXNXbXbXzXbXvXvXbXbX).zXJXvX).0XHXHXDXmXmXmXHXLXLXnXnXwXqX8X4X=XC.|.! k l b x l z A t.1XtXuXnXxXxX/.L.K.4X4X^.R.K.R././.R./.wXwXE.E./.7X/.E.E.4X0XxXzX(.6X/.4XJ.M.m.k.H.-X5X7X6XqXwXcXcXwXxXxXzX0XqX4XR.D.D.R.8XwX4X&XOX&.x # > p G ' o.R 5.T.k.1.S.P.E.L.L.^.xXmXxXzXbXbXbXvXzX!.)./././.^.R.R.^.qX).^.0XwX8XR.D.D.S.l.S.D.D.H.E.E./.E.Y./.Y.x.R.W.Q.Q.Q.Q.Q.J.M.Y.j.j.T.T.N.N.b.k.Z.Y.Y.T.W.4X4X4XQ.T.tX1X..0 A j.R.^.^.).zX`.!.!.U.D.D.K.R.K.L.R.R.R.R.W.4X0X4XE.E.Y.D.S.K.E.R.H.0XcX0XqXHXLXFXcXzX8X).6XzXzX0X4X8X8X8XeXqXqX8X8X4X4XcXnXwX0X0XeXwX8X;X*X@.y > # 7 $.N.=X7X0X/././.4X/.0XR.D.c.x.Y.Y.Y.E.T.Y.E.Q.Q.R.Y.0XwX/.W./.wX8XR.8XcXwX/.W.8X8XQ.Q.4X4XW.W.E.H.H.E.R.H.E.z.x.Y.R.L.D.L.R.xXxXK.H.b.i.XX*.4 > v |.uXcXHXvXcXcXcXwXwXcXHXHXDXFX6X^.R.wXK.2.E.0X8XE.Y.Q.L.j.j.M.Y.j.k.T.N.Q.5X&XE.8XnX8XR.R.4X8XW.H.Y.Q.Q.Q.&XeXW.W.Y.W.H.L.",
"k.7.,.f.k.Y.J.Y.-XeXGXiX5XQ.Q.Q.-X-XW.-XiXFXGXeXQ.E.W.0XwX0X8X4X=X-X=X&X&XQ.M.f.j.d.x.4X8X7XW.W./.7X4X4X4X4X8XwXwXqX0X0X8X8XqXcX(.lXlX(.(.lXbXzXzXcX4X8X4XQ.7.1.7.J.E./.xXxXxXvXbXzXkXbXHXHXJXbXcX(.!./.^.R.^.xXcXcXcXnXmXHXFXMXiX9X9X9XqX9X-XOX|.! v v G m b V A t.*XrXuXnXmXcX6XK.M.J.H.E.-XE.T.W.W.Y.J.E.Q.Y.5X9XwX9X4X=X5XqXmXcX4X4XH.M.v.C.T.v.f.j.H.E.5XMXnXwXqX4X4X0XwXwXcXcXcXwXwXeXW.W./.8XOX..h # > p v  .n.9.7.x.d.d.z.L.S.g.7.z.W.6XxX6X6X0XzXJXDX).!.~.^.(.(.!.~.).!.!.(.zXvXHXJXvXzXzX6X).!.K.S.c.R.H.H.H.H.x.c.c.K.J.L.H.L.H.z.d.f.7.M.T.j.,.7.j.H.Q.E.E.E.Y.H.x.g.M.b.OX.X{ 8 S b./.wXnXDXcXqX^.R.Y.D.Y.E.=X=XQ.R.R.L.J.Y.=X-X-XQ.E.Y.Y.L.L.H.x.9XwX8XH.Y.eXwXE.E./.8X0XqXqXqXqX0X8X6X7X4X6X6X/./.7X6XcXmXmXnXcXJXGXwX9X1X=.y - # 7 O.B.R.!.).^././.).^.cX6X/.R.R./././.0X4X4X8X4X4X/.E.wXnX/./.R.8X4XW.0XcX0X/.8X0X8X^.R.R.R.H.D.R.K.^.6X!.D.R.R.R.R.H.H.R.).).).xXL.L.m.8.|.@.4 > v XX9XqXHXJXvXcXeX8XeXwXvXmX6XvX6X(.^.vXxX/.qXmXnX^.K.^.E.z.h.x.T.k.M.W.Y.W.-X8X8XwXDX0XR.7XcXqXR.x.R.4XR.H.L.E.H.W.7XqXR.L.",
"8XGXeX&Xk.9X8X=X;X9X8X-X=XW.T.Y.T.W.-XeXuXiXeXeX8XW.E.W.W.Y.H.E.T.-X5XQ.m.j.k.m.f.L.E.H.L.7X4XE.E.7XwX8XW.Y.E.4X/./.8X0X4X^.^.).zXlXlXlXP.I.!.xX(.zXK.R.R.W.h.z.M.M.m.4XDXvX6XvXbXzXhXbXvXvXvXvX/.0X0X/.6XcXcX6X0XqXwXnXmXFXqXR.9X8X;XW.W.=X-X;Xn.! v Z J H G H ] t.OX;XiXFXnX4X/.R.Y.k.1.j.T.x.W.W.E.M.j.z.J.W.=X4X9X9X4X4XwXnX6XxX8XqXJ.M.j.T.j.8.7.k.J.E.4X5XwX9X8XE.E./.8XqX0X4XW.Q.W.-X8X8X0XwXOX| v 4 4 u Q  .v.j.N.T.z.J.m.m.f.9.f.J.4X7X/.4XcXcX6X0XzXR.F.F.R.~.!.!.~.).!.`.zX_.!.).bXbXzX0X).!.!.^.(.(.6X/.4X6X^.R.R.H.z.x.x.z.S.S.z.d.Q.J.J.j.R ,.m.k.M.E.W.W.W.Y.M.h.<.5.4.6...V 7 ] b.H.R./.^.R.D.H.D.x.c.H.Q.4X=XQ.=XQ.Y.J.J.=X=X=X=XJ.M.M.H.H.Y.=XW.W.T.Q.T.T.Y.H.l.H./.qXqX0X4X4X6X6X7X/.6XxXxX6X6XxXmXmXmXmXmXcXcXGXcX9X2X%.y > 4 0 t.OXW.!.).)././.6X!.xX^.^.E.E.4X/.W./.E.R./.E.^.E.R.0XwXE./.wX0X4X6X4XD.D.4X^.R.R.R.^.).(.^.^.cX0XK.^.).^.!.D.R.R.Y.R.^.R.G.!.mX/.K.m.B.OX .u 1 Z oX%XH.6X6XcX0X/.W.W.4X6X6XvXlX^.6X7XlX7X6X/.xXxX^.K.7X6XE.W.4X8Xj.f.k.h.H.x.wXnX0X4XE.R.7XL.7X7XL.S.S.H.E.H.R.D.K.^.qX^.^.",
"8X-X8XwXwX8X8XGXnXeX8X9X8X4XW.4XnXqXW.E.4X4XW.H.L.H.R./.4X0XqXcX8X4XW.H.L.W.W.K.4XW.D.z.K.7XE.l.2.L./.E.H.H.L.S.^./.^.R.K.).xXvXK.^.^.P.!.6X6X).0X/./.7X/.R.c.l.Y.nXnX4X6X0XzXvXlXlXzXxXbXxX).~.!.zXzX!.).DXHXxXcX6XqXxX6XqXxX6XwX9XR.4X/.^.H.rX@X%.j A Q V [ [ ..n.;XtXMXqX7X6XR.W.W.M.x.Y.R.D.E.W.4X8X8XqX8X0XnXR.D.4XDXnX0X7X/.R.0XGX8X/.4XH.R.L.L.Y.E.E.7XqXnX4X/.W.Y.4XqX4XL.9XH.1.k.W.Q.&X8X;X&Xe.h - , p W t.N.>XpX>X%Xk.j.J.m.m.7.J.R.4X0X0X6X6X).).).6X!.K.F.!.!.R.F.U.F.F.!.R.G.!.6X^.(.zX0XR.R.6X0X/.6X/.K.K./.zX6XR.R.L.E.7X/.H.x.Y.T.Y.J.k.j.j.N.&XQ.T.Q.T.T.E.E.T.&Xq.u.| Y N 7 W j.L.z.l.W./.H.H.R.R.c.E.0X4X4XR.R.R.L.H.L.4X4XW.wX4XW.4XwXnXnXnXeX-X4XE.Y.J.z.M.R.4XqX8X4X8XcXnX4X/.4XqXwX0XxXmXcXxXcXmXDXmXnXnXGXFXnX9XOX&.z - > y %.;XqXqX).(./.7XR./.^.E.4X4XE.E.E.W.4X4X/.qX/./.4X4XH.z.H.R.E.wX4XR.E.D.c.4XE.H.c.S.R.6X/.R.6X)./.).0X6X).^.D./.E.x.D.R.R.K.(.6X7XL.M.-X%XO.0 w B t.N.9XqXxX6X!./.0XR.K.0XcX6X0XDXmX^.R.6X6X^.^.wXcXR.D./.0XcX4X4XH.H.W.k.j.Q.Q.W.W.R.R.W.4X/.L.D.R./.R.R.W.H.R.4XW.Y.R.qXnX",
"W.W.E.R.8XGXwX4XqX0X0X0X4XE.R.R.4X4X4X7X4X8X4X^.E.^.qXFXHXFXmXnXcXwX0X/././.H.g./.0XwXqXqXwX/.c.H.E.E.H.D.K.K.F./.^.^.^.6XxXlX^.6X).P.G.F.^.zXzX^./.6X0X7XR.D.D.0XFXDX4X)./.).0XzXbXJXvXxXzXzXxXmXvXxX).R.!.xXHXmX6X/./.K.^.xXqX4XMX0X^.K.W.H.N.1Xs.B A Q A  .! | i.;XpXLXFXxX6XwX/.R.Y.R.R./.0XH.wXFXnX/.E.qXDX6XqXcXxX0X6X6X0X/.R.0XDX8X4X0XE.L.E.0XwXwX0X6X4X4XR.E./.Y.E.4XY.W.Y.1.1.E.-XT.Q.T.Q.;Xs.z - > 8 W i.N.T.2XaXuXT.Q.J.m.Q.J.E.R.0X/././.).).).hX6XK.K.F.F.R.(./.^.`.R.R.R.c.D.^.^.^.4X0X6X4X/.E.H.^.6XzX6X^.!.!.R.c.D.H.R.R.L.Y.E.J.Q.Y.k.j.Q.;X-XT.Y.M.M.Y.Y.E.W.;X&X*Xo.Y j w P b.z.M.Q.4X0X4XE.4X4XE.qXwX7X4XE.E.D.l.H.E.4XwXDXnX8X4X0XnXnXnXwX4XW.qX9X8X4XY.E.8XwXnXnXcXcXwX4X8X0XwXnXnXnXnXmXnXnXnXcXnXnXmXmXnXGXnXuX*X$.p # @ 0 %.;XqX8X~.~./.8XR.^./.E.4X/./.W.E.W.8X8X4X0X4XE.W./.E.R.R.H.H.wX/.l.H.E.R.R.R.W./.E.R.E././.^.R.R.R.!.^.^.R.G.L.K.R.4X/.H.D.^././.L.H.=XC.X.0 7 B {.%X5XqXmXmX6X6XzX).^.!.H./.DXwX/.qX8X/.DXDXwXcXcX0X4X4XE.7XH.R.H.Y.=XE.5XT.=X4XW.R.R.W.4XE.R.R.W./.W.4X8XwXW.x.k.Y.5XqXqX",
"Q.8X/.R.W.cXnX8XwXqX0X0X4XE.R.E.W.4XqXwXwXcXnXnXmXnXqX5X7X/./.7X6XxXnXnXcXxX4XR.H./.6X/.^.6XcXxXD./.4XE.L.R.0XmX4X6X0X6XzXxXxXxX/.).6X6XzX6X/.R.^.6XxX6XL.c.E.cXE.0XqX4X6X^.!.!.zXbXbXzX(.(.zXJX).zXmXHXxX^./.xXxXxXmXmXqX6X6X^.qXwX/./.K.L.H.;XyX.XS J ' W  .~ O.n.%X=X9XFXFXmXqX/.W.W./././.4X4XwXnX4XR.R.W./.4X7X4X6X6X4X7X4X8X/.wXnXqXwXnXqXE.8XnXwX7X4XW.R.nX0XW.L.x.H.E.E.Y.k.,.<.J.Y.j.k.N.T.%Xt.l - > q I i.N.Z.C.%X-X=Xm.M.z.M.L.8X4XR.^.^.(.).).).).6X6X7X^.D.F.R.R.D./.U.H.E.K.D.L.L.4X/.E.R.R.R./.0X^./.6X0X6X^.!.E.0XqX4XE.L.R.H.x.k.k.k.j.M.Q.&XQ.8X8X4X-X-X-X8XeXT.&X1Xt.P k 7 P b.x.W.8X4XwXnXE././.R.R.K.L.E./.4XR.D.L.R.R.W.0XwX8XqXwX0X4X4X8X8XY.Q.5XnXGX4XY.x.H.E.6XnXDXnXwX^.8XwXcXcXcXqX4XK./.wXnXmXmXmXnXnXnXnXpXyX&.l # > y %.&XW./.).0XqX0X^./.4X4XwX4X0XcXcXwXwX4X4XwXW.R.R.4X4X8X0X/./.wXE.l.K.^.K.D.H.E./.E.R.H.R.R.6X4X/.^.!.!.^.^.xX6XR.L.E.H.D.R.E.^./.E.Y.-XN.| f 7 j a.N.J.L.6XbXR.G.F.H.E.)./.S.H./././.0X0X/.0X/.4X6X6X8X/.D.g.2.D.Y.L.k.1.h.J.W.4XW.R.E.^./.E.E.E.K.L.c.c.c.L.H.L.E.W.Y.H.Y.",
"Q.R.Q.H.D.Q.4X0XwXqX0X4XE.R.R./.4X8XcXnXcXnXnXnXcXqXqXcXxX7X7X7X7X6X0XwXnXDXcX0XK.6XcXxX0X0X6X/.R.c.2.g.E.cXxX/.R.^./.^.R.R.^./.^./.6XxXxX0X6X0X0X4X/.K.D.R.0XmXDXnX0X4X6XzXxXbXzXhX(.~.~.`.cXJXvXvXxX0X6XzXzXzXxX6X7X^.E.^.7X^.qX4X/.0X).E.W.uX1Xs.A J ' Q [ I | n.&X-XwXFXmXxX4X8X8XR.R././.E./.W.E.L./.wX0XR.0XD.S.4XnX0X6XwXwX8X0XwXwXcXnXwXnXDXwXR.z.H.K.L.H.H.R.4X8X8X8X5Xx.Q.M.f.j.k.j.j.M.T.%Xe.l - > y ] n.%XQ.b.8.m.E.J.R.L.Y.4XcX6XR.E.^./.).6X6X).6X6X7XE.R.R.^././.W.Y.H.Y.H.z.g.d.d.h.c.H.H.D.D.D.E.K.H.E./.E.R.R.R.R.H.H.H.H.H.x.Y.j.j.Y.Q.J.Z.&XW.-X4X8X-XW.W.W.-X%X1X+X%.j 0  .N.4XnX8XW.nXDXW.R./.7X6X/.E.E.E.H.R.E.R.E.4X4XE.4XcXFXDX4XE.4XnX8Xx.z.x.=XqXR.H.H.L.R.4XwXnXwX0X4XcXcXcXwXwX0X/.cXcXnXDXFXFXFXLXGXnXMXKXZX}.l > - q O.N.H.R.R.).qX0X!./.6X4XxX8XE././././.E.R.W.R.R./.0X4X0XcXcX/.E.D.D././.E./.E.E.E./.4X4X/.E.6X8X0X6X(.(./.6X6X0X4XW.H.d.1.h.H.L.E.W.Q.-XN.X.j 7 f  .8.z.l.K.(.K.K.R.R.D.S.l.2.3.H.E.H.4X0XD.R./.qX0X0XwXqX/.^.R.K.c.2.<.d.z.L.4X8X/.E./.7X/.R.E.^.R.R.E.E.R.R.R.E.E.x.d.x.4X",
"0X/.Y.c.Y.R./.4X4X/.E.H.D.c.H.E.4X4X0X0X0X0X0XwXcXqXqXqX0X6X6X0XxX/.K.!.zXvX0XK.!./.6X6X6X0X6X^.H.R.R.H.c.D.E.6X4X/.^.4X0X/.D.d.c.H.7XwXcXwXcXnX0XK.l.L.wXFXnX4X^.R.K.^.6XxXxXzXhXhX).zXxXbXvXvXvXbXcXvXmXvX6X!.^.R.G.l.D.^./.^.R./.0X/.6XwX9XT.XX..V Z Q Q ~ U | OX>X;X9XnXmXxXcXnX8XH.c.E.0X0X4X8X8X4X4XwX8XE.H.c.D././.H.E.cXwX4XW./.4XwXwX4XcXcX7XH.z.K.R.L.l.x.L.4XnXwX8X5Xz.Y.Y.z.7.1.7.j.z.J.-Xa.V ; > 8 t.>X9X&XN.b.=X4XnXW.W.wXnXR.H.E.E.^./.4X6X0X0X0X4XR.L.R.Y.D.x.Q.W.Q.k.7.7.7.9.,.7.z.H.k.x.H.x.h.x.x.H.H.D.l.l.L.l.d.g.D.R.L.L.E.Y.k.k.T.T.j.j.J.M.N.Y.T.E.Y.Y.Y.;XC.XX|.#.k w ] %XnXnX4X4X4X4X8XnXwX4XE.E.^./.4XR.4X0X4X4X8X4XE.E.6XcXwX/.H.E.8X4XW.5XW.E.Q.W.9XwXqX8XwXcXcXwXwX4XqX0X/./.4X4X/.0X/.0XHXIXLXFXLXFXGXGXKXdX&.p - @ 8 $.&X=X^.R.~.)./.K.R.(.^.).^.R.R.D.H.4X0X^.R././.6X6X^./.wXxX0X/.R.^./.^.R.E.^.R.R.E.4X4X/.E.R.E././.^.^.(.6XS.K.L.z.h.7.1.d.c.c.H.R.T.T.B.o.h t 0 | v.=XE.^./.(.(.6X0X^.D.l.D.4XR.c.E./.E.6XR.0XcXxXzXxXxXzX).0X/.D.l.c.R.Y.R.4X0X4X4X0X0X6X!.E.R.R.^.6X6X/.0X^.E./.^.R.E.4X",
"0XDXwXW.R./.0X4X/.E.H.D.c.c.H.E./././.4X4X4X4X0XnXqX^.R.K.K.E.6X0X0X0X6X6X).^.^.).^.K.D.R.6XxXxXcX0XW.L.H.R.^./.nXcXcXnXmXcX0X/.c.R.4XwX8X0X4X4X^.R.L./.mXLXHXnX6X6XqXxXzXxXzX~.F.(.bXvXbXzX`.`.vX`.).zXzX).).cX/./.K.D.^.7X7X/.0X/./.R.^./.5XC.i.] B A ' Q ~ ] 6.:X>X&X4XqXxXnXwX0X4X4XE.K./.wX4X5X8X8X4X4XE.H.H.W.4XR.D.H.W.4XwX0XE.E.4X0X4X/.H.R.E.E.^.4XE.x.W.W.R.W.4XW.Y.=XY.z.h.x.j.7.7.x.Y.Q.-Xp.V 1 4 q t.;XQ.M.T.uXMX7XwX4X8XqX8XD.D.R.E.E.^./.4X4X8X4X8XY.J.Y.M.7.1.h.w.x.h.1.f.j.7.9.k.H.H.z.z.J.E.Y.h.g.l.x.H.x.c.l.L.c.D.E.4XR.Y.W.J.R.T.Y.Y.Y.M.j.M.M.k.M.Y.E.W.W.M.b.6.^ A f 0 ! &X4XY.R.Q.h.g.wXcX4XE.D.H./.4XwX8X4X4X8X0XE.E./.L.H.H.R.L.D.D.H.8X5XwX9X9X9X8XnX4X4X/.4X4X4X0XwXE.E.E.R.R.^.4X6XE.D.K.cXFXmXnXnXLXLXLXKXyX$.p - # q $.%X=X4X).0X).).R.!.^.R.(.R.!.8X8X/.4X/./.6X4X^.E.^.^.6X0X4X4XqX0X^.R.^.^.H.H.Y.R.R.R.R.R.E.^./.6X6X(.^.^.^.E.E.c.1.j.M.M.x.D.x.L.Q.T.N.v.O.f 7 f #.:XuX4X^.)./.R.^.cXDXxX0X4XqX8X^.E.E.R.E.R././.).xXxX0X0XD.6X6X^.^./.6XL.^.^.^./.7X6X)./.^.R.F.K.R.R.R.K.^.R.E.4X0X7XE.E.",
"^.wXcX/.U.Y.R.E.^.E.E.E.E.R.R.E./.4X4X8X0X4X6X0X^./.6XqXwX6X)./.!.0XvXcX6X(.6XcXvXvXvXcXzX0X)./.R./.4XE.D.c.R.6X4X4X4X0X0XqXnXFXnXwX8XE.R.4X4X4XL./.0XcXnXDXFXFXLXFXcXK.2.2.F.G.F.~.zXbXbXzX).(.F.F.).DXJXzX(.(.zXcX/.D.R.4X0XcXGX^./.^.^.R.8X9XXX] B A ' W W  .| OXrXtXnXnX6X^./.4X4XwXwX/.R.K.z.j.k.E.9XqX5X=XiXGXnX4XE.8XqX4XwXwX4XE./.4X4X4XH.L.R.=X7XR.H.z.h.H.Y.=X9XQ.Y.4X9XH.k.Q.4XQ.Q.4X0X4X-Xe.c 1 8 l O.N.m.M.;X9XwX7X7XnXHX4X4XW.4XE.E.R.E.E.E.E.E.E.Q.J.J.T.N.j.h.k.R 1.7.j.T.N.j.j.,.f.M.Y.Y.M.k.h.j.f.7.h.H.E.L.z.l.g.l.H.R.R.R.W.E.4X5X=X5XeX5XY.M.j.j.k.H.E.Q.T.b.N.t. .P f c %.&XH.h.k.z.<.d.W.x.H.0X0XwXnX4X/.E.L.R./.4X/.4XwXE.R.H.R.R.R.H.L.R.M.R.W.8X8XR.Y.R.H.H.R.R.H.D.L./.^./.4X4X0XwXnXLXcX^.K.J.7XqXnXLXLXLXKX3X$.p - @ 1 W u.k.K.R.(.).6X~.(.).^.).^.R.0XxX/.R.D.F.^.!.R.!.!.!.).zX6XK.R.^.R.R.8XcXwXE./.8X0X/.E.^.4X0XqXqX0X)./.(./.^.E.R.W.eX-XM.j.E.L.E.=XN.v.u.O.c 7 f y.;XuX4X^.^.6X/.0XDXDX4X/.wXE.0XcXR.R.R.l.(.).(.).vXcX0XcXzXcX(.^./.0XDXcX6XR.K.!.(.^.!.!.R.F.F.R.^.^./.0X/./.E.K.D.R./.cX",
"cX/.^.0XqX~.D.Y.E.^.7X8XwX4X/.W./.4XwXcXwX4X4X0XmXcXxXqX0X/./.).^.!.K.^.zXxXxX6XJXHXmXzX^.^.6XxX^.R.R.W.4X4X^.R.R.D.D.E.wXcXwX0XiXMXnXqX9XiX8XY.D.R.4XnXHXHXwXR.K.7XmX0XG.K.(.!.hX).).zXvXJXcX0X(.0X`.).0XvXcX).R.cXmXvXFXFXmXDX0X0XDXzXxXxXFX;X*XU j Z ] Q A ] e.OXrXuXnXMXxX6X6XwXwX8XqXxX(.l.H.M.Y.5X9X4X=X5X9X9X9XE.H.L.E.W.4XqX4XE.E.W.W.W.uX8X4XR.H.k.x.H.L.E.J.x.x.h.x.qX8XY.H.Y.Q.8XqX4X0X4X-Xu.B 7 7 q O.j.M.iXGX=XE.6X7XqXmX^.E.c.R.R.E.E.R.H.H.x.x.x.M.M.j.f.1.) R R ,.5.7.j.T.M.w.N.Y.N.J.T.Y.k.j.M.h.k.z.d.7.h.x.x.l.c.D.D.D.H.L.H.J.M.M.E.5X8XW.Y.Y.Y.H.Y.W.4XW.T.N.N.i.a.W t 0 }.>XH.x.z.1.l.L.x.L.H./.L.R.4X/.0XE.4X4XW.E././.R.R.R.E.R.H.x.H.E.H.M.W.4X4X4XY.R.c.l.c.R./.E.R.K.E.R.E.8X0X8X0XcXK././.E.^.8X6XE.nXFXFXpX*X} q # @ 4 ' n.J.R.F.U.!.(.!.).).(.0X).).).!.R./.6X!.K.K.^.0X).R.!.6X0XwX^.^.4X^.R.6XwXE.E./.8X8X/./././././././.).6X6X/.E.R.=X5XY.k.Y.E.L.Y.Q.v.4.+. .v ; 0 y.<X9X4X8X/.wX4XE.4X4X0XnXwXwX/.^.0XE.D.^.^.).(./.zX^.!.zX).6X!.).xXzXmXwXcX^.K.^.).^.!.!.).!.K.!.R.F.K././.6X6X/./.6XqXqX",
"zX8X/.).`./.^.E.^./.4X0XwXcXwX0X4XwXcXcXwXwXxXxXcXqXR.6XxX0XxX).6X^.K.).0X).cXvXmXvXxXzXzXbXvXcX^.E.z.E.7XE.0X/.R.D.D.R.E.^.E.D.h.M.J.T.Q.Y.Y.4X/.D././.^.R.H.xX0XDXxX^.).lXlXbXNXhX).hXzX`.zXvXJXHXcX0XbXzX`.cXvXxXxXvXmXxX0X0XqXcXHXvXxXvXnXuXXX| v Z ' J I  .X.b.%X-XwXFXmX6XwXcXnXcXcXxX(./.R.x.z.L.Y.Y.=XnX8X8XY.k.Y.Y.Y.4X/.W.0X4XL.L.5XwX4XW.H.z.k.H.J.H.J.M.z.h.k.Y.Q.E.E.J.x.H.J.J.R.W.E.7X=XB.B 7 1 c e.;XR.E.9X=XR.0X6X7X^.W.W.E.R.L.H.H.H.D.z.7.1.1.,.,.,.,.,.<.1.w.k.x.Y.T.Z.b.v.M.j.j.j.j.j.j.f.1.z.x.f.j.Y.z.d.E.E.R.x.l.H.E.W.R.H.H.E.4XW.J.J.T.=XT.Y.E.Q.E.J.M.b.%Xn.t.B 0 0 $.%XY.E.W.H.j.L.4XR.R.W.8X8X4XE.R.E.R.R.4X0X4XW.R.R.E.R.H.D.H.H.H.W.W.4X8XwX8XE.L.l.D.z./.K.^.wXE.E./.0XwX0X4X4X4X4X4X4X4X7X7X4X4XW.H.=X9X@X/ 4 @ O 1  . XH.R.!.!.!.~.^.~.!.~.).6XK.).!.).6X(.0X(.!.).).^.(.0XqX8X8X^.c.R.E.R.8X^.H.Y.E.^././././.^.E.^.4X6X).).6X!.E.R.R.W.T.W.eXW.x.J.M.5.R 6.! q 7 k y.n.;X9X6XwX/.R.E././.W.W./.qXwX4X/./.8X8XR.^.^.^.).6X6X).!.zXxX(.!.6X0X/./.(.^.!.F.F.!.~.(.).).!.R.!.^.!.^.^.^.R.R.R.^./.",
"zX).).8X0X).)./.E./.7X4X6XqX0X4XqX4X^./.qXcXxX/.K.xXxXxX0X6XcX).6X6X(.zXzX6XvXJXzXxXcXvXmXvX6XR.K.6X7XE.6XnXHXwXL.R.qXcX^.c.g.2.7.,.R E :.7.j.x.wXcXqXg.2.R.L.l.g.R.^.!.lXzXvXHXbX)._.zXvXvXxXzX).zX0X0XJXvXbXvXzXzXxXvXmXmXnXcXcXcXvXbXzXxXwXQ.u.] B Z ' ' W | t.N.%X5XcXmXmXcX6XqXwX0X0X/.R.^.H.H.H.x.l.z.H.Q.Q.M.<.f.8XMXqX4X/.4X0X/.E.cXnX4XE.l.<.7.m.M.m.j.g.j.z.j.z.M.J.H.x.z.k.H.Y.Y.Y.R.R.7X=XB.c w 1 c 6.tX4XH.;XuX5X7XE.x.z.K.E.H.D.R.L.L.Y.H.k.h.7.7.h.j.M.T.W.-XW.W.W.Y.k.M.T.Z.j.8.j.k.k.j.k.x.x.z.f.W.L.g.H.R.H.R.H.H.E.0XwX4XE.Y.H.R.4X4X4XL.x.z.J.uXGXW.k.x.M.M.j.B.6.#.S 0 h &.2XiXMX9XW.W.4XR.8X8X8X4X4X4X/.R.H.x.H./.4X/.E./.E.E././.R.c.l.l.4XnXFXnXwXnXwXR.L.D.g.H.S.4XcXqX0XnXcXR.l.H.7X6X6XnXnX4X^.6X6XW.0XW.5X-Xa.W 2 # @ 2 @.OXQ./.(.(.).(.!.K.F.!.).zXzXzX^.).).^.0X0X6X!.!.6X0XE.E.8XR.E.H.Y.c.c.4X/.R.H.D.R.E.E.H.S./.R.R./.0X6X(.!.D.K.R.H.H.Q.GXIXW.h.M.T.b.R 6.! l ; f %.n.-X5X8XqXE.D.D.H.H.H.D.Y.qXcX4XR.E.^.R.6X/.!.!.).zXlX(.).(.~.!.(.(.^.R.R.R.K.R.F.F.P.(.~.!.K.!.(.6X).!.D.F.F.D.R.R.^./.",
"zX0XzXbXbXzX0X0X).6X6X7X4X4X6X4X4X4X/.^./.8X0X4XR.0X).(./.6XxX).zXJXbXvXbXzXJXvXDXvXvXvXJXDXzX!.).).xXcXmXFXDXHXIXmX6X0X7X^.R.D.<.7.7.,.,.7.x.Y.l.H.0XcXmXHXcXxXxXvXzXzXzX).P.I.hX).).zXvXJXvXzXvXvXcXbXvXbX).`.bXcXDXDXDXDXmXcXcXcXbXbXvXmXwXT.t.] V Z Q ] ] | u.C.&X-X6XcXxX6XxXcX0X4X/.D.G.F.4X0X4XR.R.4X4XE.W.W.L.E.qXiX9XwXnXnXcX4XE.7XW.d.m.m.f.7.7.f.f.f.<.f.k.k.k.x.M.H.x.k.x.H.L.L.Y.R.E.4X=Xn.B 7 1 z |.pX9XW.9X9XqXxXW.L.L.^.4X^.W.4Xx.H.H.Y.E.W.W.W.W.W.W.4XqXwXwXeXQ.Y.Y.M.M.k.j.j.f.h.h.g.l.D.H.H.l.4X/.c.H././.E./.H.D.L.L.D.L.4X6X4XE.D.c.D.H.H.j.j.H.Y.Y.J.J.=Xb.i.o...V 0 q &.;X9XeX9X5X5X=XH.H.4X4XH.l.M.L.H.H.D.L././.R.R./.wX4X4X4X/.R./.nX4XwXwXR.H.E.4XE.E.H.R.6X7XnX/.K./.wX0XD.g.c.K.R.^.wXcX4X^.8XqX4XE.R.8X;Xa.W 1 O @ 1  .OX=X0X).).).).(.(.).).).).0X6X(.0X6X!.(.(.R.!.!.!.^./.^.R.R.R.c.h.c.Y.4XY./.E.R.R.E.R.D.c.^.R.E././.!.K.F.F.P.K.H.W.W.T.Y.Y.h.j.M.b.8.A.t.b ; 0 #.n.%XQ.4XDX4Xx.d.d.h.z.D.D.R./.E.R.E.^.^.(.6XzX).!.~.hXzXxX~.R.~.(.R.U.!./.R.R.!.!.F.!.).U.F.F.!.).).(.^.qX8X/.^.^.^.~.R.",
"xXzXcXvXvXcXxXcXcXcXxXqX0X0X0X0X0XwXqX4X^./.8X0XcX0X).xXcXcXcXvXDXHXHXHXDXvXDXbXDXbXzX0XzXzX(.K.~.K.zXmXHXHXcXHX/.^.xXFXcXE.L.H.Y.&X9XQ.M.Y.4X8XDX0XcXHXvX^.^.mXzX).^.zXHXNXzX).).zXbXzXkXzXcXcXJXJXcXzXzXzXzXcXcXDXHXDXnXnXcXcXcXcXbXvXvXmXcX&Xi.| S B Z ] [ ..O.C.;X=X7XnXvX7XmXnX0X0X6XK.F.R.cXcX0X4XwXFXnX4X8XnXnXwX4XE.E.4X/./.4X4XE.H.x.H.z.T.T.f.7.j.m.f.j.k.J.Y.J.J.Y.Y.E.Y.H.H.H.L.R.E.4X8X4X XS w 1 z n.uX=XE.-X=X7X5XL.W.^.K.R.7XW.L.L.H.H.H.Y.Y.H.H.4X4X/.4X4X8X/./.Q.R.R.Y.H.x.M.L.d.g.g.g.l.H.R.E.E.4X/.^./.^.^.0X4XW./.0X0XE.R.E.K.R.R.H.H.Y.H.z.M.9.<.J.Q.M.j.M.N.i.|  .B 7 w *.&XM.M.W.W.Y.Y.Y.8X8X4XH.x.x.c.g.R.E.W./././.W.W.W.4X8XnXwXE.H.R.4XW.R.D.x.H./.wXcX6X0X6X/.cXR.R.E.R.H.R.R.R.H.K.4X/.7X0X6X6XqXnX6XW.Q.f.^ V 3 # O - ~ n.Q.6X).(.(.^.(.6XzXzX0X).^.(.(.(.(.^.^.R.K.).6X^.R.E.R.D.E.x.d.d.z.Y.W.x.E.4X0X4XR.D.H.R.R.^./.^.K.F.F.!.G.7X0XE.H.M.Y.4XD.L.Y.j.v.N.2Xy.b ; 0 ..t.b.M.W.4X/.E.E.Y.Y.D.x.R.c.l.H.^././.0X!.).xX).!.P.).bXzX).).).!.F.U.).0X(.!.).(.R.!.`.F.F.(.).~.F.R.).(.~.R.R.R.^.^.~.",
"zXxXbXvXbXzXzXxXvXvXnXcXcXwXwXcXcXxX0X4X8XxXxX0X0X0XvXHXDXzX0XbX0XvXxXcXcXbXcX`.bXbXcXvXcX).R.G.g.F.zX6XbXLXmXzXvXF.2.l.L./.0XqXiX-XN.f.7.J.8X4XnXnX0X).^.).xXmXvX6X).lXbXzXhXP.hXbXbX).~.).0X0XvXvXcXzX).).0XbX0XcXcXcXcXcXcXcXcXbXbXbXhX).8XQ.A.] V B Z Q }  .+.u.T.=X4XxXmXmXcXcX/.6XxX/.6X6X/././.4XwXcXwX4X8X4X4X4XW.W.E.L.l.L.E.4X^.L.H.W.H.J.M.m.J.=X=XN.&XW.Q.T.T.T.E.Q.W.E.Y.L.R.E.E.E.4X8X4XOXA 8 1 z t.pXiXY.T.-X5X^.H.Q.W.L.H.E.Y.z.Y.H.x.x.D.H.D.D.L.!.6XxXzX0X/.).qX^.R.E././.R.L.S.L.H.L.K.^.6X0X6X/.^.6X6XR.R.0X/.4X6X8X0X4XR.c.c.D.H.D.H.E.K.x.d.M.Q.J.m.k.k.j.q.8.^ ! j 7 q }.;Xk.h.M.M.M.Y.E.iX=XL.W.qXwXW.x.H./.4XE./.wXwX/.D.R./.4X0X4XR.D.D.D.H.R.E.W./.4X0X6X0X7XR.qXR./.8XE.H.E./.4X6XwX0X4X7X0XwXqXqXcXqX4XE.8.^ H 9 $ O @ A p.J./.(.).).^.R.R.^.).6X6X/.6X/.H.K.6XqX0X8X4X0XwX/.D.S.R.D.h.z.k.h.j.M.Y.H.E.4X/.R.D.H.R.^.^.R.K.F.K.^.7X6X(.D.S./.0XE.D.x.4XwXY.N.b.n.! l 1 0 [ O.q.k.H.R.E.E.Y.Y.Y.Q./.Y.H.D.H.R.E.^.^.).).^.~.(.hXhX).).`.0X).!.R.!.8X/.R.R.!.!.F.U.~.R.R./.).R.D.R./.~.~.~.R.R.R.R.W.",
"zXzXzXbXxX0X6X6XzXxXcXnXcXwXwXcX4X0XwX0X0XqXcXcX0XzXcXzXzXvXzX6X).0X).bXvXcXvXbXvXvXJXJXvX0X!.F.F.!.lXlXbXmXzX(.^.6XmXcXK.S./.cXE.7.<.R R f.4XwX0XcXxXxXvXxXlXP.F.F.(.).(.hXbXbXbXbXxXzXxXbX0X~.0X`.bXbX(.~.).~.8X).).0X8X/.4X8X8X`.kXkX_.(.8X-XA.U B Z Z ' } ] 6.4.8.T.E.S.^.vX0XnX^.4XxX6XzX6X^./.0XcX0X/./.0X6XE.E.4X4X8X8XE.D./.7XW.7X7XL.k.T.M.H.-X-XT.&XuX9X-XT.T.Q.T.R.Y.J.Y.E.E.W./.E.R./.4X=X XA 8 1 l s.uXiX9X-X=X7X^.L.H.H.E.W.H.x.H.z.l.l.z.x.H.Y.R.^.).zXxXxXzXxXxX0X)./././.!.K.K.!./.)./.).6X0XzX6X).).).^.^.^./.4XE.c.<.<.l.c.c.H.H.x.c.D.L.R.Y.<.k.Y.Y.m.j.M.T.8.u.| ~ f t q }.C.k.h.d.f.J.=XQ.Y.Y.Q.9XwXqX8X8XR.4X4XR.E.wX8XW.R.R.R.R./.wXcXwXL././.R.R.4X^.S.R.4X6X/.R.^.D./.4XwXqX/./.0XwXqX/.6X4X7X8XnXnX6X7X7X7XJ.t.Q > O @ # H p.J.^.(.).).(.!.!.(.)./.(.(./.0XR.E.wX0X6XR.^././.E.H.Y.E.Y.d.z.k.j.j.j.J.H.H.R.R.R.R.H.H./.R.D.D.!.6X0X6X^.lX6XE.R.H.c.x.D./.0XQ.N.) 5.! h 1 0 [ O.q.j.m.Y.E.T.M.z.z.H.Y.h.W.0XR.D.R.!.D.(.).).(.).).hX).).).).~.!./.).R.R.U.R.R.!.R.].!.(.~.!.^.^.R.~.^.qXqX0X/.R.R.R.E.",
"zXkXhXzXzX`.).).6X0XcXnXcX4X/.7XR.6XcXxX8X8XxXvXHXcXvX0XxXHXvXbXcXcXcXDXDXcXDXDXcX0X).8X0X8X/.(.xXlXlXvXvX).).).zXxXvXvX6X).!.c.h.,.7.j.1.h./.0XE.^.!.xXxX!.).).K.P.).).!.hXNXbXbXbXbXbXJXvXzX).F.D.~.zX0XbXcX0X8X!.R.)./.^.^.8X`.~.).kXkXzXqX-X*X` B A A ' } ] 6.6.j.J.L.g.S.).6XFX0X0X0X^.zX/.6X0XcXmXcX6X0XwX0X4XwXwX/./.4XR.S.^.4X4XqX5XL.l.m.J.=X=XM.j.J.9X=XT.M.Y.T.Y.Y.J.H.Y.E.W././.E.H.R.R.M.n.H q 4 l t.M.J.9X;Xv.z.z.f.7.f.J.J.j.h.M.x.x.z.h.g.g.g.l.zXlXzXzXzXzXxXcX(.0XzX0X!.F.K./.).6XxXzX6X6X6X).6X6X6X).(.6XlX/.^.Y.c.g.g.g.l.x.c.D.K.^./.R.L.x.J.j.g.x.x.f.f.j.8.i. .P f t q &.b.M.k.j.h.J.W.Q.E.9XiX9XW.Y.R.W.R.E.E.E.E.^./././.7X0XwXwX4XR.H.0XcXwX/.W.0X0XE.4XnX^.R.S.H.R.wX4XwXcX0X0XwX0X^.^.7X6X4XqXnXnX6XqX4X4XN.#.H 2 @ @ # H B.J.^.^.).(.(./.6X0X0X).^.E.R.0X0X0X8XH.R.l.H.R.D.H./.4XE.W.z.k.j.j.Z.k.M.E.R.R.R.E.R.H.D.R.R.K.H.!./.)./.bXlXF.D.^.4X4X0XR.4X4XR.J.9.u.t.z 1 0 $.u.v.j.x.z.Y.W.-XE.H.h.<.c.W.0X4XR.R.R.D.F.^.zX).~.!._.).~.).).(.^.).^.R.R.R.~.~.~.(.~.R.^.^.^.~.^././.W.~.R.R.R.R.R.W./.",
"xXkX).kXzXzX).).6X0XxXvXxX^.K.K.(./.).0XcXcXwX/.0X/.mXmXzX).^.mX0X0X).zX).F.!./.0X(.~.`.vXvXcXxX6XHXbXbXzXlXNXzXbXzX6X^.!.6XzX^.E.7.j.E.L.H.H.l.^.xXvXHXzXG.!.(.(._.).).(.bXHXzXhXhXzXbXcXxXxXcX).U.~.bXbXcXJX`.(.F.F.(.0X).8XcXcX)._.kXzXxX8XT.CX .B A Z J .. .| B.-X=XW.7X6X)./.HXcXwX0X^.cX).6X6X6XxXmXmXxX6XcX4X0X0XR.H.D.2.K./.4XwXcXL.<.d.7.m.M.7.9.m.N.f.j.j.j.M.Y.T.Y.Y.E.Q.Q.R.R.E.E.H.H.H.m.B.W l 7 z O.N.T.-X;XT.H.<.<.7.j.k.x.x.k.x.L.H.H.D.D.H.R.^.).).).zXbXbXzX).bXzXlXlX).(.(.).).zXvXxXzX).(.^.bX).).zXzXzXxXzX7XR.L.L.D.l.c.E.E.H.H.K.R.L.H.R.x.m.g.,.<.m.M.5.8.p. .A 0 7 p &.;XT.Q.5XT.M.Y.W.x.L.H.x.H.E.Y.z.D.D.H.^.W.R./.cXcX8XwXnXcX4XW.4XL.R./.0XwX8X0X0XH.nX7XwX6X/./.6XDX8X^.qXnXcX6X4XxX0XxXnXnX5X6XqXE.J.=X%Xe.G - O O @ H p.H.K.R.^.)./.^.^.(.).0X0X0XR.6X0X4XE.l.R.R.D.c.L.E.E.E.W.E.Y.8XM.7.M.N.Q.Y.W.4X/.R.D.D.H.G.R./.!.D.F.F.!.F.P.^.).6XR.D.R.R.mXFX8X9X%X:Xa.Z 1 0 s.n.v.f.k.E.E.H.D.D.Q.E.E.wXE.E.0XqXR.F.F.G.F.!.~.(.)._.!.!.).zX0X~.R.R.).R.).).(.(.).(.U.R./.0X/.^./././.8X^.R.H.Y.H.Y.H.",
").).`.`.`.0XzXbX0X0XzXxXvXvXzX6XzX6X0X6X6XxXxX/.6XwXcXxXzXxXxXxXvXcXzX).K.F.K.R.K.F.!.).zXvXvXzXbXbXbXbXNXvXvXbXzXbXlX(.(.^.(./.K.l.g.L.4X0X^.S.R.zXvXlX!.F.F.P.hXlXzXhXhXbXbXhX_.hXJXHXbXzXvXDX'.U.R.'.cXcX`.zX`.~.~.).bXvXvXbXqX~.`.`.zX0XR.T.2X .B V Z [ @.! X.&X&X=XW.4XmX).xXxXcXcXxX6X6XzX6XwXcXwX8X8X8X6X6X0XwX4XR.c.z.z.H./.wX0X/.E.x.d.j.J.J.j.f.f.8.8.,.8.q.q.j.M.m.f.J.M.J.E.Y.x.x.H.H.J.v.u.! g j f  .2XN.N.=XM.H.7.7.j.m.m.x.x.H.H.D.E.E.D.H././.K.6X).0XbXxX(._.zXhXzXzXhX_.!._.).).lXbXbXbXbXhXP.bXbXbXbXbXbX0X!.H.8X8XH.z.R./.K.^./.S.P.K.z.L.H.m.j.j.<.g.H.f.9.u.y.@.V 0 1 q *.A.5X5XQ.E.R.L.L.D.D.H.H.Y.R.J.H.D./.E.D.R.R.R.4X4XnXFXnX/.H.R.4XE.W.H./.0X0XnX0X/.R.0XcX/.4XxX/.6X0XzXwX0X6X6X7XcX^./.qX6X7X0X6X7XL.E.N.#.H 2 . O - A u.=XE.K.).zX6X).6X6X7X).6X6X/.6X0X/.S.c.L.Y.H.H.L.L.L.R.^.W.4X=Xg.f.J.M.T.J.J.J.H.L.L.L.F.!.!.F.^.F.^.D.F.G.(.zX6X(.).).^.xXcX0X9X5X%X Xp.W 7 f t.A.b.&X4XH.R.(.^.!.^.^.^.0X/.^.^.(.^.!.!.K.!.(.).).(.!.!.!.).zXzX~.!.~.).~.!.!.~.).`.).).~.~.0XqX).^.(.!.^.R.^.R.l.l.S.S.",
"bXzX0X0XzXzXzX0XzXzXbXDXHXNXxX6XxXzX6X^.R.4X0X/.E.4XwXqX0X0XxXxXcXvXmXxX6XE.D.z.E.6XvXmXzXzXzX).lXzXbXvXvXvXvXvXlX).K.G.(.bX).g.D.K.W.8XFXHXvX^.^.6XzXlX(.).zXbXzXNXHXHXNXzXhXhXzX).zXcXvXDXDXbXbX).bX0XR.R.).cXbXbXbXzXzXkX).~.wX0XJX`.~.^.E.tX*XI k Z A ' @.! O.n.-X9XwX6XcXzXcXcXDXDXvXcXbXxXcXnXGXcX0X4X/.^.6X/.^.E.W.W.W.E.8X8X8X4X/.R.Y.Y.H.=XJ.m.-XrXm.E T ) 6.b.v.8.8.v.7.j.j.j.z.z.z.h.L.J.N.p. .B k f ~ #XOX%X;XY.=XY.Q.E.E.J.R.R.H.l.D.K./.4X4X/.E.R.^.8X0X~.!.).lX).NXNXvXxXhX).).).6X/.6XbXlXP.I._.(.zXbXcXzX).!.H.T.C.Y.E.K.S.D.K.^.L.d.z.L.m.H.f.M.k.J.J.H.m.f.v.u.#.[ v 7 ; 9 @.u.M.m.f.z.x.H.K.^.^.E.R.x.z.z.M.Y.4X/.H.H.D.D.E.H.E./.E.R.R.E.4X/.4XR././.E./.R.R.E.wXxX^.6XcX/.0X0XzX0X0X0X6X6XcX^./.6X/./.0X0X4XH.E.N.o.H 2 O O - W |.=X^.R.)./.!.K.^.7X6X6X6X6X^.R.^.^.E.L.L.J.J.Y.Y.L.H.L.R.L.4X4XH.H.=XM.f.j.j.m.x.z.S.L.K.G.P.P.^.G.L.S.H.).6X6X6XzXxX).R.!.xX6XQ.N. X;X@XP 0 k oX*XC.-X-X0XzX0X).(.0XcXvXxX).!.!.).).6X6X!.!.(.(.(.^.!.!.(.hXzXzX_.~.~.).~.!.R.!.(.).).(.(.(.0XbX`.`.8X)./.E.E.R.S.z.S.l.",
"qXcXcXbX0X`.0XbX0XzXxXvXmXvXxX6X!./.xXcX0X8X/.H.Y./.0X0X0X0XxXxX0X0XwXwXwXqX6X/.4X/.4X4X).0XzX).^.).zXzX6X).).).^.^.!.R.).xXzX!.^.wXFXLXLXHXDXDXvXmXbXzXzXzXxXxXHXHXNX(.P._.xXvXvXbXvXJXvXvXvXzXDX0XbX).U.~.`.cXcXvXJXJXbXzX`.`.0X'.bXkX).).E.;X:XY k Z W ~  . .O.B.uXMXnXnXzXcXcXDXDXDXmXDXmXcXHXLXLXHXmXcXzX0XqX6X/.W./.4X8X4X8XW.W.8X4XY.x.M.f.J.T.N.T.J.4.E X.9.b.C.M.8.j.N.k.N.J.x.x.Y.E.L.E.H.N.u.o.W f 0 A {.u.i.N.v.Y.Y.R.W.W.W.W.4X/.E.H.H.E.0X/.H.D.R.R.8X0X~.!.zXbXzXzXkX).~.!.!.!.^.E.E.7XcXxX/.6XmXK./.0X0X/.R.Y.Y.C.w.j.N.J.l.g.S.E.L.<.<.j.m.J.v.7.M.Y.g.d.M.v.8.t.@.Q y 7 1 q *.t.v.j.m.Y.J.H.R./.E.E.H.z.d.x.E.Y.W.E.Y.H.z.D./.wX8XW./.8X0XqX0XE.W.E.4X8X4X0X4XR.E.4X/.E.cXnX/.8X8X8X8X8X0X0X0XcX4X0XcXxXwXcXcX4XH.Y.N.O.H 3 @ @ - [ @X=X^.^./.0X/.^.^././.^.^.^.R.L.H.R.E.E.E.H.Y.Q.Q.Y.H.H.R.W.R.E.Y.Q.&XM.j.9.8.j.j.l.z.K.^.!.).7X6X^./.E.W./.^.^.).bXcX0X!.R.wX4XJ.J.;X2Xp.Q 0 0 %.s.b.T.8XW.'.8X/.)./.)./.0X!.F.R.(.6X).).).).(.(.^.^._._.).`.`.`._.~.~.).~.~.~.~.).`.`.).^.~.`.`.~.R.W.R.^.R.R.R.D.H.L.c.",
"8X8X'.8X8XqXqXqXqX0X0X0XzXzXzX0X4X6XwX0XW.4XeX4XE.W.8X8XqXwXwXqX/././.4X0XcXwX0XnXwX6X/.).0X0X~.0XxXxXxX6X/.!.^.F.D.R.6X).!./.cXmXcXDXLXHXDXJXHX8X0XzXcXvXvXvXxXbXHXvX).).DXHXbXJXJXHXHXbXzXbXbXzX(.`.R.F.(.).(.0XxXvXvXcXxXbXbX0X`.zXbXvXvX0X;X2X..N B S ' ..o.X.N.SXiXcXHXcXbXbXDXDXvXvXDXvXzXcXmXDXmXvXvXcXcX0XxXwX0X/.W.4X8XE.Q.R.W./.Y.M.k.f.k.m.m.f.R E R q.C.-XT.v.m.M.M.Y.M.x.j.z.H.Y.R.E.H.%Xu. .H 0 0 Q &.t.n.%XT.Y.k.J.7X8X4XL.L.K.E./.H.D.H.D.l.c.E.R.W.`.qXqXzXzX0X(.~.R.U.R.R.R.R.R.4X5XY.S.H.L.L.L.J.H.J.Y.T.T.C.q.w.8.9.h.M.M.l.<.x.H.E.5X5X;X%XM.Z.J.7.g.=X%Xv.t...J y 7 1 q *.n.N.M.T.=XQ.Y.W.W.L.x.D.k.z.Y.8X8X8X8X8X4X/.8XnXnX0XW.E.W.W.W.W.8X8X4X8X0X8X/.E.H.R.4XE.H./.wX0XwXqX0X0X0XqXwXwX4X/.0XcXcXwXwXwX/.H.R.N.e.W 9 # @ - } <X=XE./.^.R.R.E.^.7X4X0XqX4XqX8X/.E./.4X0XH.H.Y.Y.L.H.R.W.cXL.E.8X5XT.j.b.5.5.7.j.l.x.K.^././.^././.4XR.D.H.Y.W././././.8X8XnX4XJ.C.%XC.U V q h }.oX@XZ.T.W.0XcXcXbX0X/.~.R.K.F.!././.(.(.0X).(.^.~.^.(.).`.).).).~.).).^.).~.~./.).).)./././.`.`.^.W./.W.R.H.R.E.E.W./.E.",
"0XW.Y.~.qXcXqX/.qX8X6X6X6X6X6X0X4X4X0X4XE.W.8X8X4X4X8X8XqXcXwX/./.4X4X4X4X/.Y.z.c.R.0XqX/./.0X`.zXqXqX6X).^.R.D.).R.R.8XcX0X0XcXDXqX).qXDXHXDXcX(./.0XxXbX0X`.).).xXmXmXDXDXvX0XJXzXzXzXbXvXvXkX^.6XDXxX(.6X).).zXzXzXzX0X0X6X).`.`.kXhX).).0X9X>Xt.S j S  .#.| X.B.VXuXqXmXzXzX0XcXcXbXxXvXxX).6XzXxXxXbXvXmXvX0XwXcXcXqX8X4X8XQ.Q.Q.Y.Y.=X=XE.Q.M.f.f.m.f.7.f.T.-X%XM.j.j.k.k.M.h.7.h.z.l.x.L.L.J.rXn.! Z 0 z v ' t.@X2X%XM.g.L.^.4XE.H.L.E./.8X^.Y.D.D.H.Y.Y.D.R./.8X8X0X).(.).(.R.R.R.R.R.Y.J.%XT.m.z.M.M.k.N.w.1.8.n.C.Z.i.+.5.) _ 9.T.W.M.Y.-X9X9X9X9X&XC.T.j.k.T.Q.J.v.OXa.@.H y 7 - 8 } XXN.j.j.Y.Y.Q.qX4XY.c.x.Q.T.W./.wX8X8X8X0X0XqXqXW.E.Y.Y.H.D.H.E.8XW.W.8XwXwXW.Q.c.R.8X/.c.l./.DXDXcXcXwXcXcXcXcX0X0X0XwXwX0X0XqXE.D.R.N.e.W 9 @ @ # [ *XJ.E./.R.D.R././././.4X0X0XcXwX4XR.R.E.R.Y.H.c.x.D.H.R./.8XR.qXMX9XT.j.w.j.8.9.w.k.H.L.R./././.W.^.W.Y.c.Y.Q./.8X/.R.^.0X/.nXwX;XN.v.u.| h 8 y &.#X+XC.Z.W.4X/./.^.!.R.K.R.R.!.(.(.!.!.(.`.).~.!.!.!.~.~.`.).~.~.).).).^.~.~.R.R.R.R.R.R.U.U.R.W.R./.8X/.R.R./.8XW.4X8X4X",
"/.'.8X8X`.8X0XqX).).6X6X).).).(.^.E.8X0X/.W.W.E.8X8X4X4X0X0X4XE.6X6X/.E.E.W.R.D.h.c.Y.R.R.!.`.).~.R.R.R.!.R.F.F.qXzX8X(.8XcXcX).).vXvX).).cXvX0XcXcXzX0X/.!.R.~.qX6X0XxX^.G.U.bX`._.).kX).kXkX).!.!.bXbXxXDXcXzXbXzX6X).6X)./.(.).`._._.jX_.).Y.C.t.I N A @.O.U +.u.9XiX0X/.(.bX`.0X0X0XzXcXzX(.zXxXxXzXxXvXmXvXcXxXwXwXcXwX4XT.Y.Q.Q.Y.Y.Q.Y.k.Y.T.k.f.J.5X5X-X5XT.m.j.j.7.f.m.M.7.d.H.E.H.x.K.^.E.&Xn.@.' z y y Z ..s.8.9.7.g.L.K.K.K.^.6X0X0X8X8X4X/.8X8XW.D.D.^./.R.R.8X8XR.^.^.~.E.Q.Q.Q.M.N.v.v.N.%X=X-X;Xv.X.R ) q.i.0._ _ _ _ ) w.T.&X=X=XT.Q.T.T.C.q.9.w.w.T.-XT.j.9.6.%.[ Z y 7 > 8 } i.N.b.M.Q.-X8XiX8XE.D.H.W.eX8X/.4XE.W./.4XqXwX/.E.W.4X4X/.E.4XwX8XW.eXqXGXDXwX0XW.R.W./.W.R.8XDXcXcXwXwXcXcXcXwXcXcXqX/.'././.0XR.x.Y.M.O.H 3 @ O # W n.J.E.E.H./.4X8X4XE.R.E.W././.E.R.E./.R.D.E.H.z.z.x.D.H.R.H.Y.qX8XY.-X&XM.N.w.9.j.Y.Q.E.R.E.0XnX8X/.R./.W.Q.Q.W.~.R.~././.R.0XqXMXiX&Xv.^ y 1 1 J .XoXOX%X&X8XqXcXzX0X).R.!.R.!.R.U.F.R.(.).).(.~.~.~._.~.).).~.~.).).)./.~.~.R.R.R.R.Y.Y.c.l.c.D.D.Y.~.R.E.R././.E.E.W.E.",
").bXJXcX).^.0XvX6X6X6X).).).).).zX)./.^.R.^.0XqX8XqX8X8X).).(.!.).).^.K.R.8XwX0XcX8X^.U.G.F.F.[.F.U.R.!.~.(.(.).!.`.`.U.F.~.).~.).JXHXbX~.~.`.`.zX`.).).).~.~./.8X8X8X6XD.3.G.).!.!.).hX_._.hXhXI.[.F.P._.zX).~.bXzX0X).6X6X).(.zXbX_.kXNXbXzXH.Z.O.S N W @.O.| +.B.;XiX0XR.(.zX).).(.`.zXxXzX).).).).(.).6X0X6XvXcX0X0X0X8XW.J.Y.T.W.T.Y.k.f.1.H.W.L.j.H.4XnXnX5XM.f.f.j.j.k.J.m.f.d.x.R.L.H.L.7X7Xm.n.}.@.m 1 b Z  .e.4.:.g.J.6X6X^.!.^.).)./.6X0X0X8X8X8X^.Y.^././.R.R./.6X^.^.^./.4X/.W.Q.Y.M.j.8.j.v.j.q.v.5.R R T T T T T ) ) 5.j.C.Q.=X8X,.,.M.T.%XN.9.) j.T.9X=XY.Y.j.6.o.! S h 8 1 8 *.n.-X;X9XuXiXqXwX4X/.E.R.W.0X0X/.W.W.'.8X8XcXcXW.^.W./.8X'./.8XcXDXwXDXcXwXcX/./.8X/.R.^.cXcXcXcXqX0XqXqXcXcXqX8X8XqX/.R.^.R.R.'.E.c.L.v.o.H 3 @ @ # V e.N.W.K.H.H.Y.R.Y.Y.W.8X0X4X/././.0XqX8X/.^.R.D.D.D.D.H.Y.x.h.W.E.x.W.9X-XN.8.1.j.W.W.W.E.c.E.wXW.R.D.^./.W.W.R.Y.U.~./.^.R.R.Y.9XSXuXN.Y q > 7 Z oXoX+Xn.j.L.^.).6X).!.F.!.R.!.!.F.F.F.R.).).).(.(.(._.~.~.~.!.!.~.~.).^.~.~.~.R.R.R.R.R.~.U.U.R.U.R.~.R.W.R.R.E.Y.R.R.H.",
"vXzX`.0XbXbXzX).vXbXzX).).).zXxX).(.0XxX0XzXbXzX`.zXbX0X(.(.(.^.K.^.).^.).0X0X/.^.(.).!.[.3.[.3.[.G.F.U.U.!.(.kX).).).~._.).zXbXHXkX).bXvX)._.kXzX).~.!.R.F.G.G.E.4XE.d.,.l.R.!.~.F.F._.kXNXNXhXhX!.hX_.F.].!.).xXxX0X`.).(.~.!.!.0X_._._.P.).W.OXO.D N W ....O.X.&X9XuX4XE.zX).(.R.R./.zXzXzXzX).).).^.(.6XzX0X0X0X0X4XW.E.E.Q.T.Z.M.M.k.f.h.k.=XW.H.k.L.W.8XnXJ.M.j.<.d.H.R.J.Y.M.j.z.H.Y.Y.L.F.7XE.OXy.J m 7 z v  .s.B.m.L.7X^.).).^.!.).0XxX0X/.^.R.Y.Y.R.W.8XE.R./.).R.R./.R.R.R.R.Y.z.w.1.:.9.9.R ,.8.8.X.R T T Y D N Y X.5.b.T.-X9XeX9X8X5XW.5XJ.f.9.:.j.;XT.Q.Y.Y.Y.m.B.e. .W c w - 1 } *XtXuX9XeX9X9X9X4XqX8XR.R.^./.R.R.R././.R.8X/.c.R.Y.R.^.'./.qXcX/./.cX8X/./.Y./.D./.8X).8XqXzXcXqXqXqXcXvXcXcXqX0XcXcXqXcXcX0XcX/.D.H.j.o.H 9 $ @ # c  .N.=XJ.H.Y.H.z.h.z.Y.E.E.4X4X0X6X^.R.R.^.R.R.!.^.R.K.K.R.H.<.Y.0XE.H.H.Y.j.,.,.h.Y.E.R.Y.c.D.'.R.^.R.8X/.8XwX0XY.c.U.R.R.R.R.z.k.J.N.v.U b > - 1 =.%.OXn.J.Y.R.R.^.).).).!.!.~.(.~.R.F.F.!.~._._._.!.!.].].U.U.R.R.!.~.~.R.R.R.R.R.R.R.R.R.U.U.U.D.R.~.R.^.R.R.E.E.4X/.R.",
").!.!.~.(.(.(.).hXzXzX)._.(.hX).).hXzX).).).).zX).zX).!.(.bXbX(.~.!.~./.6X7X^.!.!.!.F.G.G.!.!.I.F.R.!.U.!.(.zXzX).).hX).kXbXzX).bX_._.kXzX~.!._.F.!.!.U.F.U.F.S.d.7.h.1.h.H.R./.0X(.~.hXNXJXbXjXkXbXbXbXhX_._.).bXbXbXzXzXzX`.~.R.F.F._.hX)./.Q.OXo.S B A ..O.U O.OX>X9XE.^.HXbXcXDXHXcX/.(.zXbX).zXxX).~.zXvXxX/.xXxXW.R.E.Y.j.k.M.M.M.Y.j.h.Y.GXeX4X8XwXcXwX8XE.W.W.Q.Q.W.=XQ.J.H.j.7.g.M.H.x.G.K.=X:XoX@.z w 0 V  .*X9.J.7X0X6XlXlXlX).^.^.7X0XcXcX/.S.c.H.E./.E.^.E.K.E.!.D.l.2.<.1.1.:.,.7.9.7.9.9.f.M.j.4.E Y Y E D T u.OXC.%X;X9X;XJ.M.J.H.m.f.d.d.f.m.m.5.q.M.M.j.M.N.b.t.%.H c h ; 7 @.;X%XJ.J.Q.Q.Y.H.H.W.0X/.E./.6X).!.D.F./.cX^.G.l./.H.D.4XcXcX0X0XS.U./.cXqX/.^.).0X`.bX`.).).(.zXzXzXzXzXcXcXcXcXzXcXcXcXcXcXcXqX8XY.j.q.o.V 2 + . > 7 P 8.j.T.Z.M.z.h.j.c.x.D.H.R.E.R.^.6X/.K.D.K.!.F.!./.H.D.H.R.H.0XD.R.l.E.H.1.<.7.x.J.Q.W.Y.D.l.R.0X8X).).!.R.W.^.R.F.U.R.R.^.D.R.H.f.N.-Xt.K - ; 7 j ! u.Z.T.Y.H./.zX).!.).R.~.).).).(._.!.!.!.!._._.!.P.F.~.~.!.!.!.!.!.R.R.R.R.U.F.F.D.D.U.U.R.R.R.R.R.R.R.E.^.R.^.6X6XR.",
"(.R.F.K.^.).6X6X6XzXzX6X(.(.6X6XlXlXzXlX).).).hXxXbXbXzXzXzX(.K.6X).7X6X/.K.F.S.K.F.F.!.~.~._._.vXvXvXzX0X6X).(.)._.).bXvX).I.F.!.).).(.!.~.).(.).R.l.3.F.~.(.R.k.7.j.z.x.L.Y.0X).vXJXzX_.).zXbXbXvXJXvXbX`.).).`.`.zX0X0X0X`./.E.R.!.^.)./.E.N.0.] S V Z ] ..| T i.;X5XL.K.0X^.cXcXqX8XwXcXvXxXR.K.!./.).zXxX6X/.qXwX4X4X4XT.k.h.7.j.Y.Q.M.M.-XiXnXGXwX4XY.E.0X4XW.E.R.Y.Y.J.L.g.f.j.j.M.N.M.z.S.S.f.6.#.' z q h c ! @XN.uXFXFXnXxXqXxXmXcX6X7X^.7X/.Y.H.R.W.4XR.R.E.K.c.z.l.2.D.z.l.x.k.7.,.R T.=XE.M.m.v.v.8.T _ X.O.t.|.OXOXC.%X;X;XM.9.7.m.J.m.j.f.9.9.8.8.q.q.q.8.9.8.v.6.o...S h h ; 1 [ OXM.m.T.9XiX-XM.j.H.R.Y.R./.).).K.K.^.6X6XK.S.R.6X7X4X6X^.D.D.K.4X/.W.E././.8XwXDX0X8X(.).zX/.)./.(.).).0XzXzX0XbXzX0X0XcXvXbX/.8XW.N.u.#.J a $ . # 7 A 6.8.n.b.j.h.j.M.M.x.D.H.2.l.z.D.E./.E./.R.^.F.L.R.L.R.H.Y.H./.H.^.R./.l.x.k.J.Y.M.j.j.d.D.D.R.R.F.`.vXzXR.F.U.`.).F.G.F.R.D.Y.J.v.%X2XXXK > 1 7 Z  .u.u.8.k.D.R.6X6X7X6X(.R.F.F.(.zXxXzX~.~.~.~.!.!.F.G.G.G.F.F.!.!.!.!.R.R.R.R.R.K.F.F.D.U.R.R.R.R.R.R.F.R.^.4X7X/.^.R.",
"c.g.d.d.c.K.E.E.K.^.E.K.L.L.K.P.^.^.^.^.^.^.^.^.!.!.).zXxX6X6X7X6X7X7X8X7XS.x.L.L.H.R.4X6XR.R.R.L.H.H.H.R.^./.^.^.F.G.!.).^.!.!.F.R.^.R.R.W./.^.R.R.R.H.H.R.R.H.N.,.,.7.f.f.z.8XnXHXHXzX).xXxX0X).`.bXvXcXbX0X8X'.0X0X0X/./.W.R.Y.W./.^.^.E.J.u.| A V B Z W [ ! | u.>X;XY./.qXqXDXcX8X/.4X6X!.S.R.c.S.^.0XxXzX6X^././.4X0X8X4XQ.Y.h.7.7.7.j.W.eXY.Y.T.W.4X4X0XwX4XY.H.Y.Y.Y.Y.Q.=XY.M.m.j.f.f.f.L.S.8.6.#.Q l w 0 j #.<X<XrXKXKXuX9X5XuXnX9X=XJ.z.z.j.j.N.T.Y.N.M.z.z.l.g.m.R.J.W.R.L.H.M.m.v.j.J.=X=Xv.9.) ^ ^ n.XX*X+XXXs.i.|.n.n.i.u.8.X.4.4.8.9.4.4.4.9.8.8.t.O.X.T T 4.5.T  ...Z c l ; ; H s.N.%X;X9X>X-XT.-X&XQ.E.R.R.R.L.^.5XwXqX0X^.E.6XH.^.4X7XE.K.^.4X4XW.E.W.4X8X0X/.W.H.H.D.R./.R.H.K.K.R.^./.4X).7XcXcXxXxXcXmXcX0X-XT.b.6. .G < . . @ ; B | 6.u.6.b.M.M.k.j.j.j.m.k.J.M.m.H.H.M.L./.qXE.x.c.l.H.x.g.l.L.L.E.^.E.l.M.m.J.J.m.m.M.k.<.h.L.R.K.^.(.F.!.(.).^.^.^.!.F.R.Y.=X-XN.OX:X}.( 3 4 w ' }.XXu.b.N.M.k.J.R.Y.R./.R.F.R.^.).^.K.(.).(.!.~.(.!.F.G.G.F.K.R.R.R.K.F.K.R.R.R.K.D.D.S.S.D.D.F.D.D.L.^.E.E.^.E.K.E.7X",
"j.v.j.q.j.J.T.J.J.J.J.J.J.J.J.E.=X=X=X4X4X7X4X7X7X7X4X4X4X4X4X-X=XT.T.%XN.8.8.N.N.N.T.&X-XY.H.N.M.m.j.8.j.m.M.M.H.H.x.z.R.wXMXuXW.k.h.M.Q.T.N.J.M.E.5X5XR.H.k.j.N.4.4.9.8.9.8.-XiXiXiX9XnXDXwXE.R.~./.0XwXwXeXeX8XeXeX8XW.Q.Q.M.N.%X-XE.J.T.N.8.] S v m A Q W C | t.>X-XQ.0X/.0X/./.8X8X4X/.R.K.x.1.<.z.R./.6X^./.R.R.E.4X8X8X8X8XT.k.<.R j.-XW.Q.H.z.x.E.W.Y.x.4XH.x.L.Q.E.Q.5X=XJ.k.j.j.8.v.J.H.M.v.t.$.H h 7 0 j }.fXZX2XrXsX*X;X9X;X%XN.v.q.9.5.8.v.N.C.n.v.%XM.v.f.7.j.M.m.J.=X=XN.v.B.T.;XT.&X&XN.u.6.e.e.|.oX+XoX$.I P ] ..! P U | | | | U ! ^ ^ o.O.e.e.y.#.o.o.o.e.t.o.@.@.J m l - 1 H #.B.OX Xn.v.B.C.%XT.T.%X=XQ.W.4X5X9X5X4X9X9X5X4XQ.=X=XR.R.W.=XT.Q.&X-X;X9XuX8XY.j.M.8X4X=X=XY.R.R.E.^./.4X4X4X4X7X8XcX8X4X4X0X9XeX%Xn.u.[ x & o   . - g W o.#.+.5.q.b.C.N.q.,.) j.b.b.v.b.b.N.Q.-X9XQ.M.M.j.M.M.M.Y.=XiX=X4XW.=Xm.8.7.8.j.N.%X%X&XT.Q.4X4XE./.6X).bXxX^.!.6X6XR.Y.T.-X&Xi.O. .W K 3 4 7 } oX#Xs.u.v.w.8.b.N.T.=Xm.H.E.E.E.E.E.E.E.^.E.R.!.6X6X^.D.L.R.K.K.L.D.x.E.W.^.W.W.R.R.R.D.H.H.H.H.L.R.R.R.R.L.L.H.H.J.E.",
"O.t.a.t.t.t.t.e.e.r.u.u.p.p.B.n.OXOXOXOX%XT.N.N.M.C.T.N.N.OXC.b.p.6.O.O.| Y U O.t.t.t.u.n.XXA.i.OXn.u.6.6.6.6.6.5.8.q.u.N.;X;XN.%Xu.6.v.N.v.8.q.C.N.N.C.%X%XT.N.i.6.6.6.6.5.X.q.b.N.&X;XT.N.N.C.T.T.T.T.&X&X&X&XQ.Q.T.C.C.C.Z.b.u.n.OXN.m.B.u.o.W Z v b Z J H N ] t.>X>XeXwXQ.W.W./.0XwXcXwXxXwXH.k.k.H.E.0XwX/.8XE.R.E.4X4X4X8X5XT.Q.T.k.M.W.Y.h.j.x.x.Y.Q.Q.W.4XH.z.H.Y.J.Y.Q.N.v.j.M.M.v.v.M.M.B.u.#.[ Z y u h h $.#XAX1XoXe.e.e.t.e.o.| U U U T | X.O.O.6.t.X.^ +.u.n.OX%XN.8.B.N.B.u.u.n.n.N.N.n.i.y.y.%.@.] H H J H V c c k k v v v V A Q A A H W Q Q [ [ Q Q ~ ! ! ..#.[ } } / L p - 4 G @.o.^ U ! o.e.t.i.i.B.N.N.N.%X;X%X-X%XT.-X;XT.N.T.%XJ.m.M.T.N.v.C.C.N.b.b.C.C.n.M.&XVXiX>X;XT.Q.Y.T.Q.Q.=X=X=X=XY.=X5X=XR.Q.=X;X>X*XN.O.H x 6 o o . @ 7 S  .#.#.i.0.X._ _ +.u.n.+.0.t.0.u.u.u.C.N.%XN.C.%Xb.C.%X;X&X%XtXT.J.M.=XN.v.8.5.X.+.0.0.OXOX%X>XuX9X4XqX7X7XzXvXxX/.E.=XN.n.n.i. .A V l x , - 1 } .XoX{.i.i.i.n.XXn.i.OXQ.=X=XQ.T.Y.Q.=XQ.=X=XE.Q.=XQ.J.l.m.J.J.Y.J.J.J.T.T.Y.J.J.N.J.J.M.M.M.M.M.M.Y.Q.j.N.T.J.T.%XM.f.",
"S W { ] I A S C A A A P W W W ~ | |  .o.o.O.6.6.X.6.t.e.t.y.t. .W A C V B k B Q { { ' A ] ....W I P I ! ] ! ! ! U P U o.e.O.o.o.e.t.u.6.O.6.6.O.n.n.N.n.n.n.OXOXi.t.e.^ U | | O.+.+.6.0.+.T _ 0.u.0.6.6.0.u.i.n.N.b.u.q.u.u.8.+.O.e.u.6.9.5.X.~ S V G F b Z J P | t.A.C.9XiX0XwXcXwXwXDXGXnXwX0XiXiXGXnXwXnXcX4X^.E./.4X0X0X8X4X8XT.-XeX-Xk.j.Y.T.-X8XQ.Y.x.Y.Q.W.H.x.M.J.M.M.Y.Q.N.M.b.b.v.v.b.i.i.s.&.[ b 8 9 l c Q @.}...! S S S B B S A S B C S S P P I  .%.t.O.e.a.p.p.u.6.e.6.5.5.6.e.u.t.o.| ] ] ] W S v y y z x x p u q 9 8 8 8 9 q u p p p p l n n b L n l b V B V V v G F L a 3 # 2 F }  .I B B P [  .O.#.e.e.6.u.b.N.N.%X%XOXOX XB.n.v.n.N.B.B. XOXOXN.n.b.u.0.t.u.u.b.N.*XOXC.&XC.N.T.%X%X%X%X%X&X-X9X;X-X-X5XuX9X;XOX*Xa.I c a =       O ; c ! ' ..| o.t.a.a.t.| | %.t.t.O.O.....%.t.i.u.A.OXu.i.n.A.0.6.OXv.v.q.B.N. XA.u.U D Y P Y +.u.b.&X9X-XQ.7X6XxXxXwX4XW.;X%Xn.t...A h q p i & : - ( ;..X}.oX@XoX@XoXO.U ] N.N.C.&X,X>X;X%X9X9X9X9X;X%XM.f.v.N.T.%X%X%X%X&XC.N.N.b.B.b.b.M.N.M.M.M.M.N.%X&XN.OX%XN.N.%XOXu.",
"z p y z h y y q h q q l l l l c h v B C S A W ] .. .[ ' ' Q S v z u w 8 y y z x M x y y y h h h h h z v v c v v Z B B A A A A W A ! ] ~ I ~ ! ! U  .t.e.o.^ X.e.y.#. .U Y |  .t.| ! Y P P S P P P P S S Y P ^  .O.O.| ^ T T U P U U U T T U P A Z Z G F b G ' [ I o.X.q.&XeXwXcXwX8X8XeXnXwX0X4XeX;X9X9X8X8X4XE.E./.4X0X0X0X8X4X-X4X8X8XW.x.h.M.Y.Q.T.T.W.9XeXqXW.E.Y.Y.Y.Y.J.J.N.M.v.j.v.N.C.n.o...} ' K z 4 3 q b J V v 0 f h c v v v V Z Z Z A A A H W W ' } W P W !  .o.t.p.e. .U ! ^ ^  .o.| ] W A Z m z p 9 p x a i 3 3 3 s , # # > , % @ # # # : > , 2 < e 2 r r q g l r 9 2 3 < % @ > a H Q W B j B A W B A I U ^ 6.r.e.6.u.i.u.e.o.o.e.e.u.u.e.6.o.6.6.t.t.t.t.t.O.o.o.X.X.+.X.O.i.u.u.b.B.N.N.N.N.%X&X&X%XC.N.&X;X;XOXOXa.O.P z i $       O - q A A Q ] O.y.s.O.] I I I W I I ] ] { ..| o.]  .O.| | | | ] X.t.8.v.v.u.p.s.s.e.U A P P P | | Y +.b.%XuXwXcXqX4X4X5X%XN.i.t.[ W m y q a a & # # K } } [ ..=.=.%.=.{ S S Y T 5.N.;X2X>X;X>X:X%X%XOXv.8.8.v.B.N.N.B.b.v.b.B.n.v.i.v.v.n.n.N.n.N.C.C.OX:X*XOXOXn.e.r.B. X|.",
"< % # > > > > > 2 1 > 4 4 > - 1 1 1 8 7 7 w q y l w 7 8 q 8 7 8 9 < > % % , , > 3 > > 4 4 > > 4 4 4 4 3 4 1 4 q 1 u p 7 7 q q 7 q 7 w l z h h v c j j c c j c V c c Z Z A H Z J A J Z v l v v c v c l g f g c V A A A B B B S V v c j B C C B V J G F F G ' *...P %.O.A.tXtX9X;X>X,X,X,X-XT.M.N.q.) 5.n.Z.N.Q.5X9X9X9X5XW.W.W.T.k.eXiXQ.T.T.M.M.T.W.W.T.T.-X,X8XeX9X8X&XT.C.N.b.n.N.N.b.i.u.o.P S v 0 8 9 4 4 p z G G l q q p l 7 p x p 9 q p z m b M K K Z v l q q z V v v Z H Q W Q Q H c h c v v z p 9 4 4 3 u 9 3 4 i a i 3 < < , % @ + + % # @ @ O O O O O # O @ - - - > # @ O + $ + X + 3 l z l y z G m l b Z V v B H A B S S B B B j k B B c j c B B c j V k k v V v v v j B Z v N A A I B C S S P I !  .[ [ [ [ [ ..@.@.@.v 0 v x < .       + @ 1 b z b b K } } K l h v q y q 8 y l z Z v A V B Z S A B j A [ [ ~  .o.! $.~ ~ W W ' ' J V A S S W I  .@XaX&X%XtXtXn.O.o.P S V b b i e d s $ O O F K M b v H Z v M x p z C A ]  ...#.y.}.y. .! ] ] W !  .! [  . .! W I W W W W ! ] ! ] ! !  . .O.#.#.#.t.y.#.#... . .$.s.",
"* + + + + $ $ O . O $ # @ @ @ # @ # # @ @ # # @ @ @ @ @ @ @ @ @ & + . * $ . $ + X & + & & + , % $ + + + $ $ $ $ + $ @ . + & & $ , $ + $ $ + + @ % % > > # # % % > > 4 4 > > , , < < < < < < < < 2 : 2 e 2 - ; - 9 2 2 2 9 2 2 9 > < 5 e q q p l b G G K J [ &.@.! | O.{.XXa.#.#.#.y.y.y.p.t.e.O.O...| | X.6.B.%X;X;X-X%X-X-XN.5.X.6.XX;X&X>X2XC.q.N.*X*XC.n.C.*X>X>X;XOXOXA.u.o.o. .| ! P C j h i < e e i p 9 8 F H G F x p a e 5 i 5 < > > > > > , 3 i i 3 3 > # , 5 5 , & & , < 5 i i 5 , # # # , & . + & + < 2 8 w 7 1 1 4 1 > 1 1 1 > # # # # @ O @ + @ O . O + + . . X     X         . $ 6 i a a i i e 3 > > > > > < < 4 1 @ - - - - - - > # - # @ @ # # O @ @ # # # @ # # - > > > > > 4 2 - - - - # # > > > > % , , < < < > , < , & $ .         . $ < < , < < 5 5 5 < < < # # # # % & , , 3 2 2 9 9 9 8 9 q l b V V b n l r r a x L F x a a 9 3 i a x F K  . .#.}.y...J b w 8 q 9 9 e e 5 6 $ X + & 5 i e e 5 i 5 i 6 s 5 e 2 r l r p n 9 q r q q 9 e i a a a a e 3 i i i 3 9 9 e q 9 q p q l l z l p l l x p l x l p p a ",
"* * $ $ * $ $ $ $ $ $ $ O O @ @ $ + @ + $ $ $ $ $ O . . + + + . . + . . . + 6 . + & $ & & $ 6 & 6 & & $ $ $ + + . + $ & & & + . O . . $ $ * * * + + + + + X o X X + + + + + + + X X X X + $ $ $ $ O + $ O + , , & $ + & & # # & , & $ @ @ > i x F G z V A [ }.$.W A S A H Z v b b b b V H W ~ [ ' ( J Q W ! #.p.a.a.a.a.a.i.O.| ] ] .... .a.+XoX+X@XXXa.i.t.O...t.t.#...] W S N v v v c l h y q 5 6 d a e e q b K / G F x a a i , , & $ $ & # # O O @ # # # # # . . . . . . + X . + $ $ $ + + + . + o   o $ + 5 L g f f f 0 y b v v v v x x z p 1 > > - # # # # O O . . X X     X . X X + + % < L L i 2 # @ # # @ @ # @ @ @ @ @ # # # # @ @ O O # O O $ $ . . % + $ $ @ O O O O % % # # @ O O O @ @ @ + + + + $ + X X . X .     X X X . . . . . . X . . $ , , & $ $ $ + + + @ + $ + + + $ $ $ $ & $ # % % % % > , 2 , 2 2 3 2 2 : : : , 2 < 2 , @ # , % # # 6 a n l v L b n p 3 : : : # # % , , $ . . . O @ @ O : & , + $ . $ $ O O + # O # , @ @ @ @ @ O . X + . # % + + $ * $ # $ % > - - > 1 - - 1 > - : > > > % % % % # + % ",
"* * & & & & & & $ $ $ # , , 3 5 > # # > , & , < < < , , , , % # . @ # % , , < O % , % , < , 5 < , 3 < , < 5 5 < 3 , # # # # , < < , : & % + + + % # @ # % * + X + + + + * $ + + & $ $ + O O O . $ X $ $ . . . . + . . + + O + @ @ @ @ @ # > 8 p b H Z J [ &.{.@.Z z 9 8 4 > > > > > > > 4 q p x a i i a p l b G Z Z H J K H Z Z b v V v c A W W &.@.' W J A V v V b z l l l u 8 i i i i a a a a d d F L a p l G } } F x p 3 9 , 5 < , # # # # O # # - - # # - # > # @ @ # @ # @ @ @ @ @ # @ # # # & & $ & 6 5 L H W ~  .$.@.&.}..XoX.X.X}.}.&.@.' v 0 h K ' G u 8 9 4 - > # @ # + O @ @ @ @ - 1 0 h l y 7 1 ; ; - ; 1 1 - - > 1 ; ; ; 1 7 7 1 ; 1 - - 1 - @ # 4 @ - - # # - > - - - - - - - - - - @ # @ @ O O O # @ @ @ # $ # @ @ O O O . . O O O O O O # > > - O O O O O @ @ # @ O O O O O O O O . O O + + @ + @ @ O O O O . O - - - - - - - - - > - # # # # # @ @ @ # @ @ # + % + + . . . . . . O + $ : : : - @ @ @ O O O O O O O O O O O O O O @ @ @ + + + + @ - - - # # # # # - - ; 1 1 7 1 - - - # @ @ # # # @ @ # % % % % ",
"& & 6 6 & & & & 5 5 < , > 1 > > i 2 4 3 9 3 3 e 4 3 9 2 > - - > < > # > 4 4 i a 9 i q i p a a a p p p q 9 u q 4 8 1 4 9 q 7 4 8 9 2 1 > > > > > > > > - > % + % + + + * * * + O . O O O @ @ # # . . $ & $ & & + & $ * & % % % % @ - > < 9 q p l b H J } }.oXoX[ x u 4 > % @ + + + + + + + + # @ + X + @ @ @ @ - - - - 2 > % % , > 4 3 4 4 7 7 1 7 7 7 1 1 1 1 7 - 1 1 - > , , > % % % % & & < < 5 , 5 e p L G K } ' b q 7 1 2 - # @ # # : - > - - ; 1 1 1 1 1 1 1 ; ; ; 7 1 ; - w 7 7 1 7 7 w 7 3 > , & & 6 i G / y.a.t.s.oXoXs.{.XXoXXXoX+X#X{.a.y.%.s..X.X.X{.@.@.Q H H m b m Z m b v v V H !  .$.}.s.$.] A B A W { [ ' ' [ }  .[ [ ..@.$.$.[ ' } } } ' } } ' } } ' K b z c k z b Z H H J Q Q H G Z b z q w 1 ; - - - - - - @ - - - - - - - # - - 1 8 q l z l 1 ; - - - ; ; ; 1 ; ; ; 1 1 ; - > # # % % % % # + % % + . + X O @ - ; ; 7 7 7 7 7 ; ; ; 1 1 - @ > # % % @ O X . X X o * * X X * @ @ # - - - - - ; ; ; - - - - @ @ @ @ @ @ - > - - - > > > > > > 8 7 7 w 7 1 1 7 y l l h h j k f h q 9 8 4 4 4 4 > - # # > > % % ",
"= 6 6 6 & & & , < < 3 e e q q 8 p 8 w q p q q p q q q 9 w w w w 7 w 7 7 q q q z l l z l z Z Z Z v V V v V Z Z V v h h v z k c V c c h h y l z x y v z q 8 - # < + * * & & & % # # - - - - - - - # @ @ @ O @ > > % # # > > # # - 1 1 1 7 8 l z V ' } @.s.oX$X3X-.K M i 3 % % % * + + + * % % + + X . X + O O O @ # O O + $ + + * + $ $ @ @ # - > - - > > - - > 4 , , , : # # > # $ @ + + . . + + > @ > 7 l K J } [ ' v l q 8 q 9 4 2 3 9 9 9 8 8 7 0 l b H K J W W ~ ~ ~ [ [ ..$..... . .......} Z 8 4 4 3 e l J  .r.r.9.8.n.OXn.B. X%X XN.OX XN.OX:X;X<X2X2X2X2X2X3X2X1X1X#X#X#X#X#XoXoX@X*X2X2XyXyXyX3X2X1X*X*X1X2XyXZXZXAXZXZXZXdXyXdXZXZXdX3XyXZXZXZXAXAXAXZXAXZXCXfX3XoXoX#X1X3XfXZXZXZXdXZXfXfX3X$X#X{.%.@.I A B B k f f 0 7 7 7 7 7 0 0 0 0 f k B I W ] ] S V v k f f 0 0 0 f f h j j k h z z p y u 4 1 # > # @ + + + + @ ; q c H } $.@.' ..{ ' ' Z 0 7 w - O # % @ + + + + + + * + + + % - ; ; 7 q l V W H V g w 7 w ; ; 0 g c c V W ' [ &.&.&.&.*.*.*.@.s.%.&.}.}.}.}.}.s.}.s.y.y.t.t.#.y.%.$... .[ [ [ A Z v h f 0 0 0 ",
", , , & & & , , > 3 a G K } } [ J J H Q } *.&.*.*.} ' [ @.&.@.} W @.@.A W ' A A ' W ] W ] @...@.#.#.#.#.t.y.y.y.y.#. .] !  .#.y.#.#.$.@.@.=.*.&.s..X}.} K y - , & & < < , < 3 3 2 7 7 w w 7 7 7 p q p x p p l p y y y l h y y y l c v V Z H W ~ [ @.$.{.oX#X+X%.} ( M u > > % % % # + # # # # # + + O O O @ @ : # @ @ @ + + & & $ & * $ & & # , 2 , > > > < 2 2 2 e e e 5 2 3 2 : - # @ @ @ @ # > ; 8 q v J [ &.$.$.W C c g l 0 z z b b b v V H ' } @.s.{..XoX#X2X3X3X2X<X2XdXKXZXZXZXZXdXdXaX3X@.h w 8 q p b Q  .4.8.M.T.T.%X;X=X=X-X=XJ.J.J.T.5X-X=X-X9X5X-XQ.M.%X-X;X;X%XN.C.yXVXKXKXKXKXKXKXSXiXiXpXSXSXSXKXSXSXSXKXKXKXKXSXKXSXSXSXKXKXKXSXKXVXKXPXPXKXKXPXKXKXKXPXPXPXPXPXPXPXPXPXPXPXPXPXPXPXPXKXKXKXZXyXyX3X1X+XOXXXn.a.O.#.O...#.%.s.{.oXXX+X1XyXZXZXZXZXZX3X1X1X1X1X+XXX@X+X1X1X2X1X1X$X$X$X$X$XoX.X&.J z 4 > # @ O @ V ~ $.oXfXAXCX3XfX1X@XXXy. .! Q q 1 1 4 > - > > > # > < u i a F K H W [ $.}.#XfXfX1X}.%.@.$.$.@.#.a.a.a.OX*X1XyX3X3X2X3X3X3X3X3X1X1X<X1X1X2X1X1X1X2X2X2XaXdXZXpXdXyXaXaX2X<X*X:X@X@XXXi.t.t.t.O.",
"s < , , , , < 2 i x K } *.*.&.&.oXoXoXoX$XfXfX3X#XXX{..X#X#X$X#XZXAX3Xt.i.+X@X3X+XXX+X|.OX3X1X1XyX2X*X*X@XXXXXOXOX@X*X@XXXn.i.u.u.n.OX@X1X3XCXZX3XAXfX$XoX' q 3 & & & % > > 9 l 0 f c S W ~ !  . . .s.#X#XoXoXoXa.s.a.{.{.s.s.y.a.}.}.{.{.XXXXoXt.t.u.XXOX|.|.t.s.%.} A B v h h y y q 0 8 8 0 0 8 1 ; 1 1 7 w q q r r 2 # @ # % & 6 6 < 5 < > 3 > 1 4 4 1 4 8 r n V H H H G H H l l l l h h l h 0 0 V A W $.y.@X{.|.y.%. .W W V c c V W ..$.}.{.oXoXoXXXOX*X<X2XrXrXrX;X%X%X5XuXKXKXKXKXMXpXpXyX%.h 7 w 8 q V ~ r.r.J.5X4XY.M.J.V.g.z.S.L.H.J.4XE.4X8X7XR.H.E.4X/.6X8XwXwX4XQ.5XGXFXLXLXLXLXHXFXHXHXHXLXHXGXnXnXnXnXwXwXwXwXwXqXwX8X0XqXnXGXGXMXnXiXSXFXnX8X8XGXSXKXKXGXMXGXGXiX9XeXiXMXGXFXLXLXGXMXiXiXGXKXKXKXKXKXKXKXKXKXKXKXPXPXKXKXPXPXPXPXKXKXKXPXPXPXPXPXPXPXPXPXPXPXPXPXPXPXPXPXPXPXLXKXKXPXPXPXPXPXKXZX3XoX&.} z 1 4 x $.t.{.<XyXZXVXyX2X&XN.i.OX*X1X@XoX&.&.@.J V k 0 0 f v ' *.}.oX$X#XoXoX@X@X@X@X<X3X2X@X*X|.@X|.XX%XrX>X-X9X5X5XuXMXiXuXuXiXiXiXtX>XrXrX2X2XrX;X%XOX%X&X&X>XpXSXMXMXMXuXuXuX9X5X-X9XiXpXtXuXuXuXrX",
"d i s 3 3 5 3 9 2 p H [ =.%.t.y.@X+XOXa.a.XXn.6.O.6.0.0.6.0.n.OX&X2X2X:XtXyXOXyX2X*XrX%X;XVXtXtX>X%XC.&X:X%X&X2X;X;X&XB.u.u.q.8.v.C.&X&X,X2XtX2XOXtX2X3XfX}.V q > & , > 4 p H } }.}.oX+X<X1X2X2XyX<XaXKXZXrX2XrXaXtXtXpXpXtXrXtXZX3X:XOXOX*XyXdXKXdXrXrXsX;XpXpXVXVXVX3X1X@X.Xa.s.s.s.s.s.y.y.y.@.[ ~ ' [ ..$.&.}..X}.' z q 8 3 < s < < i i i x l F K m l h H } }.{.oX#XoXoX#X#XoXoXoXoXoXoXoXoXoX}.XXXX@X<X@X<X<XyX3X2X#XXXXXs.y.y.y.{.@X*X<X2XyXaX;X%XT.%X;XuX-X4X4X=XE.E.=X5X9X9XwX9X9XwXMXpX.Xv f h y z H $.n.N.=X7X4X4X8X5XqX7XJ.^.7XR.E.7X4XW.H.K.E.4X)./.cXcXcXxXwXqXwXFXnXnXnXnXcXmXvXcXcXnXDXFXDXcXDXFXDXnXwX0XqXwXwXcX/./.^.^./.4X8X4X0XGXGXqXY.x.Y.E.8XDXDX8X/.cXcX/.S.D.D.K.R.8XcXDXDXnX0X4X8XwXcXwXDXnXGXGXFXLXLXLXLXLXPXPXPXPXPXPXLXFXFXHXHXHXHXLXLXHXHXLXIXIXIXIXIXIXIXLXHXDXcXcXmXHXHXHXHXHXFXMXpXVXZX#XA ; w ' oX@X*X*X;X>X9X9XuXpX9Xb.v.&XrX2X2X*X<X1X@Xa.#.^ ! | #.|.XX|.n.|.OXOXOX*X;X%XN.N.%X;X2XpX>X2XOX%X=X9X5XQ.-XQ.Y.4XnX9X8X4XW.R.Y.J.=X9XuX9XuXiX9X=X-X5X5X=X5XuXiXuXuXqXqXnXnX9X7X=X4XnXFXGXiXiXiXiX",
"d d a i , < 9 3 9 m Z @.y.] | 0.OX:X:X2X2XX.E X.X.C.n.C.tX&XC.&X>X9XtXSXVXuX9XtX9X9XSX;XLXKXLX;XM.j.v.N.T.-X9X9X9XN.-Xj.9.M.j.&XQ.wXwXQ.iX,X,XeXM.b.u.i.{.1X[ 0 < > # p 7 V {.#X+X3XsX:X;X;X%XrX9XT.J.5XuX=XJ.R.R.7X8X8X4X4X4X4X9X5X;X&X%X%X5XtXKXPXPXLXrXKXIXLXKXLXLXSXuX;X%X%X&XN.%X;X;XrXKXKXyX2X2X*X;X<X:XOX<X@XoX.X@.B h z 9 i p M F K } @.&.&.&.y..Xs.s.#X2XaXpXsXsXaXaXsX*X;X>X;X;X>XrXrXZX1X2XyX2XrXSXpXpXpXtXpXKXKXZX3XdX2X2XaXrXaXpXpXMXMXiX5X4X7X7X^.S.L.K.E.E.R.L.L.K.L.R.^.7X4XwXiX+XV f q y z A {.@X&X=XJ.^.wXiX9XnX5X4X8X4XR.R.4XD.x.R.0XwX/.R./.zX).).xXDXFXHXLXHXHXHXnXcXxXzX0X/.wXJXcXwXwXcXcXcXDXDX0X^./.0X0X/.Y.W.0X8X0XqX8X0XW.R.2.1.x.x./.qXcXDXcXcXcX`.(.).`.~.!.bXcXzXcXvXcXcX(.G.G.R.^./.wX8X/.qX0XwXHXHXLXLXLXIXIXHXIXHXHXHXIXJX).).bXvXHXHXHXHXIXIXHXIXJXkXvXHXJXJXzXbXhXjXjXhXhX_.~.wX;XyX+XP t 0 } |.:X;X&XT.Q.5XqX4X9XeXeXiXiXiXuXtXrX;X5XpXrX;XpX;XOXN.N.N.%XT.M.v.b.M.M.M.J.J.M.=X9XuX-XJ.j.m.;XT.Y.&XeXtX;XQ.-X9X9X8XQ.T.T.M.k.M.5X9X9X9X9X9XwXGX9XQ.Y.Q.=X5X9X9X5X-X5XuXiXuX9X9X9X9X9X9X9XeX8X",
"F M M a u u i 9 7 v S [ %.X.+.i.b.>X;XN.%XN.v.N.M.9X9X9XiX,X&X8X8X;X9XMXFXGXiX9XFX8XMXMXPXnXnXuXM.j.v.T.Q.Q.9XSXT.-X5XM.j.-XuXeXc.wXDX8XVXeX9XeXY.j.9.4.X.y.[ Q i i 4 q 0 ~ +X<X*XrX-XJ.=X=X4XiXuXwX7XH.S.L.7X4XcXnXqXE.D.H.R.R.^.W.^.7X7X=XW.W.8XwXmXLXMXMXLXnXqXcXcXcXqX5X5X5X4XE.5XuX5XuXMXMXSXtXuX-XQ.T.C.T.q.u.u.o.U P C B H Z B Z } s.a.%.a.2X3XOX*X2X3XtX;X5X5X5X9X9X9X5X5XuXSXiXuXuXuXuXpXVXKXpX9XMXLXMXiXMXMXMXpXpXpXpXpXrXuXMXMXMXMXMXMXmXnXxXxXvXvXxX^.^.^./.4X7X^.R.^.E.^././.^.7X9X+XC f h l h Z .X*X%XT.=X4X/.4X9XuX9X5X5X=XJ.J.Y.=XQ.W.8X4XW.E.W.R.R.R./.0XcXcXDXwXwX8X8X8XcXcXcXDXGXGXwXwXGXDXDXcXcX8XR.Y.W.8X0XcX8XwXDXcXwXcXeXwXeX0Xc.2.R.W.8XcXcXJX0X`.cX).U.`.`.~.).vXvXzXvXvX0X).!.F.!.!.F./.8XR.D.R.R.).HXHXIXIXIXHXxXbXIXIXHXHXIXIXHXbXkXkXJXHXHXHXHXHXNXHXHXHXHXHXbXkXhXjXjXjXjXjXkXhX_.qX9XKX1XI 0 h -.|.n.N.T.T.M.Y.8X0X0XwXcXGXGXGXMX9XMX9X=X9XuXuXuX9X9X5X=XM.m.k.f.f.j.k.j.l.M.L.R.R.qX4Xl.g.R.4X9XeXeXeXeX,XQ.C.Z.M.W.9X9X-X-X8X9XT.5X4XR.W.4X4X4X4XQ.J.M.m.M.T.&XJ.N.N.T.-X5X;X=X5X9X9X9X9X-X8X9X",
"F F F x a p a u q Z @.y.i.u.X.8.9.%XN.8.T.uX-XT.=XuXiXiXqXW.-X-XFXnX9X9XGXLXFXqXwXnXFXLXLXHXFXnX8X9XiXSXiX5XT.N.;XeXQ.J.&XGXLX8XDXLXHX0XeXR.Y.Q.8X4X&X;X*X1X .z l x q q f e.3X;X;X9X5X7X7X^.E.4Xk.5XMX9X=X=XW.R.E.W.E.H.H./.4X/.nX6X^.^./.6XxXcXxXHXHXmXcXLXIXnX/.7X0XqXcXnXnXnXFXMXuX9X=X=X8X9X9XeXiXiX-XM.j.j.b.n.u.O.| ] ] U D I ..s.XXXXb.q.%XSXKX9X,XeX9X;X9X=X=X5X9X9X9XiX9XGXFXGXiXeXiXiXtXSXKXKXnXLXPXLXmXmXFXnXMXMXSXSXuXuXMXKXFXmXmXmXFXmXmXvXvXvXbXlX6X/././.0X0X/.^.R.R.R.^.E.R.^.=X:X] v k z v J s.@X XT.=XW.Y.Q.9X;X;X-X-X&X%XQ.Q.&XQ.T.N.M.M.M.M.E.E.E.W.W.W.W.4X8X-X4XqXnXwX8XW.Y.Y.Y.Q.W.wXwX0XW.R.Y.R./.8X4XW.Q.Q.8XGXGXGXGXGX8X8X8Xx.x.Q.W.0XJX`./.~.!.R.G.G.0X0X`.vXHXHXvXHXvXcXvXzX(.(.`.).F.!.(.).0X).zXDXHXHXHXJXJXbXhXbXbXkXhXhXbXNXHXIXJXIXIXHXNXNXHXIXIXIXIXJXbXkXNXNX_.kXbXhXhXbXNXxXcXuXZX$XW 7 9 @.+XOXN.T.Y.H.H.R.8X8X/.0XcXFXGXiX9X9XQ.k.N.%X%X%X;X9X;Xm.,.,.7.f.m.Y.W.W.R.Y.H.x.D.S.g.d.c.H.R././.8X8XW.-X9XeX8X9XeX9X9X9XeX4XQ.5X9X4XQ.4XqX8X8X8XH.7.f.M.T.T.M.j.j.m.J.=X9X9X9X5X4X4X4X4XW./.4X",
"m F F M z x x p z J }.a.u.u.) ) N.N.j.M.uXSX9X=XW.-X8XnXqXqXHXGXGXGXGXGXLXLXnXE./.DXFXDXcXLXHXFXFXLXFX9X9XiX9X-X-XiXFXGX9XiXPXIXIXLXcXwXwXW.Y.W.E.4XW.C.*XAX}.v z x p g j s.<X&XE.7X7X/.^.H.S.c.9X-XY.M.j.M.8XGXQ.Y.Y.Y.E.E.W.W./.(.).6X0X6X6X0XvXHXmX7X/.mXIXxXE.R.E./.0X8XqXqXqXqXwXqX5X9XMXFXFXGXwX0XW.x.Q.-X9XQ.Z.i.+.! ! ..t.0.i.OXOXC.;XiXuXGXFXGXnX0X4X4X5XW.T.=X9XeXiXiXSXFXGXiXeXeXiXGXGXiXGXFXFXFXHXLXHXmXnXnXGXFXGXMXnXwXMXMXqXcXmXmXDXmXxXxXzXzX).!.(./././.6X4X/.^.^././././.^.^.W.OX}.' h h J { [ e.B.J.H.M.Y.Q.Q.;X;X-XT.T.&X-X%X>X>X;XT.T.&X;X&XY.Y.T.Y.M.k.k.k.j.k.T.eXwX8XW.W.Y.Y.Y.Y.Q.W.Q.x.c.h.x./.wXwX0X8XeXqXcXGXwXwXwXwXW.Y.Y.Q.Y.H.Q.cXDXR.U.R.U.l.2.F.0X).`.DXHXHXJXHXzXxXJXxX~.!.(.!.!.6XvXHXHXvX0X).HXxX6XlXvXvXhX_.jXbXNXbXhXhXNXHXHXNXbXvXHXHXJXhXNXJXNXNXNXbXNXhXzXbXzXkXkXbXJXHXDXuX2X{.A 7 1 G .X*X;XT.Q.5X/.R.R.R.^./.qXnXiX9XiX5XT.Q.%XT.T.;X&X,XC.,.R 7.T.9X8XqXcXcXwX7XK.S.R.D.z.L.^.R.R.6X0XqX8X/./.4X8X9XGXeX9XeXiXuX=XM.Q.5X8X9XnXnXwX8XJ.=XuX9XQ.j.9.9.9.9.7.v.Y.=X5X9XwX4XE.^.6X).^.!.",
"M b G F x x b z v Z %. .| 6.4.8.N.N.M.=XuXiX9X9X9X=X/.0X/./.DX0XcXnXiX9XwXnXwX4X8XwX/.4XD.4X8XDXMXLXFX9X8X-X=XeXMXW.qX9XMXPXLXLXFXHXnXiXwX8XR.R.c.H.M.8.0.$X=.v p x l v B t. X%X4XE.E.^.R.R.E.E.W.J.M.J.Q.Q.Y.M.8XY.k.H.Q.Y.Y.eX^.8XcXcX0X^./.0XcXcXxXDXnX7XqXqX4XE.E.4X0X0X8X8X^.8XnXnXmXnXMXmXLXFXwXcXeXQ.8XeX8X-X%XA.t.| ..y.a.A.&XtXVXSXuX5XuX4XwXFXDXqX8X0XW.W.T.Y.&XeXuX9XKXSXiXeXuXSXSXSXGXMXwXnXnXwXqXcXnXcXwXwXnXMXeX9XwX8XwX8X4X4XcXcXcXxX0XzXxXxX6X(.^./.4X6X/././.4XxXcXcXwX6X/.^.Q.N.oX[ f h H W P T 6.m.z.k.J.Y.T.;X;XQ.N.M.T.T.M.M.N.N.v.N.Q.%XT.M.J.T.Y.J.J.Y.Y.H.H.Y.J.M.j.M.=X-X=XW.W.W.W.Y.x.c.z.D./.0XqXwXcXcXDXcXqX/.E.R.R./.R.Y.4X/.R./.nXbXR.Y.K.R.D.F.)./.!.).vXHXmXJXDXvXxXxXxX0X6X/.K.).).zXmXDXmXcXzXzXzXxXxXzXzXbXbXbXNXbXkXhXkXkXhXhXkXbXbXbXkXhXkXNXJXbXvXJXHXHXzXcX0X`.`.zXzXcXDXcX9X>Xt.S 7 1 G [ u.n.C.&X9XwX/.R.^./.8XwXcXiXeX5XQ.&X,X>X>X,X,XZ.C.q.) 5.Z.>XVXGXnXqX8XqXqX0X4XE.4X^.D.D.E.4X6XvXzX).0X8X/.4X8XqXwXnXnX8XE.x.g.j.L.W.4XqX8X4X4XW.Y.J.T.T.C.q.5.5.5.8.j.M.Y.4X7XnX6X/.).6X).(.!.",
"b G K K b b b b b H @.t.6.u.u.8.9.J.uXiX9X9X9X5X4XT.H.E.H.Y.8XY.wXiXwX5XQ.W.4X4XY.4XW.R.l.W.W.W.8XGXLXLXwXj.d.=XqX=XGX=XW.FXwXiXGXLXFXeXx.T.Y.z.H.j.j.n.n.oXI h p p x Z A t.B.-X5X^.7X0X4XW.4X-X4X=XJ.k.E.9X5XJ.E.x.D./.0X8X0XDXDXDXDXDX0X/.0XnX0XcXcXDXnX7X6X8X8X-X4XqXcXwXwXcXnXFXmXcXnXnXcXnXnXDXwXDXDX8X'.Y.Q.,X;Xb.O.O.t.y.OXtXrXC.%XMXKXiXwX4X8XwXwXcXcX4X8XqXeX-X8XMXGX9XiXuX9X9XuXpXSXpXiXGXnX5X8XnXqX4X8XwXnXnXwXeXeX9XwXuXMXnX8X8XcXwXnXwXwXcXvXcXzX0X/.6X0X8X/./.8XwXqXcXcX0X6X/./.Q.C.XX! j B V ~  .o.9.f.J.E.J.Y.Q.Y.T.M.j.j.M.M.j.M.M.M.v.N.%X%XJ.T.Q.=XQ.Q.=X=X4X8X9X4XY.k.f.H.4XW./.R.H.H.R.R.K.c.D.^.0X0X).6X0X/.0X/.R.R.R.R.E./.qX8X6X/./.xXqX8X/.^.S.D./.(.(.).^.6XcXcXvXmXvXmXmXHXDXxXxXcXzX(.!.^.zXzXxXvXxX/.0XnXcX6XzXHXHXHXbXhX_.).zXzX`.JXkX_.).zXbXbXbXHXHXNXvXvXvXHXHXcX0X0XvXvXkXkXbXcXSXtXi.S 7 ; K I Y +.C.>X8X8XcX0XwXwXqX8X8X5X-XJ.Q.-X&XQ.>X&Xq.q.Z.q.q.%X,X;XeXMXwX8XqXwXwXqX8XR././.E.E.R.E.6X0X(.^.0XwX4X5X9X9X%XN.m.j.f.7.7.j.J.Y.R.W.W.R.4XJ.Q.&XM.5.5.v.C.q.q.q.q.q.v.N.Y.Q.4X0X/.K.R.^.(.",
"V G ( K b x b b V Q &.+XOXC.%Xj.v.;XMXpX5X-X-XT.k.k.x.E.W./.cXqXE.5XiXGX9XE.x.j.k.=X4XQ.L.4XW.H.4XnXnXqXqXW.W.FXPXnXnXqXwXFXnX5X9XiX5XQ.h.Y.Q.Y.Y.7.,.q.i..XW v i a b G W {.n.;X=XL.W.8X4XQ.Q.Y.4X4X7X4X0XcXcX0X/./.6XqXcXqX0X0X0XwXDXGXGX0XW.Q.Y.wX8XW.W.4X9XW.H.D.Y.4XqX0X0XwXcXmXxX7XxXmXmXHXvXmX^.0XzX(.bX^.H.Q.T.8.^ o.e.e.n.2XZXpXpXKXKXuXMXuXnXiX9XMXFXnXDXGXDXnXnXFXGXMX8X9X5X;X5XuXuX9X9XGXiX8XqXnXwXqXeXiXGXSXiXeXeXuXiXMXGXGXiXiXnXqXnXwXwXwXcXwX0XqX0X0X6X^.R.^.6XqX/.6X8X/.^.^./.W.T.OXU B S S ! #.n.B.J.4X5X=XY.J.k.k.k.k.M.J.M.k.f.7.<.9.7.f.j.f.L.Y.J.H.H.L.L.H.R.W.4X4X7X9XnXMXcXqX/.K.L.K.L.S.S.R.6XzX6X^.P.!.0XcX6X!.^.^.R./.).cXzX0X).).xX6X0X^.R.D.R.qX6X^.0X).zXzX6XxXvX0X/.xXDXmX/.^.zXxXxX7X6XxX(.^./.K.6X4X4X6X).xXHXvXNXNXNXNXbX0X(.!.].).bXNXxX~._.zXxXvXxXNXvXhXzX).bXcXJXJXvXhXhXzXcXGXiXi.S w ; J ! Y _ A.>X,X-XwXcXcXqX4XW.=XQ.Y.E./.eX-XW.8X;Xw.C.,X;X,XVXeX-XeX9X9XqXwXwX9X5X8X8X4X4XnXnX4XE.wXqX5X;X>X,XC.b.u.u._ D E T 6.i.C.N.Q.J.L.K.K.R.4X4X5X=X%XT.v.) E | ] ..| | X.X.5.8.T.;XJ.k.J.W.4X",
"b G } K b l b z V W @.+X:XOX>XN.;X%XT.M.8.7.j.f.H.T.Q.E.Q.M.Q.H.8X&XQ.Q.T.M.J.Q.qXY.H.=XW.H.H.4XE.GXnX4XnXLXnXwXFXnXnXFXqXY.8XGXnXR.j.;XQ.T.k.k.k.M.T.n.6.%.B y 9 a b Z ! XXN.;X5XL.E.0X4X8XeXwXwX6XcXFXmX6X6XmX(.0X6X!.!.0XbXqXcX0X8XwXGXcX0X4XY.4X/.4X8XW.=XW.x.c.L.4XwX0XqXcX6XvXxXxXmXmX6X).6XvX).xXcX).vX(./.E.J.M.q.6.p.OX@Xn.N.2XKXKXpXuX9X=X5X9X5XwXFXFXFXDXnXnXnXcXnXnXcXwX9X-X-X5X5X5XeXiXeXeXiX5XW.eXwXiXiXiXSXVXiX9XiXiXMXiXeX9XeX8X8X8X8XeXqX4X8XqXwX4XR.D.F.K.^.4X4X0X0X/.^.^.^.E.M.:X^ j B A '  .OX&X-X7X7X4XY.f.H.M.M.J.E.L.M.k.m.f.9.9.f.f.m.M.J.J.H.m.x.H.H.m.x.L.L.R.4XnXnXcXW.E.K.L.R.^.^.L./.7X6X^.K.K.P.^.R.4XE.H.^.^.R./.0XxX).xXzX!.0X0XxXc.l.E.cXvX0XvX0X).0X).R.).zX!./.).0X6XR.^.6X7X6X^.).7XK.^.xXxXwX4X4X/.K.^.zX^.kX_.!._.).).).0XzXhX).zXxX).).xXHXbX_.zXbXzXbXzX0XvXJXbXjX_.jXkXzXcX;XO.S 0 7 W ! U _ i.;XeXeX8X0X8XE.R.W.8X8X-XE.H.W.8X4X-X-XN.T.,X-X&X9XT.M.eX=X=X-X5X=XW.8XiX9X9X=XE.4XwX0X8X=X;X;X&X%XA.0.X.` Y Y U | o.u.OXN.R.H.x.L.L.L.W.L.Y.J.M.M.M.b.q.U ] ....| | X.+.5.C.&XM.M.=XeX5X",
"K K H K Z z Z V H @.O.o.N.;X&XT.%XT.N.M.j.j.k.M.k.Y.Q.Y.M.k.M.Z.Y.9X=Xm.J.=X=X5X9XE.Q.Q.L.R.Q.m.Q.T.W.9XwX9X9XLXGXnXLXnX4XW.D.^.4XE.M.&XuXM.7.Q.4XM.T.8.y.@.J 8 9 p z H  .:X%X=XwX0X/.4XcXDXcX8X/.wXwX/./.4XcXHXDX6XH.qXcX8XcXqX8X^.^.8XcXxX6X/.8X0X0X/.R.R.R.R.4XW.E.E.4XwXcXwX0XxXcXcXcXcX0X(.'.0X8X~.(.0X6X^.0XE.J.) X.6.XX@XN.%X2X>X>XuX9XY.4X8X4XK.W.DXLXHXLXcXqXcXcXnXnXnXqXnX8XQ.=X5X9X9XiX8X9XiXiXwXwX8X4XnXwX9XiXiX9XuXiXMXiXeXGXFXiXE.4X/.4X4X/.R.E.qX/.W.H.l.l.R.8XwXqX8X8X8X/.K.H.R.T.%XO.C k J A @.i.%XJ.E.0X/.x.z.J.J.J.J.Y.T.H.z.j.d.9.7.7.7.d.f.m.M.M.J.Q.Y.x.M.M.x.H.L.E.E.R.H.c.D.L.R.R.R.R.E.^.7X/.H.D.R./.6XW.4X4XE.R.E.W.W.wXwX8X4X4X0X/.H.H.c.D.cXvX).).mXzXbXvXxX).!.!.!.!.F.(.zXR.S.R.E.^.R.^.7X^.).zXvX0X(.!.!.!.R.).bXzXzXbXbXxXzXbXJXbXzXhX_._.hXkXzXbXkXzXJXHXvXvXvXbXvXvXbXbXbXkX_.).0XC.] v 1 f .XOX5.) b.;X;X;XeX-Xz.z.x./.wXW.wXcX7XL.L.Y.Y.Y.T.;XN.1.N.&X-XSXT.T.=X9XiXuX9X9X9X,X-X&X=X5X8X8X8XW.4X9X9X&Xb.6.T U T +.X.0.+.q.q.,.7.m.Q.4X7X^.E.E.L.L.=X5X&X-X;XC.q.T ) 6.q.9.) 8.j.m.J.4X4X4X4X",
"K ( H K G b Z V Z [ ..O.n.C.N.M.N.&X&XM.j.N.Q.W.9X-XY.k.7.8.w.v.M.N.M.T.=XJ.J.9X5XT.J.M.j.m.T.H.W.eX=Xj.h.J.W.4X8XR.W.4XE.D.S./.6XnX=Xj.j.7.d.T.5XJ.=Xr.| V l 8 3 p v W o.:X&X4X4X0XwXwXwXwXxX0X/.0X0X0XcXcX0XwX0X0X/.0X6X^.wX/.zX6X/.).6X6X).6X6X0X6X).(.(.).0X4X8X8XW.E./.4X0XcXcXxX0X0XwXxXqX/./.).).`.zX6X!.^.x.j.R +.+.a.XX;XN.&XpX>Xj.j.J.nXwX0X0XcXnXDXGXDXcXnXFXFXDXnX8XwXwX4X4X9XMXiXnX9XiXGXwX8XnXnX/.4XcXwX8XiX9X8XeXFXMXqX8XeXnXiXqX8X8X8X4X/.4X4X4XqX4XH.z.D.E.8X0XwX/.R.E././.R.H.W.;Xn.I h J Z ' s.OXR.K./.^.R.=X=X=XJ.M.M.J.M.z.7.7.7.f.f.7.d.f.m.N.N.N.T.Y.M.J.H.Y.Y.D.c.l.D.E.L.Y.W.W./.W.E.R.R.7X6XE.K.R.R.H.J.M.M.T.Q.E.E.Q.8X8X8X4X4XW.H.h.1.c.W.qXvXJXbXzXJXbXkX`.zX0X).R.0X).).^.R./.wX4XR.D.K.^.^.).zXzXzX(.!.~.0XzX0X0XbXxXbXJXvXbXbXHXNXkX_._.kXbXzXhXbXbXvXHXHXNXbXvXvXvXbXhX).zXbXbXbX4XOX} u 1 v {.%X>X>X&XT.&X;X&X8X8X4XY.Q.wXwXcXwX7XR.L.R.-X9XuXb.8.R j.M.J.uX;XQ.T.T.T.&X;X>X>X&XQ.Q.&X5XqX9XwXnXwXnXiX9X;XC.q.i.i.b.b.C.Q.C.j.j.j.f.g.x.E././.K.K.E.4X=XJ.J.%XC.N.j.5.8.j.M.M.M.T.Y.W.8X8X7X4X",
"K ( G G G b Z b S  .t.i.C.C.N.N.>X>X&XN.j.k.x.k.k.z.j.k.M.b.j.8.w.8.8.v.M.5.9.m.8.5.j.v.f.j.m.m.Y.W.k.<.L.MXGX9XGXwX4X4X/.H.R.E.D.E.Y.N.M.9.,.J.z.:.v.B.s.] y > 9 a m W o.;X=X4X/.0XwXcXwXwXqX0XwX0X4X4X0X^.R.E.R.4X4X4X/.0XcXE.cXcXxXxXxXzXxXcX(.^.^.R.R.R.^././.4X4XE.E./.0XwX0XcXcXcXxXxXxX0X~.R.!.).`.0X(.R.^.x.k.8.b.t.XX@X&XN.N.M.8.j.=XnXcXwXwXcXnXnXnXnXHXmXFXHXFXDXDXnXDXDXwXqXwXqX9XwX8XeXMXwX9XcXnX0X4XcXnXnXGXGXiXGX9X5X=X8X9XqXqXwXqXwX0X4X0XcXcX4X4XR.c.D.E.4X4X/./.E.K.R.(.6X/.R.l.T.n.U k J J @.s.v.d.g.^.7XR.J.J.T.J.J.M.H.M.m.j.j.z.m.m.j.z.m.f.k.j.j.x.k.k.M.j.h.h.l.c.c.z.c.Y.L.H.H.H.H.H.D.L.R.R.D.c.S.H.H.L.j.j.J.E.Y.Y.W.h.D.E.0X0XL.2.:.R./.8X^./.cXJXbXvXzX~.(.zXvXbX`.U.!.zXDXHXDX0XS.R.D.K.^.^.).6X6X0X).(.).zXcXzX(.~.R.~.`.zX(.(.kXvXzXhXhXbXbXbXhX_.hXzXbXzX)._.!.F.!.hXkXzXxXzXkXzXE.+X=.u 1 B #.b.T.&XC.T.>X;XY.-XiXeX8XW.W.eX8X4X8X8X4X=X5X9X;X&Xb.j.q.7.5.M.N.%XC.N.C.&X>X>X,X9X9XuXtXMXFXLXLXnX5X5X9X;X;X%Xb.Z.C.C.*X,X>XZ.w.j.m.k.z.H.W.^.R.L.K.W.W.H.j.j.m.j.N.T.M.b.T.T.N.v.M.J.E.8X8X7X4X",
"G ( G G Z b H V A #.XX*X;XT.Q.-X9XN.w.N.T.M.k.M.M.j.h.7.j.j.w.8.q.j.v.v.j.8.5.8.9.5.v.N.N.M.M.m.M.j.7.k.8XiX8X=XE.qXR.L.R./.cXW.^.H.g.j.v.8.f.Y.E.f.f.6. .H y > 9 p m W O.;X=X4X4X8X0XwXcXcXxX6X0X0X4X4XW.c.l.R.R.4XcX0X/.0XcX4X0X0X6X0X0X/.!.R.^.^.^.!.!.^./.6X/.W.R.R./.wXcXxX0XcXmXmXcXcXcXzX/.W.^./.).).~.!.K.x.M.N.C.+.i.A.b.%X&Xv.j.Q.9XQ.0XnXmXqX0XnXHXHXFXmXDXFXmXDXFXFXnXFXGXnX8XY.Y.qXwX8X9XMXcXcXnXnXDXHXLXHXFXiX8X9XY.Y.Q.5XqXqXqXwXwXwX0X4X0XwX0X/./.R.R.0XcXqX^.R.K./.6X/.(.).0X6XK.=Xn. .k Z Z ' t.6.<.g.E.7XJ.j.f.m.J.T.T.T.J.H.E.J.H.M.J.J.J.J.M.Y.J.M.Y.T.Y.E.Y.H.H.Y.W./.R.D.4XR.D.x.H.L.R.E.c.H.E.R.H.D.S.c.l.h.L.4X0XR.l.g.S.l.l.c.c.z.D.R.qX8X0XcXzX).).kX).(.~.!.).8XzXcX(.R.(.HXHXDX6XE./.R.^.).^.).).).).0XzX`.).0X`.~.!.!.(.).zXzX`.).).kXbXbXkXhXhXkX_.kXzXkX).)._._.!._.jXjX).kXxXvXbX^.A.A - - c t.;XQ.T.;X>X;XQ.Q.W.eX8XwX-Xk.W.W.R.8XwX4XQ.=X&XT.T.N.C.w.9.j.N.&X%XN.b.b.C.%X%XOX>X>XrXuXuXuX9X9X=XJ.Q.5X9X2X>XOXZ.Z.i.C.i.i.5.w.b.m.M.E.4X^.K.L.E.E.R.L.k.f.f.v.w.j.v.M.T.;XT.j.v.M.M.J.4X7X^.7X",
"M K G G m b K H A ..XX2X&XC.W.eXuXN.j.T.-XT.M.J.k.k.k.m.v.v.j.q.8.8.v.b.b.v.q.q.j.j.j.v.M.v.j.j.7.7.k.T.W.M.x.W.j.Q.M.k.H.W.wXE.K.7X4XQ.-X&Xj.R E.J.J.8.P V 8 > 3 p m W | &X=X4X0X0X8X0XqX0X8X4XE./.4XwXwXE.D.R.R./.cXwX^.^.8XcXcX0X/./.(.R.S.l.D.K.R.!.^./.6X0X0X4X^.^.6XxXcXzXcXvXvXxXzXcXmXDXcXqX0X8X(.!.^.).D.L.T.&XOXX.t.a.A.b.N.%X;X9X9X4X4X0X/.H.H.4XnXnXwXwXmXFXmXmXDXcXcXDXFXnXwXE.W.wXFXnXnXnXnXnXnXcXcXcXmXDXcX8X8X4X=X5X8X5X8X9XnXnXnX8X4X4X4XE.R.R.^.^.6XcXxX^.S.l.!.zXmXbX0XzXxXcX6X=XN.#.V Z B ..e.v.J.E.K.H.M.M.f.m.Y.T.Q.Q.Q.T.=XT.J.J.Q.=XQ.Y.Y.=XR.Y.5X9X5X5X5X8X8XW.Y.H.E.4XwX/.R.E./.8XqXwX8X0X/.R.D.D.R.R.0X4XR.c.l.S.R./.7XE.L.D.S.L.).vXcX).(.zXzX_.).vX).).).~.!.R.^.).0X~.!.0XcX0X/.0X0X6X0X0X^.!.^.^.(.0X0X).).).).~.(.zXxX).kXbXzX_.I._.bXbXhX_._.hXhXhX)._.(.).zX`.zXzXbXbXkX0XzXxX~./.a.Z 8 > f t.tX,X;X9X,XZ.T.eX;X,X&X9XT.k.-XQ.M.E.T.k.j.N.;X>XN.%X%Xq.j.&X;X;X%XN.8.5.5.q.b.N.N.C.%X%XC.N.B.m.f.f.M.;X;X;X&XOXA.q.) 0.) ) ) b.N.j.j.J.W.K.K.^.4XW.L.x.z.k.M.N.J.j.7.j.C.%XT.N.Q.&XT.R.4X^.R.E.",
"z G F G G H ' Q A  .XX1X%XT.;XeX9X9X;XT.J.T.T.M.j.M.T.&X%XN.j.8.q.X.q.C.N.6.5.6.4.9.4.8.v.8.) 9.7.k.k.k.k.k.L.8X=XW.J.Y.Y.H.Y.H.6X/.R.M.M.M.J.H.f.z.N.u.~ Q u > 4 p b P _ OXQ.4X0XqXwX0X/.E.E.4X8X/.R.4XcXqXE.E./.c.H.^.6XxXqXwXDXxX).).6X).^.R.F.D.K.R.!.^.^.^./.6X0X).).0XcXcXcXcXvXvXcXvXvXcXcXwX0X/.!.!.~.^.R.=X;X>XOX| i.n.*Xb.b.;XuXiXMXiX4XH.l.D.E.7XqXnXcXcXnXDXnXDXFXnXnXnXnXwXnXqX4X8XnXnXnXwXwXDXDX6X6X/.0XcXwXwXcXqX8XwXnXiXwXwXqX4XqX4X4XwXwX/.W.7X/.6XxXcX6XR.F.K.0XzXbXcXxXxXxXzX6XL.B.t.C v Z %.|.N.=X7XL.M.N.M.J.Y.Y.J.J.Y.E.Q.Y.Y.Q.=X9X9X=XJ.J.Q.R.Y.5XqX9X5XW.W.E.Y.Y.Y.R.E.R.D.D.R././.W./.8X/.^.R.D.D.R.^./.0XcXqX6X4X/.^.6X0XxXxXzX/.).0XvXzX).~.~.`.vXHXxX0X).)./.)./.).R.).0X`.zXqX^.R.0X4X6X6X!.K.!.!.).).~.(.).zX`.(.(.zXzX!.].(.~.F._._.hXzXbXzXhX)._.!.].].!._.).zX(.).bXJXJXcXzX0XF.W.i.A a 4 f {.rX8X&XQ.T.T.T.Q.T.-X9X;XJ.T.&X7.7.j.m.j.v.C.-X>X&XtX>XN.T.;X&XN.9.X.) T R T _ X.6.q.u.B.N.N.N.M.j.f.M.%XC.u.q.6.X.U Y 0.q.q.5.k.M.j.k.Y.W.J.E.7X^.L.l.f.j.M.J.T.J.M.M.C.T.T.C.T.=X-XW.W.7X4XE.^.",
"p m x F K ( } ' W  .XX2X;X9XeX8XC.%X%Xb.v.Q.;X;X9X&XJ.j.8.8.w.q.n.0.u.A.i.0.q.6.) 5.5.8.b.8.4.q.T.Y.k.7.j.k.M.J.J.h.h.j.J.Y.H.R.H.g.l.Q.T.j.k.J.7XH.v.r.I J u 1 3 p Z P T OX&X8XqX0X0X0X/.E.E./.wX4XH.H.8XwX4X4X4Xg.l.H.qXHXcX0XxX).^.^././.(././.(.(././././.(.R.^.).).).zXvXvX0XxXvXmXmXmXxX6X/.8X/.^.^.)./.R.K.=XQ.%Xn.U i.a.OX;XrXtXtXiX5Xz.4XE./.wXnXnXnXDXnXnXnXcXwXnXFXDXnXnXwX0XcXwX4XW./.0XcXcXxXmXnX/.mX0XqXcX0X0X0X/.4X9XnXGXFXwX4XW.0X0X8XwXwX0X7X^./.xXmXvXzXzXxXvXcXzXzXzXxXxXzX6XmX4X%Xu.j k j [ XXB.H.J.H.H.N.j.Y.R.J.H.M.J.R.Y.J.Q.4X5X9X4XW.J.J.4X6X4X8X9X4X4XW.R.Y.E.W.4XE.H.z.h.c.Y.R.U.D.D.3.G.R./.'.~.U.F.zXxXcXcXcXxXzXzXzXcXcX6X^.(.zXvXzXbXbXzXzXbXbXxXzX`.).(.).0XqXqX(.xX`.!.(.(.E././.R.^.^.K.K.!.^.(.~.~.).).).).).0XzX`.~.!.!.~._.zXhX_.hXbXNXbXkXkX).).`.).(.).xXzXhXhXzXxXxXbXmXxXY.o.h > > A 3XVXVXeX-X-X-XT.k.%XT.>X%XM.%XM.R ,.7.j.N.T.T.C.N.Z.>XZ.C.,X%XC.v.E E Y U U U Y Y X.+.O.6.i.n.N.N.T.M.N.C.v.6.5.+.U U X.q.Z.b.k.q.w.m.J.Y.E.R.J.K.L.z.g.g.k.J.Y.T.M.T.&X-X-X&XQ.T.Y.Q.E.W.7X7XE.^.",
"p x p x K } @.Q [ O.XX2X>XiXiX-X>X%XN.v.b.N.T.&XM.v.8.8.8.q.q.q.u.6.6.X.T 6.n.6.+.6.) T X.T ) b.T.Q.Y.Y.Y.M.T.9Xk.1.7.<.k.5XY.Y./.H.k.k.j.v.m.f.z.z.J.*X..J 9 3 9 x Z W | %X;XiXwX4X/.8XwX0X4X/.Y.E.E.E.qXcXwXwX/.H.4X/./.cXwXcX0X6X).)./.!.R.R.^.!.R.!.^.(././.!.!.R.!.6XcXxXzXcXcXxXxXxXvXbXzX^./././.zXvX0XR.7X9X=X%Xn.X.@X@XOX%X&X&XT.Q.=XJ.x.4XDXDXcXwX0X4X0XwXnXnXnXnXnX4X4XcXwX4X0X0X4X/.0X0XnXHXDXxX0X/.6XK.E.6X4X0XcX8X8X4X8XnXGXwXqXnXcXnXcX0X4X/.H.g.D.).zX).!.^.6XzXvXxXxXxXxXlXzXbXvXqX9Xn.N v A #.t.r.Y.E.x.z.M.j.k.M.M.M.M.J.J.H.J.=X4X4XQ.Y.J.M.H.4X8X^.R.Y.H.L.R.R.Y.x.z.z.x.R.W.R.R./.'./.W./.^.R.R.U.U.R.).0X0X/.).vXmXzX).0XF.).xXzX).zXbXvXbXzXkX).(.).xXcX).).).!.U.U.~.`.0XkX~.).0XR.D./.R.D.D.K.K.R.^.^.R.!.).0X(.U.!.`.zX).~.(.!.U.~.xXzXhX_._.kXbXbXbXxXzXbXvXzX!.!.).zXzXbXNXJXvXzX6X^.7...Z > > H #XZ.W.eXeX8XW.-X9XSXT.%XM.9.v.q.5.,.9.f.N.T.T.N.N.v.%X8.C.;X8.9.T 4.X.o.6.t.s.s.p.p.t.6.6.u.p.B.v.v.9.9.8.4.X.5.6.i.n.C.5.5.5.b.b.8.J.Y.k.j.H.H.l.z.z.j.x.J.Q.Q.T.T.&X%XT.Q.;X;XT.Y.=XW.7X6X7XK.L.",
"p p z M K } } Q [  .XX:X;X9X;X&Xb.N.N.v.8.9.5.j.j.8.9.C.v.v.N.6.6.6.+._ X.6.u.u.q.6.u.0.X.6.u.8.&XT.T.Y.Q.W.W.W.Y.f.7.j.j.N.Q.k.R.H.M.M.j.b.M.7.m.T.J.OXt.] u 9 p x J W O.%X9X9X0XcXwX4X/.8X4XR.R.c.H.z.wXGX0X4X/././.^.4XqXqX0X6X6X6X6X(.R.!.(.(.R.R.!./.(.!.!.(.F.!.(.R.^.zXxXcXzXxXcXxXxXcX0X^.W./.0XzX6X/./.^.Q.m.%Xi.X.@X@XOX&XtX-Xj.N.Q.W.K.qXnX4XE.4XwX0X5X4X8XnXcXnXnXnXwX4X4X6XW.D.D.E./.6XxXnXnXcXcXnX4Xz.R.nXxX0XcX8X0X4X4XwXwX8X8XcXcXnXwX4X0XE.D.L.).^.!.G.F.).zXxXxXzXhX).zXbXbXxXlX7XrX2XC h S #.U 4.H.R.H.j.j.C.T.k.l.x.x.M.Y.Y.Q.Q.Y.5X4XM.J.Y.L.E.4X7XR.H.H.L.z.<.1.x.H.z.x.8X'.8X0X'.R.D.R././.^.bXzXR.!.bX).0XxXcXcXxX).^.zXbX)._.).zXhXzXvXvXJXvXhX(.kXxXxX).zX`.R.R.!.!.~._.`.!.F.!.!.R.^.E.R.R.E././.^.K.~.).0X`.(.~.).0X(.~.).zXzXzXzX).zXhXhXhXkXhXhXkXbXbXxX`.(._.).zXhXbXbXzXvXcX0X/.K.M.| z > # v }.C.Y.M.eXeXiX9XiXSX;Xv.b.N.4.R q.v.) 9.T.-XN.M.N.N.j.M.8.8.b.b.%XOXOXn.p.i.n.a.u.e.O.u.X.X.6.T X.X.) T T ) X.X.X.u.N.N.6.) 5.q.j.T.Y.Y.M.M.H.x.g.d.H.J.J.Q.=X5X9XT.T.N.N.N.M.T.=X=XQ.=X4X7X^.K.K.",
"y z x m J } } '  .#.OX:X&X-XM.7.5.6.9.9.9.5.8.j.5.8.8.N.8.q.q.X.X.6.0.u.u.0.+._ 6.+.6.u.q.B.C.v.j.k.M.N.k.j.j.N.Q.Y.7.w.8XQ.j.M.z.z.M.b.v.n.N.M.z.7.8.5.#.}.z 9 p x H W O.N.;XW.wXcXqXY.D.R.W.E.Y.H./.H.0XqX4X0XwX4XR.E.0XcXqX^.).^.!.(.)./.^.^./.!.R.(.).)././.R.!.0X0XF.F.zXDXvXxXcXvXxXcXvXzX8X/././.)./.^.E.R.J.M.%Xu.| s.s.N.C.rXrXN.M.Y.=XqX0X/.R.E.0X4XE.H.H./.cXcXcXcXwXcX4X/./.H.2.<.g.K.R./.0XwX0X0X0X4XK.4XnXxXnXmX0XR.E.W.4X8XwXwX0X4XwXqX0XwX0X4XxXzXzXxX!.K.^.!.!.R.).vXHXHXNXxX).zX7X5X*XS k V  .o.v.J.J.x.j.j.j.k.h.k.J.J.Y.Y.J.Y.Y.J.4X4XJ.Y.Y.L.J.L.S.l.g.g.j.d.x.H.H.E.eXDXnX8X'.^.R.D.D.R.).cX`.qX0XR./.JXbX`.zXzX6X6X^.^.zXvXxXzXxXvXbXzXbXbXJXHXvXxXbXbXbXzXvXzX(.).).~.~.~.).!.F.!.R.K.R./.E.R.E.^.^.R.K.F.!.(.(.~.~.).0XbX`.zXvXbXzX).!._._.hXkXzXkXzXbXzX).(.~.!.!.!.!.).zXhXhXmXDX6XL.K.j.I y > > V a.C.Y.j.&XeXSX9X9X&XT.8.8.b.B.B.&XN.w.j.N.M.M.M.M.M.v.T.M.v.v.5.9.q.v.n.n.p.u.e.o.X.^ ^ U U T T 4.X.T T 4.u.u.X.R 6.q.6.5.9.v.n.N.M.M.M.M.M.J.H.k.x.J.M.k.M.J.J.Y.T.T.J.N.M.m.M.J.J.J.R.4X6X6X7X/.",
"u z b G Q } @. .#.O.n.OX&X9X;XT.C.n.v.v.b.N.N.N.%Xv.4.) ) N.u.5.) _ X.5.6.q.u.u.u.X.R R T u.%X%XM.j.j.N.Y.M.j.j.M.7.j.Q.Q.k.j.M.Q.T.Q.C.u.q.q.7.f.R R E o.$Xb 9 p b J ! 6.N.=XY.0XwX0XR.x.x.x.z.D.H./.H.W.W.E./.R.R.R.R.^.6X0X8XxX).!.!.^.(.).6X/.(.^./.).).8XqX0X).6X).R.!.6XzX(.0XmXDXzX8XzXqX4XE.R.R././.4X7XE.H.T.C.t.| ..%.OXC.>XpX-XM.J.4XwX4XE./.cXHXFXnXW.R.4XqXwXwXnXnX8X4X4X0X7XR.E.7X/.^./.qXcXcXcXnXcX7X8XnXqXqXcX0X4X8X8X4X6XwXwX4XmXmXwX6XwX0X^.^.R.(.zX).!.).(.6X0XxXxXzX).lXbXvXxX7X-XOXS k v W n.%X=XE.R.E.Q.T.Y.H.x.D.x.Y.W.Y.H.R.Y.W.4X=X4XR.H.L.R.^.4X4X/.W./.nXnX4X4XGXGX4XwX8X/.~.R.R.^.8XcX).8X/.R.(.zX).zXzX`.).).(.).bXbXbXvXNXNXvXbXzXzXNXHXJXvXbXbXxXzXvXzX).zXbX`.)._.hX(.!.~.^.R.E.R.R.H.H.H.K.K.K.G.F.!.~.~.~.).`.!.F.].zXbXxXbXxX_.).zXzXkX).).zX`.).(.).).0XzXzXxXbXhXlXDXDX/.x.x.5.V 8 % # z %.OX&XM.T.;X9XJ.T.M.T.M.v.N.C.b.v.v.j.v.j.8.M.T.M.M.j.j.9.,.8.5.v.v.v.B.B.n.n.p.t.6.6.6.u.6.T T R X.X.4.6.8.u.u.v.q.b.n.j.5.4.w.N.N.J.M.m.m.M.k.j.k.m.j.j.M.J.M.M.j.j.m.N.N.M.M.J.J.J.R.W.7X7X^.L.",
"y z m K Q } @.@.y.O.n.OXC.%XC.C.&XC.b.v.b.b.b.v.M.8.8.q.b.2X8.T R R X.u.u.6.X.X.8.4.X.4.8.b.b.v.Q.k.j.T.-XT.M.M.j.1.N.;XM.j.C.N.M.k.n.n.u.v.b.j.7.:.,.R o..Xv 9 p F J [ u.C.T.J./.4XW.Y.H.D.x.z.H.H.H.x.E.E.R.E.c.H.E.R.R.^.8XwX6X/.^.!.R.R./.0X/./././.(./.6X0XcX).!.!.!.(.).6X0X6X0X6X^.^.0X0X4XW.E.E.E.R.R.R.^.J.J.v.6.|  .y.OX%XC.-XT.j.J.Q.0X4X4X0XwXwX0X4XnX8XwXnXwXwXnXcXcXwXwXnXcXcXcXnXnXqXqXcXnXMXnXnXnX8XwXnX4XE.6XwXnXnXcX8X8XwXcX8XcXcXwX0X6X6X4X6X0X0XcX(.R.(.^.0XzXbXvXxX).).).zXxX7X;XXXP f j W n.N.J.H.L.W.W.Y.Y.L.H.x.x.E.4XW.Y.W.R.W.4X8XwX4X4X4X4X8XcXwX4XE.4X4X4X4X4XqXqX0XcXwX0XqXqX8X/./.)./.zXxX8X0XzX).0XzX).~.(.).zXvXzXvXHXHXJXvXvXbXvXvXNXbXbXvXvXbXzXcXzX).xXzX)._.).kX).(.(.^.!.R.l.c.c.S.S.D.K.K.D.R.~.(.(.).).).).G.G.~.(.).zXxXkXkXzXzXhX(.(.).zXzXzXzXbXJXJXDXvXvXzXlXcXwXR.k.f.4.V 9 # + q  .v.;XY.J.M.M.8.N.M.T.C.M.N.N.q.4.v.b.M.v.j.M.T.M.7.7.j.b.N.N.M.M.N.B.v.N.:X*XOXn.n.OXn.:Xn.X.X.T 6.6.6.6.8.u.B.OXC.&X;XT.j.5.j.T.J.J.N.M.m.k.k.j.k.M.k.m.Y.Q.J.M.Y.J.T.Y.N.j.f.f.Y.J.L.R.^./.^.L.",
"y v H J ' @.$.$.t.O.XX2X;XN.q.N.b.u.8.6.8.8.8.6.v.v.v.6.4.C.u.n.+.T R T 4.6.v.C.C.C.C.%X;X&XT.N.M.M.N.Q.Y.k.M.T.M.T.j.w.&X&Xb.M.7.,.5.q.u.b.N.m.f.f.f.v.u.s.Z q p F H ] i.C.J.J.E.H.x.z.x.Y.E.W.R.E.H.Y.E.E.R.^.^.E.R.E./.0X8X/.K.D.F.R.^.!.R.!./.).6X/.^.^./.6XR.R.K.D.F.!.0XcXcX/.^./.4X/.H.d.c.H.E.E.E.E.E.W.J.M.M.8.X.| | y.n.N.9.4.9.7.J.J.c.D.R.4XwXwXcXnXwX9XwXGXnXwX0XE./.4X4XqXwXcXnXmXcXwX8XwXqXE.M.k.4XqXMXnX4X/.6XwXwX0X0XwXcXwXcXnX6XwXmXcX/.^.0XcXxX0X0X(.!.6X).zX0XxXvXvXxXxXzX6XxXqX9XOX] k B  .|.%XJ.S.D.R.Y.k.h.z.L.E.W.qXwX4XE.4XR.R.4X8XnX8X8X5X=X=X8XqX8X4XwX4X/.0XwXwXcXDXcXwXwXcXcX0X/.^.F.R.0XxXzXzXzX6X(.).~.!.~.).zXbXzXvXHXHXNXvXNXJXvXvXbXzXbXvXvXbXzXbXzX).kX).!.!._.).).~.R.R.K.D.l.S.L.H.D.D.D.K.U.R.~.).).).).).0XU.F.~.(.(.`.zXkX)._.).).).).).zXbXcXzX`.0XzX0XzXvXzXhX6X7XQ.W.=Xq.S 9 % @ w ! 5.T.J.N.8.j.j.%XN.j.j.q.j.v.N.M.C.N.T.%XJ.N.M.j.M.j.7.7.8.b.%X;Xf.j.N.%X;X:XN.i.n.n.u.B.v.X.q.u.B.6.6.v.C.N.8.X.v.8.8.j.M.M.M.N.M.M.M.M.M.M.M.N.J.T.J.M.T.T.M.M.T.J.T.T.Y.M.j.j.k.x.S.L.^.6XxX6X",
"l m K ' } @.$.$.#. .XX2X*XC.Z.;Xu.u.u.8.8.6.9.9.R 8.u.b.i.n.+.6.R T 9.b.%X&X&X&XrXuX;X-X;X-X%X5XY.N.J.Y.Z.M.N.T.Z.C.j.5.w.j.w.9.j.5.5.q.t.u.v.f.m.J.m. X|.s.Z q l G H [ n.%XY.W.R.H.H.H.H.H.Y.Y.Y.8XE./.H.D.H.4X/././././.8X6X/.0XR.S.F.R.!.R.F./.6X0X6X(.(.(.^.K.K.S.G.R././.0X4X4XwX0XH.l.2.<.h.D.E./.7X6X6X7Xx.M.v.8.6.| | t.u.OX4.R 9.j.5X=XwX0X4X0XwXwX8X0X8X=X5X9XwXqX0X/.E./.4X0XwXnXmXmXwX0XwXqXW.h.,.,.h.5XnX8XW.0X0X/.4XW.4XcXnXwXqXcXmXwX0X0X4X7X/.K.D.S.R.R.).cXzXcXxXzX).!.(.zXvXNXlXqXuXXX[ f B  .|.%XJ.L.H.R.Y.M.k.x.L.W.4XqXwX8XW.4XY.Y.E.4XwX8X5X4X4X5XwXnXnXnXDXnXcXwXxXcXcXcXnXwX0XqXxX0X6X/.R./.0X0X6X6X6X6X(.).~.!.).zXzXbXzXbXvXvXbXzXbXvXzXzX`.0XzXzX`.(.).`.)._.hXhX_._._._.).(.F.R.R.D.R.E.E.E.K.D.D.S.R.R.~.).).`.).).F.G.!.).).zXxXzXkX)._.).).).(.(.).bXbX`.(.(.(.^.lXbXbXlX0X8X9XMXGXn.j 1 % # q ~ i.M.m.N.j.M.M.T.C.j.w.b.j.j.M.N.N.v.N.=XY.M.k.f.<.f.j.J.Q.N.J.v.f.v.J.%XN.v.u.i.8.u.8.v.v.8.v.B.B.u.u.B.C.B.8.5.9.9.5.8.j.m.M.M.M.M.M.M.M.k.k.M.J.T.J.m.M.M.M.Y.j.j.k.T.Q.Q.T.Q.k.M.H.L.K.7X7X/.",
"v Z Q } @.&.y.t.#.o.i.i.0.0.0.i.5.6.6.6.8.8.8.9.u.b.) 4.6.8.+.6.N.N.b.v.b.C.%X-XT.%XT.T.-XJ.j.m.Q.T.Y.N.T.T.Z.b.N.j.n.b.R ) q.) q.5.5.0.0.u.b.m.H.J.J.B.p..XZ y z K H ] A.%XY.4XR.E.4X8XE.x.z.x.H.8XY./.D.c.H./.R./.4X/.^.^./.6XcX).K.D.F.K.R.R.^.).6X)./.(.!.R.!.(.H.D./.8X^.R.0X0X0XH.:.:.c.4X4X8X6X4X7X/.E.H.f.T.f.8.6.Y | O.n.rXv.8.v.M.5XQ.H.R.E./.0XcXnXnXwX=XW.5X8XwXnXnXnXDXDXnXcXnXcX0XwX0X0X0XE.h.h.N.N.;X9X=X4X4X/.W.4X4X6X8XwXwX0X0XwXR.K.^.0XcX0XH.S.c.R.^./.8X!.!.(./.(.^.).0XzXzX6X6XrXa.[ f j ! u.v.S.L.L.L.H.M.E.H.Y.W./.8XqX0X4X8XE.E.W.W.wX8X9X9X9X9XqX8X4X/.4X/.^./.0XxXcXcXcX0X6X0X0X0X0X0XxXcXzX).).6X6X6X(.).~.!.).zXbXcXxXkX).zXxXzXzXbX).).`.`.).).~.!.).).!.!.hXkXhXhXhX_.hX).U.R.(.R.E.E.E.E.K.L.D.S.~.!.~.(.).).(.~.!.!.).kX).).).!.zXzXzXzXzX).(.).).zXxX`.`.zXzX6XzXvXbXbXmXnXMXGX9X8.k - + # p ..*XN.m.%X8.B.N.M.T.b.N.T.b.j.b.j.v.j.M.N.k.j.m.M.Q.=XH.Y.Q.T.;X&XM.M.M.M.v.q.q.v.8.q.N.B.v.v.q.v.u.r.r.r.6.9.v.%Xj.J.=XT.M.M.J.T.M.m.M.M.k.f.7.j.j.M.M.k.M.J.J.Y.N.M.M.J.Y.J.M.M.H.E.W.K.K.E.P.L.",
"Z H ' } &.}.y.y.^ o.a.i.t.u.0.+.T ^ 4.q.B.N.N.b.8.%X8.u.6.T ) 6.v.M.v.8.8.M.J.M.%XT.7.,.5.5.4.v.j.T.&XN.j.j.k.j.C.C.j.j.Z.j.8.b.j.5.0.0.+.X.8.8.m.J.-X8.X.{.v l l H A ! n.%XJ.4X/.4X0X0XE.x.H.E.R.4Xz.E.Y.Y.R./.0X4X^.E./.4X^.D.S.R./.6X^.F.K.^.R.(././.(.(.!.F.F.0X0X/.6X/.^.0X/.E./.E.H.Y./.4XW.E.R.R./.6X/.K.g.T.9.4.X.D ! | n.pXC.N.N.j.J.l.l.E.0X8X0XwXcXnXwX4X4XqXwXcXnXwXwXcXnXcXcXmXmXcX0X4X/./.H.x.5XLXFX9X=X8XqXR.H.qX4X0X4XW./.wXcXwX^.E.6XxX/.4XzX/.D.D.^./.4X6XR.!.6X0X6X(.^.).6X6XxXqXuXa...f j ! u.m.J.^.E.L.Y.T.H.k.T.eXqX8X8X-XeXqX4X4X8X4XwXwX9X9X8X4X4X4XwXnXcX7X/.cXmXcXcXDX6X4X/.4X6X6X4X7XE.^.K.S.K.R.R.!.(.).!.K.(.zXzXbXbX).~.zXvXvXbXvXzXzXzXzX).~.(.`.xXkX!.!.hXhX_._._._.).).U.!.).^.R.H.H.D.D.L.L.L././.(.(./.(.!.R.!.(.zXkX).kXbX_.hXzXvXJXNXbXxXbX`.zXzX`.zXcXcX0XvXNXbXvXHXmX9X9Xv.| k 1 + # x }.3XN.N.;X8.j.J.N.&XN.Z.N.j.N.&XT.T.T.T.M.7.g.H.L.4X4XL.E.Y.M.J.j.J.k.j.M.T.N.q.4.u.8.B.6.9.u.8.B.u.+.T T R T 9.B.j.N.T.M.M.Y.Y.M.f.f.j.j.j.7.7.j.7.M.M.N.Q.T.M.M.M.k.k.M.J.J.M.M.m.R.7X4X4X7X6X/.",
"H J Q } &.}.y.#.| ^ u.|.a.i.O.+.6.X.E 5.B.r.B.u.N.q.6.b.6.X.6.) j.7.f.m.k.m.N.N.T.N.j.8.v.q.q.v.q.N.N.v.q.q.q.q.8.M.M.5.5.M.M.7.9.5.) +.+.U E 5.,.<.M.5.6.#.j h l Z H W t.%X-XR.^.^.cXmXR.c.E.qXwX6XE.S.D.E././.E.E.R.D.c.D.H.R.D.^.8X6X0XcXzX(.`.).).).).).).(.!.^.^./.cXcX8X8X0X8X/./.wXDXqXR.W.Y.Y./.0X).^.^.G.m.M.6.O.P A A t.ZX;X-Xm.S.7XP.E.W.4X5X5X8XwXGXwXqXqXwXwXwXwXwXcXFXnXxXmXcX6XzXxXE.cXK.g.wXnXnXmX7X7X6X^.^.6X7X4X4X4X4X6X6X8X0X^./.(.R.!.8X).R./.0XcXwX0X/.R.D.R.0XxX0X0X0X6XzXzX0X;X@X[ h k [ |.J.E.E.^.W.T.M.W.W.8XeX-XQ.Q.Y.9XeX9X4X8XcXcX0X4XwXwX4X/.8XwXxX8XR.K.6XxX0X6XxXnX7XE.7X4X7X/.K.^.J.L.L.K.^.^./.^.zX).!.).).).vXbXHXvX).kXHXHXvXvXbXzXzX`.).).kX).!.]._.kXhX_._.!.).kX).^.!.R.F.D.R.E.L.l.l.S.L.R.4XE.E./.K.S.K.F.!._._.hXNXNXNXkXzXbXzXkXkXbXvX).xXbXzXzXbXvXvXJXbXNXJXNXmXiX;X{.A 4 # @ > K }.:X=XJ.=X5X=XY.W.Y.H.x.k.k.Y.Y.T.Q.T.J.7.H./.D.E.4XR.D.D.H.Y.M.j.k.m.k.M.C.b.8.q.i.6.4.6.u.8.4.R E X.X.R T u.N.v.b.N.N.M.v.j.v.M.M.M.M.M.M.j.7.7.7.w.w.b.-XT.j.j.v.m.M.M.J.J.H.H.Y.R.R.R./.0X0X6X",
"H Q } $.s.}.y.#.e.#.|.a.u.n.u.6.T e.r.8.4.4.v.B.N.i.q.u.| Y X.X.8.5.j.m.m.M.T.Y.7.T.%Xv.b.N.u.5.5.6.u.b.v.8.4.4.j.8.8.8.j.8.7.5.R 4.) _ t.i.0.5.j.,.j.v.a.@.f c z J [ [ t.OX-X4XqXzXzX).K.^.0X/.4X6X7X^.R.K.H.S.R.R.R.H.H.R./.0XxX^.R.6X0X4X6XcX).).).`.0XzXzX0XR.).8X8X0X8X0XcXcXqX8X/.'.qXqX/.Y.x.Y.^.6X).!.!.K.x.v.8.t.A Z A O.>Xb.M.l.S.^.^.K.4X5XQ.W.eXwX8XwXwXwXwXwXwXqXqX7XwXqX7XcXxX6XwX6XS./.D.S.cXmXcXcX^./.0X/.^.7X^.R.W.W.E.4XcXcX/./.4X8X/.8XqX8X!.0XwXwX4X^.^.^.^.^.0XzX)./.^.^.!.).).%Xu.A f k W B.J.J.K.L.Y.C.Z.T.=X=XM.k.&X9XQ.9X9X9X9XwXnXcX6X8XwXwX8X4X4X/.W.D.l.S.R.^.E.^.0X7X^.E.^.4XqXcX6X^.^.^.E.R.^.^./.(.xXzX).zXzX0XbXvXHXHXJXvXvXvXbXvXcXzX(.(.zXbXvXvXzXkXkXkXkXhX).kX~.U.!.`.0X!.S.K.R.K.z.g.g.S.H.E.Y.L.4X4XS.2.S.^.F.P.hXNXbXkXbXhXbXNXbXkXhXzXvXbX).(.zXbXzXzXvXbXbXJXJXbXxXiX2X&.H 9 > @ > K .Xe.J.J.J.Q.=XT.M.-XW.Q.Q.T.T.T.T.M.Z.Q.J.=X8XH./.H.x.x.H.Y.Y.T.Q.&XQ.M.v.b.q.5.6.X.| T T T ^ 5.6.8.5.) ) q.OX&XOXq.N.N.8.8.N.N.v.8.j.j.j.M.N.Z.Z.M.M.w.7.b.j.7.j.M.M.J.J.Y.Q.Q.Q.H.H.H.H.Y.R.E.R.",
"V W @.&.}.{.s.y.s.p.XXu.e.|.n.i.u.v.n.r.r.B.B.N.v.u.u.u.| U 0.i.u.q.v.j.9.,.9.7.v.b.b.b.b.u.6.0.q.5.X.6.u.q.v.N.8.9.5.v.m.7.,.,.b.5.T _ O.+.X.0.n.j.n.r.y.%.v l z K ' ] e.OX-X5X4X7X6X)./.0X0XY.H.L.L.H.S.L.E.^.R.R.R.R.E./.0XxXxXR.H./.6XR.R.8X).).`.`.0X0X`.`.!.`.0X).`.0XzXDXqXcXDXcX0X~.c.1.x.H.R.).6X).(.P.K.7.9.5.t.C B ] XXVXN.M.m.z.S.L.L.R.Q.W.4XqXwX8XqXqX9X9XqXqXqXqX4XwXwX6X0X4X4X6XW.h.H.D.H.cXwX0X0X/.6XcXqX4X7X^.W.Q.Y.R.4X8X/.Y.E./.'.0X0X8X/.^.0XwX0X/.R.R.^.6X(.).).(.(.).).~.~./.Q.6.C h k A n.N.J.S.l.j.k.b.Y.Q.W.Y.M.&X5XJ.=XQ.Q.4X5X7X^.R.W.=X;X-X=X&XT.J.x.M.L.Y.L.L.R././.6X6X^.^.xXmXzX^.^.^.^.^.!.!.^.!.6X6X6XzXcXzXcXvXcXDXHXHXvXvXJXzXbX`.!.R.).zX`.zX`.).`.zXzXzXzX).).).kX).!.R.!.K.K.D.c.D.E.4XqX-X;XM.1.d.x.D.D.D.G.!.zXbXhXhXkXvXvXbXkXkXzXJXHXvX_.!.bXJXbXbXJXJXJXvXbXvXDX9Xn.] v 8 > - 1 K .X6.N. X X&X&XT.N.C.C.T.Q.Q.Q.Q.T.;X,XtX9XeX,XJ.Q.N.M.M.N.b.w.q.q.b.Z.Z.C.A.t.+.+._ U Y D Y | u.n.B.8.8.N.&X%XN.b.v.N.b.5.8.N.N.q.k.j.f.7.7.7.7.f.j.m.j.j.m.j.j.M.M.M.m.v.k.k.k.k.J.E.E.E.R.W././.",
"v Z [ &.{.{.}.a.s.p.XXu.e. XOXn.OX4.4.9.v.N.8.q.4.6.5.6.+.X.u.n.0.q.b.b.q.8.q.v.Z.u.5.q.b.0.X.5.X.X.9.v.N.N.b.b.N.M.j.9.7.M.T.%Xv.5._ +.+._ 0.OX%XN.i.|  .@.b u b J J W y.:X;X=XK.K./.qX4XL.H.R.R.K.H.l.g.z.H.E.E.E.R.R.R.^.(.).^.^.E.R.K.K.F.F.R.R.~.).`.`.).).).`.(.(.zXcXbXvXzXcXcX8X~.R.D.c.D.E.8X0XzXlX(.K.D.<.,.X.O.C v W O.OX8.m.L.S.z.L.R.H.Y.9XqXW./.qXW.=X-X5X8X8X8X8X8XwXwX8X8X4XW./.W.z.Y.E.E.8X4X4X4X4X4XwXqX7X^.W.=XM.x.Q.=XJ.x.H.Y.Y.W.0X0X8X/././.8X0X/.R.K.R./.).(.).(.).6X0X^.K.^.%Xt.A h v P p.N.H.S.l.j.w.q.j.j.J.&XT.N.N.N.&XT.T.5X9X4XW.E.Q.Q.Q.&X&X&XT.N.J.Q.-XW.T.Y.Q.W./.4X0X/.R.).qX8XR.K.K.R.!.~.~.!.!./.8X/./.8XzXvXJXzXzXHXHXHXJXJXJXHXHXJXvXJXvXzX~.!.!.).zXzXzXkX`.].F._.`.).(.(.cXzX).^.^./.4X4XY.Q.k.,.7.M.H.l.l.!.zXxXzXzXbXkXvXzX_._.kXbXvXbXzXkX`.zXvXvXvXbXJXvXbXbXvXDX;XX.C l 3 > - 1 b -.e.u.u.OX;X%XN.C.C.Q.Q.-X8X8X,X;XtX>X,X,X;XN.j.M.M.C.T.T.T.T.T.C.C.Z.q.+._ U U | | | P D ^ i.XXXXZ.M.T.-X-XN.j.b.M.j.8.8.8.5.8.8.M.M.k.j.f.f.f.j.f.k.J.Y.J.M.J.Q.T.C.J.M.m.k.j.j.z.H.Y.H.H.R.E./.",
"Z J [ &..X.Xa.y.a.i.OXn.i.B.N.n.B.4.u.8.v.b.8.b.9.8.5.8.q.6.0.6.0.q.i.i.0.q.b.b.5.b.b.0.q.0.X.U ) X.4.4.8.N.N.j.7.M.&X9X9X9X;XT.8.N.OXi.0.u.n.n.;Xi.+.| [ J y l m J ' [ a.@XOXN.J.R.W.^.L.j.j.T.H.H.H.L.R.K.H.H.R.R.R.R.R.!.!.!./.0X4XD.l.H.R.D.l.G.D.R.~.).`.`.).kX).).xXcXxXcXcXcXqX/.~.R.R.D.H.7XxXzXzXlX(.L.L.j.8.| ] k h Z ..C.N.;XwXqX^.6X^.R.4XwXqXR.H.W.Y.Y.T.T.W.W.W.W.W.8XwXqX8X-XW.Q.T.Y.-X8X-X-X-XeX=X=X=X4X4XR.L.L.Y.j.k.W.-XY.Y.-XE.Q.Q.eX0X4X4X0XW./.'.^.U.D.R.^.).R.~.~.!.(.(.F.R.R.C.t.C 0 k ! i.B.M.x.k.j.w.) ,.,.7.M.j.j.M.C.M.j.j.T.-X%X%X=X-X%XQ.%X-X&XQ.T.M.Q.-X5X4X5X4XW.Y.Y.W.W.Y.Y.Q.Q.D.c.l.c.D.R.R.R.^./.qX0X(.~.`.zXHXJXJXJXHXHXJXJXHXDXHXIXIXHXJXJX`._.~.`.bXzX_.].F.G.G.!.`.`.zXcXvXcXzX0X8X8X^.R.=X7.<.7.j.h.c.R.^.zXvXcXbXbXbXkXzXkXbXNXHXJXzX(.kXzXbXbXzX`.`.zX`.bXJXbX6X6X-Xt.W Z 9 > - - q Q #.o.X.u.C.Z.n.T.&XQ.W.-X-X8X8X5XiX;XT.;X&XC.Z.T.k.Q.&XQ.&XtX9XT.b.n.q.5.5.5.6.u.X.+.X.X.u.OX*XOX-X=XQ.Y.M.M.J.&XM.j.j.j.5.,.4.8.m.x.z.f.f.f.g.j.H.H.J.J.m.m.J.=XT.T.Q.Q.Q.T.J.M.j.H.R.H.D.H.R.(.",
"Z J [ -..XoX{.a.XXn.OXn.u.v.v.b.B.N.%XB.m.%XT.N.N.T.b.C.;XOXN.u.i.q.i.q.+.5.5.5.5.q.i.q.+.T T ) ) 9.,.E R v.%X%X5X=XT.=XQ.Y.Q.5X%XC.OXC.i.n.N.i.C.i.O.[ [ K z p l J } ..O.O.4.5.7.J.J.M.Y.Y.M.v.j.j.k.J.Q.Q.E.Y.H.H.K.R.!.!.^.!.^././.^.R.R.R.R.S.S.F.F.R.~.).).~.kXzX`.`.).`.cXbXzXqX8X^.Y.l.g.E.7X0X6X6X(.K.S.z.v.u.U P h h V ..n.C.9X=XW.x.x.R.4XwXqX4X4X/.E.Q.Q.Q.W.W.W.W.W.eXeXwXwX4X4X/.Q.Z.Q.8X8X-XW.5XwX5X8X4X4X7XW.R.W.H.Y.Q.Q.W.8X8X4XW.T.R.W./.W.W./././.~.R.D.S.U.(.~.D.U.~.R.~.(.D.R.J.b.o.N 0 k  .p.b.M.k.j.7._ E R ,.w.8.5.6.u.5.X.T T 6.u.u.v.N.N.M.v.M.T.T.T.T.J.E.4X5X4X4XE.J.N.b.Z.T.M.j.j.h.j.f.1.7.h.c.D.D.D.R.8XbX).(.).kXbXJXHXHXHXJXJXJXJXbXcXDXJX0X).0XzX).).xXvXzX_.].G.]._.`.~.!.zXHXzXzXzXzXcXqX/.R.x.,.R 1.h.H.8XcXcX).(.zXJXJXbXzXkXbXJXJXvXzXkXhXzXkXbXvXzX_.`.JXbXvXvXzX).4X;Xa.@.K 9 # > - q Q e.B.u.6.v.C.C.Z.T.T.Y.E.W.4X0X8XqXW.Y.9X8XW.-XY.H.W.W.H.Y.=XT.7.1.j.M.M.T.C.b.N.4.q.N.N.C.&X;X-XQ.R.M.j.j.k.m.j.f.M.M.q.5.8.j.8.f.d.7.7.7.7.7.7.j.j.M.J.m.m.H.J.N.T.Q.Q.Q.T.M.M.E././.E.R.R././.",
"Z J } -..X.X.XXXXXXX&Xb.6.v.v.q.v.T.J.M.H.T.Q.z.Y.;XT.Q.9X;X%XC.b.q.b.q.w.j.N.b.j.w.8.q.5.Y Y q.E 5.M.N.N.T.Q.J.=XQ.Y.Q.=XT.J.M.N.4.4.u.u.8.b.n.6.u.O.I A K b p y J [ ' ! Y Y T R j.M.N.%X%Xv.q.N.M.v.v.m.k.k.M.L.L.L.R.^.^.^.!.K.R.^.0X0X6X!.R.^.R.R.U.U.R.R.!.~.).).(.(.~.^.0X).^.Y.D.c.H.E.4XE.^./././.P.L.z.5.8.e.U A h z Z ..i.%X9XM.W.R.L.J.-X8X=XW.8X8X4X/.W.W.W.W.8X8X9XwX0XeX0XW./.8XR.Y.=XW.W.W.W.=X4X5XwX4X^.7X^.E.7XE.4X4XR.W.8X4XY.Y.H.H.H.Y.R.Y.Y.~.R.R.U.D.D.R.).R.G.R.).R.~.).D.H.N.u.] j 0 j I t.v.v.j.8.,._ Y X.5.6.6.X.X.| Y ! ! !  .o.o.e.u.4.4.,.7.f.m.M.J.J.J.E.^.E.L.S.x.M.b.n.n.b.q.w.,.7.7.7.f.h.z.H.R.F.F.).bXzXlXxXzXhXNXHXHXHXJXHXHXHXDXvXcXzX(.~.(.).(.zXxXxX)._.~.`.~.].!.`.bXzXzXDXDXvXcX0X/.R.l.R ,.z.L.W.nXDX(.zX(.!.).vXJXvXbXhXkXbXhX_._.hXbXbXzXzXzXzXkXbXHXJXkXkXkX6X8X%Xt.' G < # > 4 q ' s.OXN.v.b.T.T.Q.=X=X=X4X0XcXmXmX6X^.E.6X/.K.^.S.L.K.E.E.7X6X^.L.E.E.x.2.g.l.x.H.x.H.J.T.J.Y.Q.=Xm.x.j.j.j.j.7.,.j.M.M.v.q.B.v.u.8.4.9.8.j.v.v.v.,.:.j.N.M.m.N.v.%X=X&X-X&XQ.Y.Y.E.W.E.K.D.F.R.R.",
"J ' *.}.}.s.s.a.n.OX&X6.) u.b.q.M.=XT.4X=Xm.E.E.l.Y.j.j.M.j.j.w.C.n.b.w.9.7.w.7.j.k.j.j.M.j.5.R 5.M.;X9X;XY.J.J.m.T.J.M.=XiX9XM.9.9.q.8.R 4.9.R ^ T D B v q q z m ' } [  .! Y Y +.u.v.B.n.6.+.i.u.u.v.v.v.v.N.Q.T.Y.E.R.E.E.R.H.^.^.E.^.0XcXxX4X/.^.R.D.U.R.R.E.(.(.!.K.^.^.R.E.E.E.E.E.Y.M.J.Y.W.E.E.E.E.L.m.v.8.e.t.] Q h z H ..0.C.C.,.j.M.m.T.N.N.C.Y.Y.E.W.Q.E.Y.E.W./.8XeX0XW./.^.Y.^.0XW.W.8XT.Y.E.Y.Y.x.L.7XR.L.K.L.S.E.7XE.K.R.^.^.R.H.D.D.x.x.H.R.H.D.R.U.U.R.U.D.R.^./.S.R./.U.R.!.l.w.u.t.U j h h j O.t.u.q.q.u.i.s.a.| Y U I P I I W W W W W W W ! ^ T T >.4.9.8.v.f.f.z.m.m.g.g.j.q.u.i.u.u.N.N.9.9.j.M.M.M.M.=X8XcX7XqXnXxXxXxX6XzXzXbXNXNXNXNXHXDXDXcX0X).).).).).6XxXxXzX).~.(.F.!.!.R.!.).zXcXcXcXzX).^.^.R.c.l.g.R.6X0XcXvX).kXbXbX).kXvXJXbXbXbXNXbXbXNXHXHXJXHXbX!.!.bXvXkX].]._.hX/.E.N.#.Z F 3 % < > 4 K o.r.i.B.C.b.N.9X;X-X4X4X6X0XxXxXcXxXqXmX6X^.qXP.K.L.R.7X6X7XW.^.^.^.L.S.J.7X5XqX^.L.z.z.x.m.m.m.m.j.j.j.j.j.v.N.N.v.u.N.n.i.u.i.n.u.6.5.6.5.X.T 6.^ 9.v.8.v.N.b.M.N.N.T.Q.Q.Q.Q.E.E.R.D.F.D.K.K.",
"Z ' } &.}.$.O.|.t.*X@Xn.n.OXb.u.B.N.J.M.m.m.H.H.H.m.H.J.j.<.j.Q.%XN.Q.M.7.<.,.7.H.M.k.m.T.N.j.j.N.5.8.-X-Xj.7.M.%XQ.J.M.=XuX9XQ.v.B.v.4.>.4.4.R ^ Y N N k h y z Z ' [ '  .#.t.O.t.O.o.o.| ! | #.t.o.6.u.u.n.OXb.N.b.M.N.T.J.M.H.R.E.E.E.4X4XW.L.E.L.D.H.R.R.E.E.R.L.H.L.E.Q.Y.J.T.N.N.M.M.j.j.b.M.J.W.T.J.M.B.v.o.e.#.A j l b G &.O.O.6.4.4.9.q.8.q.q.u.b.b.N.T.Y.E.W./.8X4X/.E.R.R.R.R.R.R.R.R.H.Y.Y.Y.L.H.L.K.J.L.L.D.L.K.E.^.^.E.J.J.L.L.L.K.L.L.L.L.L.L.Y.Y.R.R.W./.R.D.D.E.Y.E.W.E.R.Y.c.7.5.| U S k 0 h A s.a.u.6.+.a.@X$X&.@.] J J Z Z H K Z b b z b b V P ! ^ o.o.e.6.o.r.6.8.8.8.8.q.9.6.6.6.6.e.e.6.6.9.8.B.J.:X%X=X-X5X;X&XJ.N.N.N.J.m.J.J.L.L.P.7X7X4X8X4XE.R.^./.K.K.K.^./.7X/.^.^.E.R.R.R.E.^./.0X0XcX0XR.Y.4X/.D.l.S.R.0XvXlXhXvXkXzXhXhXkXbXvXvXvXzXbXbXbXvXHXNXzXzX`._.~.).).~.).hX).).7XT.u...H a , & % > i M I o.O.o.t.n.i.o.b.b.N.%X5X9X5X4X4X7X4X7XW.E.E.E.T.J.J.J.=X=XT.H.J.J.H.J.=X=X=X5X4XH.j.z.m.z.j.m.m.f.8.j.C.%XC.n.6.+.| | o.o.o. .e.e.#.o.O.O.#.e.O.#.t.6.| t.XXn.N.N.M.M.M.J.J.R.R.W.E.L.S.S.F.K.",
"J Q [ *.&.$.#.a.+Xa.u.*XZX@Xu.OXv.j.8.f.m.J.J.z.L.z.f.j.j.7.7.f.j.f.J.J.j.z.j.z.z.L.Q.=XT.v.7.q.b.C.%XN.q.8.8.8.j.v.v.N.%X%XM.4.+.6.u.v.v.8.4.T E D C N k z l h Z Q [ ..@.s.}.}. .! ! ! W A A W A A  .t.#.e.s.e.i.i.n.N.N.N.C.%X&X=XT.J.T.=XT.J.-XY.M.M.N.N.N.N.N.N.N.N.N.N.b.b.N.N.B.v.8.5.6.u.T.T.T.N.b.B.r.O.{.y.~ f 7 z } -... .o.o.^ T 5.i.u.u.t.t.u.u.u.b.j.M.E.Q.E.E.Y.M.E.Y.Y.L.H.H.L.Y.M.M.M.M.M.H.J.E.m.m.S.S.H.L.J.J.J.J.J.H.H.H.J.J.J.M.M.m.M.M.M.M.T.T.W.W.Y.M.N.T.T.T.T.N.N.T.M.8.o.W V v y 8 y v &.}.}.%.#.%.&.*.} J G F M x x x p p q q q q q q l v V A ~ [  .[ #...#.#.O.#.t.O.! ! ! !  .! ! ! o.o.e.a. X X X X|.y.#. .^ ^ ^ ^ ^ o.o.^ ^ o.6.4.M.f.f.M.M.f.f.H.H.J.J.R.E.Y.L.L.4XW.R.R.R.Y.Q.&XT.Y.M.k.Y.Q.J.j.f.W.nXmXmXxXlXbXhXhXhX_._.).zXbXxXzXxXmXmXmXxX).mXcX).K.D.R.!.K.(.~.)./.L.N.p.W l 3 & & & % < p Z A A I W W W P ! ]  .e.p.n.C.N.C.N.N.N.B.B.B.B.q.6.u.u.n.i.6.4.v.v.r.B.%X:X%X*X*X%XN.B.B.v.v.v.N.N.N.C.OXOXn.s.t.O.] ! ! W I W W W W W W '  .@.$.#.#.#. .y.XX{.n.n.N.N.N.N.N.N.J.H.m.l.z.H.K.K.",
"J A Q ....@.#.y.y.s.#.O.t. .P U u.r.8.8.f.B.j.5.4.,.4.8.v.N.N.M.j.,.9.,.R <.7.m.J.M.j.m.%XC.v.u.i.OXOXu.t.n.OXp.X.X.X.6.u.u.+.U U ! 6.n. XB.B. X|.{.$.A h z v h H Q ' [ @.}.&.*.Z B v V v h 0 f 0 0 c Z S W [ [ ] |  .O.O.O.t.n. XOX%XN.N.N.N.N.u.6.5.6.6.6.6.0.6.t.u.u.u.t.i.a.s.i.i.t.O...t.XXn.B.u.u.p.{.a.t. ...[ H G ' -.}.Q [ %.y.t.#.#.t.%.%.%.%.#.O...+.6.N.&X%XC.C.N.j.M.M.M.M.M.M.M.M.v.v.v.v.v.M.N.N.b.N.N.J.J.J.J.N.N.N.N.N.N.N.B.B.b.v.u.q.8.8.q.8.q.u.i.i.i.n.n.n.u.u.0.0.i.XXA.s.} Z z u 9 8 q p ' @.*.} ' J Z M x a i i i 3 < 3 < , > % > : > : > > 2 3 e a p p G m m m z h h 0 q q q q q q q 0 l h c H } $.$.} } J G V Z G V V V G H H K Q Q ~ o.R T q.v.9.6.N.8.8.u.b.T.%X-X%XOXB.u.u.u.q.u.u.OXN.n.OXOXN.u.v.v.9XMXwXcXmXDXmXlXzXzX(.(.).xXvXnX6X4X6X0XcXcX6X4X^.Y.x.x.L.L.D.E.K.7X7Xm.N.|.A p 3 6 6 < < i x M h 0 y y 7 w p y h c V A W ] ] #.#.O.@.@.@.@.@.A A A W W W S B W W P ] y.y.t.y.a.s.y.#.@.@.@...O.e.y.a.a.y.t.%.#.' A S B B v v Z G Z Z Z Z H Q Q J W Q W [ $.@.O.O.e.u.u.u.u.q.v.v.f.j.M.T.T.H.",
"W A ~ ..[ ..y.y.#.oX{. ...@.P j P ^ o.o.X.+.6.6.6.v.B.v.u.i.b.i.%Xr.8.R R 4.v.N.v.N.OXn.u.6.u.+X+X{.t.#.%.y.%...! P U  . .! P S V C Y ! 6.r.|.@X#X.X*.Z h h m Z } [ ~ W ' } Q V h 0 0 y q 7 1 - 1 ; ; 7 h b V v c v B B C A !  .o.e.a.a.t.O.o. .P Y Y P Y Y P Y A P W ! W W [  .A W W W A A [ y.#.O.| ~ I W S B c v v c b H } $.Z Z H [ ..[ P Z Z Z Z Z Z V B C | t.n.u.u.u.6.X.6.0.u.i.b.i.b.i.t.t.u.u.u.u.u.u.s.s.p.p.p.u.s.p.t.t.t.e.e.#.#.#.#.O. .| ! ! ! ! P I ! I !  . .! I I P A W [ ..[ H x 9 < 3 3 9 i x M G m z y 9 4 > % % % # + + + % % # @ # # # @ $ + + . + + # # > % > < > 1 1 - # @ # # % : > - 3 1 4 9 p r 9 8 q 3 4 4 2 8 8 9 2 9 9 r n L L L S U ! ^  .#.t.t.e.O.O.#.t.p.t.e.o.! P U ~ ! ! ] ..O.t.a.%.] ] %.XX2X2X%X-X9X4XE.4X4X6X^.^.7X0X8X9XY.M.m.M.T.;X-Xj.v.M.M.T.%XQ.J.J.J.-X-Xm.u. .c 9 , % & & 3 a F G p 4 4 4 # - 2 2 4 4 8 q y h h l l l l l l z z z p p p p p y q q l l z H Z V Z Z J J Z b Z Z V V A W ' ' Q Q ' H V z l l l l l p l l y q 0 q h h q h c c c c c B C P ~ ! ] | | e.u.i.N.%X;X%XN.",
"' ~  ...! ..}.}.{..X}.{.$X#X@.W [ %.{.{.#.O.O.e.s.|.|.t.o.O.t.y.e.6.|.*X*X@Xp.r.|.a.%.t.s.&.' Q @.Q Z A J H Z Z Z V A ' ' Z k h Z Z B S ! e.p.y.y.$.} K M z m K @.[ W A V v h q q 8 4 4 4 > - # - - - 2 i p 9 1 q 8 0 q h c v V V W ' Q A c f f v k v v v h h f h h h h h f h h h f h f h l Z Q S A C B k f 0 7 0 w 7 7 w l b G b l q f h g f 0 9 9 9 9 9 8 q q H ' [ ' [ @.[ W ! [ ..@.$.@.@...! ! ] [ { ' W W W W W H H H H H H H H H H Z V V H Z b v z z l h h l h q q h q 7 q q q 8 w 9 9 9 e 3 > & & , < 3 3 9 9 4 1 > > % + @ @ + + X X X + + + + @ @ @ + + . . . X o $ * + . # % # # % + + + + + @ @ + @ # @ # # # @ @ # > > > > - - - - - @ - : 2 < < 9 7 h c h c H W A A V B B V S V B V c h l v v b V v Z J J Z Z Z ' @.y.a.{.@XOXB.v.T.T.N.M.M.N.C.N.N.i.b.b.q.q.u.6.+.6.6.t.i.n.n.n.OX1X;X&XOX .j 0 > # $ % 3 a G } } F p 2 1 , : : , , > > 1 4 4 1 1 1 1 > > > % % 3 < , , < < < 2 2 2 q e p 9 w q 8 p p q 8 9 9 9 y h l l z z l l p q 8 q q 9 9 e 8 9 9 8 4 1 7 8 7 7 7 w q 0 0 q 0 q f h c B S S !  .#.y.|.|.|.s.",
"!  ... .! ..}.}.{.}.$.} *.} J ' -.-.}.}.&.$.@. .@. .! A W @.}.{.y. .....#.s.s.}.W [ [ J Z h h m q y p u u p p p u u p x x p p a F G K Q ..y.%.$.*.} K F M z m ' =.%.$.H h 7 7 w 4 4 > > % % % % % 5 5 , , - # > 4 1 1 1 4 8 8 8 q p l p 9 7 7 w 4 8 9 p p 9 4 4 8 3 4 4 4 8 8 8 u 8 w 8 q p l b h v v v l y u q 1 9 q r p g g q n n z p w t 1 8 4 < < < 4 3 3 9 p l z x b F F b z x m G G b z z 0 q y h l y q 8 q 8 8 4 4 4 4 2 2 2 3 2 9 3 3 2 3 3 < > > > > > > > - # # # # @ @ # > # @ O O @ + + + + + $ % & , % # @ @ @ + + + + + X . X X X . . . O @ @ @ + $ . . . X X X + * + + # + @ % # > > > # - - # # # # - > - # - 1 - 1 1 1 > - - - - @ @ @ - # # - @ - - - - 1 7 7 ; ; ; ; 7 8 8 8 9 1 - 1 2 2 3 9 i p p p p a p p u v Z Q ' ! ! O.X._ U E Y T T Y Y P ] ] Y P Y Y C C N N N S U ] ..a.t.#.y.A t 8 # @ # < a G [ $.} ( b 9 2 2 2 : : : , 2 2 1 1 > > > > - # @ + $ + + + $ % $ $ @ : 5 e e e 2 1 q 1 8 8 4 4 > > 4 4 1 1 1 1 1 - - - # - - - # # > 2 4 4 1 > - ; ; ; 1 ; - 1 1 ; w 1 1 1 1 7 w 0 0 f c B S P ! [ [ ",
" .#.$.^  .t.}.}.}..X} g w 0 q l p l z v Z H H H H V h h v Z J J Z c W } $.} A c b y 1 - 4 4 4 < < i i , > > > # > > > > > < i a 3 i a m H A C C b p 8 4 3 x ( -.}.}.@.W v y q p 3 3 < < < < 6 s s d s , & + $ 5 # , > - > > 4 - 2 , > 2 , , 3 5 # > < 5 s 5 3 5 3 3 < 3 3 i i i 9 9 9 i a p p x b H G b p q 8 3 p i r r r l v b x L K L p w 2 3 , , & % % % > > # @ # # % # > > > > 4 2 2 > > - # # # # > % # @ # @ @ + + O + @ O O + @ + @ @ + + + X X + X X X . . . O O . + + . . X X X . . . . . . . X X + + + + + + @ O + X . + + . . X X . . + + + $ & & & $ + + + + O O @ % @ > > 3 a ( } ' ' ' ' ' ' ' ' ' ' Q A B j j v h h 0 0 0 0 0 w 0 7 w w 7 1 ; 1 > # @ @ @ O @ # > - # @ @ @ @ O @ O O @ @ O @ $ & % # # # % # @ > 4 1 1 1 7 0 k j N N N j B N j k f f f f f k f f f k h f 0 f h y k k k V h 1 2 @ @ # 2 x W  .#.&.@.W c q w e 2 5 e r r r r q 8 1 2 2 : @ O O O + + @ @ $ + @ @ < e r a p 9 9 r 9 8 9 q q 9 9 i 2 , > > > # # @ @ O O O O O O @ > - - - - - - - 4 l l q r 0 ; 1 > : - # - - - ; ; 1 7 7 0 f h h ",
"y.{.y...y.|.{.oXs.&.Z 7 w 7 - - - > > - - ; 1 1 - - ; 1 7 7 7 w w - 7 u l l 7 1 > > - # > # @ % % @ O # % % + @ @ % % % % % % > & % > 8 7 ; ; 0 ; 1 > - 4 M ' *..X%.! W Q Q K b p a a a a a d F d F d a d i < 5 2 e i 9 2 9 8 3 9 > > > > > > , 3 3 3 i i s s i i i i e e i i i a x L G K K K ( J ' ' K G F m M b F G K Q Q ' } } } ' K G G F x a i i 5 < < < 3 % # % % # O @ % @ @ @ # # # # # > > - - - - - # @ + . .   . X X                     X X X X X X + . . + + . . $ + . . . . . . . X X . . + + + + # # % % % % # + O # % # @ # # @ > > , 3 e e e e 3 2 , 5 5 2 2 3 9 4 3 9 l ( -.#X1X1X1X2X2XyXyXyX2X*X:XOXOXXXOX@X$XoXa.y.t.%.#... .[ [ ' W C B V l p q 4 1 4 4 > - - - - - - - - @ @ @ # @ @ @ # @ O @ # @ O + + + # @ > p m V V C I [ @.%.%...[ A C C B C C C j B A } @.W B f 0 0 0 f f f j v z n p p b W #.r.u.{.a.#.~ C j c c b V G H H V V v c x z p 8 2 , , , & % # # > , 2 p x x b b z p z z h l b b b b m x x x a i 9 3 2 1 - - - - # - 2 q 0 0 h b Z G Z } .X#X.X.X&.W G 8 3 2 2 4 1 1 1 1 7 7 7 7 w 7 1 ",
"#.y.#.y.#.oXoXoX&.@.V 0 0 1 - 1 @ # # @ # - # @ # @ # > > # # > - > > @ @ # > # # # # @ @ + # # # @ @ @ @ + + + + % @ @ > % @ % % # # # # # # # # - > 1 9 v ' *.oXa.O. . .#...] W A S H Q H Z Q ' H G K m b b x z c v v V h 0 Z h l l 7 w y q p y p l l l z b m z v z h l x m v Z Z A Q [ @.@.&.%.&.&.%...] W H A Q [ @.#.y.y.y.}.{.}.&...W W H Z V z z l p u q 1 > 1 1 1 - - 1 - 1 1 7 7 1 1 0 h k H H B S c 7 - O         + .     o o       + . X + + X + + % $ < @ O # # @ - @ # : # @ O # > @ # # > > > 4 i i i y z l y 8 q 8 0 f h 0 h v h v v B B B C S A Z v l z z c k h f l p z v &.@X&X9X9XiXiXeX9XiXGX9XeXiXnXMXMXGXGXuXVXSXSXVXVXSXVXpXKXKXKXZXVXpX2X1X<X+XXX{.y.#.#.%.#.] B k k j k B k h k k j k 0 f 0 w 7 - # # O . . % > F } &.@.....#...o.t.t.p.O.O.6.6.X.O.i.n.u.|.|.p.n.OXXXt.| ! | o.o.O.s.@X@X{.a.OX*X:X%X;XrX*XOXu.o.o.o.^ ^ O.a.oX|.t.#.#.@.%.O.y. .W q i s s i 9 9 u a x K J ' ' J A A S A N W '  ...W [ W W V B A S v Z v v Z j j A W @.y.{.a.XX<X1X<X<X3XZX<X<X<X@X<X3X.X.X.X@.H V S W W @.B c l 8 1 e ",
"O.a.a.XX{.+X{.y.s.&.S h k 0 1 8 1 4 4 > > 1 4 1 - > 4 4 4 4 4 1 - > 1 > 1 1 1 > > - - - 1 3 1 - 1 1 > 1 1 - @ O @ > # @ - - - 4 3 - - 3 i 9 i x x x z v Z ' s.oXi.n.n.OX:X*XXXu.e.s.t.#.#.#.#.#. .U W { ( Z Z V W W ~ ~ #.y.! ' W H H B B S B A A A H Q  .[ ~ A W W Q W H W W W W ] @.y.%.O.e.i.a.|.a.a.t.O. . .#.O.O.e.u.p.B.n.p.a.XX|.y. .! | W P A S V V v v v z h v v v Z J V A W { =.%.&.}..XoX$X$XXXa.a. .p @       o O O $ . . . + . . . # @ O @ > 2 3 4 1 p q r F G V K G G K K G b l q z Z ' } } *.&.*..X}.s.s.s.%.O...#...%.t.t.{.@X@XXX|.n.n.i.p.i.p.s.y.%.=.@..... .~ V q b Z %.%XeX0X4X4X0X0X0XcXmXcXnXmXmXmXvXvXcXnXGXDXDXDXDXFXDXGXwX0XnXIXIXLXFXLXKXPXKXKXKXKXZXyXyX3X*X@X@X*X@X+X@X+X1X1X1X2X<XOXa.a.&.Q l 2 # @ . , p ' @.s.y.t.t.t.u.n. X%X XN.b.v.u.6.u.C.%XOX;X;X%XN.;XrXaX>X%XOX;X>X;X&X&X%X;XuX5X=X=X5X9XQ.5XMXKXpXpXuX:X;X>XtXyXyX3X3X3XyXyX:X;XOXa.H a a a a l z Z K ( [ [ ....[ [  .[ ..#.XXXX|.XX|.+X@XOXa.a.XXi.t.{.+Xa.a.i.t.t.u.:X2X>X%X%X;X;X;X;X*XaX%X X%X XsXdXaX<X@X|.s.%.O.o.e.#X$.W l r i L ",
"t.p.u.|.A.*XOXn.XXi.] P ] A B Z B S A S S B j j P ~  .[ [ @.$. .%.@.[ W P C C B ] [ [ W I ! ..%.} { J v h h h h z G ( ' } Q H H V A [ }.#X$X#X#X#X#X1X2X3XyXaXtXKXVXtXrXrXpXVXpXyXZXyX2X1X@X|.XXOXt.O.%.=.=.s.{.y.@X3X<X2XdX1X1X+Xy.t.t.{..Xy.}.XXa.y.y.a.XXoXoX{.{.a.a.s.%.%.%.t.t.i.XXn.n.OX2X2X2X>X:XOXn.i.u.u.OX:XOX;XpXKXKXKXZXyX*Xn.6.6.u.i.y.t.t.%.%.%.#...@.&..XoX.Xa.y.$X1X1X#X+X.Xi.XX1X2X@X+Xn.n.3X3X' > .     o O @ # @ @ : > > > - 1 4 8 8 0 q z Z / %.%.%.{.{.t.|.2X3X3XfX3X<X{.y.y.@X3X3XyXZXZXyXyXyXyXKXKXpX>X:X3X1X3XyX2XOXC.n.C.OXC.C.C.C.C.OXB. XOXXXXX@X*X+XoX@.z z v @.C.8XqX4X/.4X0XwXcXmXxXcXcXcXcXcXxXzXwXwXqX0XwXcXnXcXDXnXcXcXDXLXLXFXLXLXLXPXPXKXKXKXSXSXSXKXKXKXKXVXVXVXKXKXZXZXKXKXKXyXZXAX$X} l > % @ 8 Z @.]  .O.6.i.u.OX>X>XtX-X%XC.%X%XT.%X-X-X=X9XuX5X=X=X5XuX;X;X>X9X9X&X=X-X9XuXiX5X5X9X8X4XnXMXMX9X=X5XiXSX5X;X9XtXVXpXpXyXrXrX&X=XOX|.' a a a F Z Q } =.&.}.{..XoX+X1X1X1X1XyXKXZX3XyXyXyXyXyXyX3XyX1X*X1X+Xi.i.u.0.6.6.C.;X;X;X9XtX9XT.B.B.%X XN.N.B.%XsXsX*XOXOXXXn.t.O.s.dX1X{.' F e e ",
";X2X>XtXrXKXpXaX2X2XOXOX+XXX.XXXOX|.n.i.B.n.n.N.%X:X;X*X*X2X2X;X;X:X:X*X;XOX%X:X;XsX2X:XC.OX;X2X@X#X1X$X+XoX}.%.@.&.@.[ ..$.y.y.|.OX|.u.p.*X2X2X2XtXSXKXFXMX4XW.=X9XiXGXSXSXSXpXpXpXuXaXKXKXpXZX>X>XtXZXZXCXyX1Xi.2XPXKXaXaXaXKXZXn.t.|.2XyX1X:X:X2XZXZXZXdXdXZXyXyXtXyX2X;X;X2X2X2X2XtXpXSXKXKXKXKXKXZXpXtXrXrX>XpXKXKXMXMXKXLXKXKXKXKXVXaX2X;X2X2X2X2X1X1X1X*X*XOXA.n.C.OXOXOXq.u.i.b.A.n.B.OXv.OXN.tXrX%XaX1X-.3 +     $ @ r G ( } } } ' } *.[ @.&.&.$.#.a.XX<XaXaXrXaX;X%X-XrXsX5X5XsXsX;X%XC.-X>X9X9XiXMXiXiXnXFXLXLXLXmXnXpXrXtXSXtX%XN.M.v.m.M.M.T.T.=X=X=XqX9X&XC.%X%XOXXX*.z 7 0 s.>XeXqX4X/.4X0XxXcXDXcXcXcXcXxXzX0X6XqXwXcXcXcXcXcXwX0XDXDX0X/.wXDXmXHXFXHXFXGXnXnXiXiXMXGXGXFXSXGXuXuX9XiXVXuXtXSXSXMXpXKXPXZX.X' y ; 1 V [ }.6.5.4.9.N.b.uXSXuXMX=X=XT.=X4X-X5X9X4X5X5X9X9X8X=XW.=X;X5X9X9X5X=X5XnXnXcXqX8XcXnXqX4XqX8XqX6X^.4XnXnXM.Y.9XMXSXSXtXuX9XuX8XT.v.t.Q p 3 i M J $.}..X.XXXOX@X2XZXKXZXZXaX2X>X;X;X;X&XOX:XrXrX;X;X>X*XOXXXXXOXB.i.N.N.C.9X-XN.M.J.N.v.B.f.B.N.B.v.8.V.v.N.N.OXN.v.q.q.u.*XaXoX}.[ K p 2 ",
"iXKXKXPXFXLXMXMXMXSXSXpXpXtX2XrX-X=X=X5XuXuX5X=X7X7X4X4X7XJ.K.R.S.L.7XMXmXMXnXMXMXMXMXmXFXmX5XJ.j.N.-X;X2XrX2X<X2X*XOX|. X:X*X*X%X%Xm.9.,.7.M.T.4X5XqXqX7X/.(.(.K.4XnXFXFXnXqX=X9X5XJ.M.9XKXLXFXFXLXPXPXKXPXKX&XT.T.9XiXuXuX;X;X;X5.+.u.N.%XC.J.T.;XiXMXMXuX9XuX5X-X5X9X9X5XuXpXtXMXSXMXMXFXFX9XGXGXGXGXGXSXSXSXGXuXiXSXnXW.W.qX=X4X5X-X9XMXiX5X9X9X9X9X9X9X9X;X9X=XY.M.J.J.J.M.Y.T.J.M.M.j.j.M.J.-XT.pXKX;XrX*X}.9 % X . < r $.$XfXAXAXfX3XyXZXZXyXyXyXZXKXVXtXuXmXmXmXMXxX6XxXlX6X6X7X6XqXxXcXK.L.E.4X0X6XxXmXHXHXHXHXHXNXHXHXDX5X5X8X5XW.4X4XR.R.R.E./.7X4X7XlXmXmXqX4X4X9X-XOX#.h 1 0 &.,X,X8X4X/.4X4X6XxXmXmXvXcXxXzX0X).(.(.8XzXcXbX8X).4X(.^.!.^.6XnXDXDXHXHXHXDXmXmXmXmXmXmXvXmXDXcXwX0X4XW.4XqXqXwXmXFXHXFXFXMXyX1X}.A t c &.+XyXrX9X=XY.9X8XSXGX4XwXR.8XW.R.K.K.4XcXcXnXnXnXnXcXwXcXnXFXnX8X0XwXcXwXwX0X0X0XxXxXzXzXxX)./.0XcXxXxXwX4Xl.R.cXFXLXFXGXMXiXnXcXJ.V.u.[ y 1 3 v [ a.@X<X2X2XrX;X;XpXpXtXtX9XT.v.N.Q.Y.J.H.T.T.T.T.C.C.C.N.OX&XrX;X%X-X%X=X5XQ.j.7.7.9.4.8.m.f.8.9.4.9.8.f.m.N.T.N.v.q.B.N.%Xn.O.$.[ Q r 2 ",
"8XnXcXnX0XwXwXnXwXnXnX9X-X&X-X-X^.^.7XqXxX6XK.G./.!.!.).(.K.K.^.K.P./.6XzXxXvXmXHXHXHXHXHXmXxX^.qX6X7X7X4X9XMXLXuX&X-XrX9X5X&XN.=XM.M.Y.J.l.S.4X6XxXxXxX).).lXbXHXHXHXvXxXxXxXxXcXnXR.d.K.FXLXnXIXIXLXGXiXSXGX5X8XL.^.qXcXqX7X=XM.) 8.j.5.7.m.J.=XE.J.R.^.7X^.E.K.H.H.K.R.W.4X9X=X9X9XW.K.^.8XqXnXnXnXnXnXnXnXnXwX8X4XE.7XcXqX^.0X6XR.x.H.4X0X^.W.4X4X4X4X6X4X^.E./.6X0X0X6XE.H.4X6X4X7X4X4X/.8X4X5XM.&X5XJ.=X%Xy.y > + X , b }.<XtXpXZXKXKXKXSXPXLXKXLXLXLXGXnXmXmXmXmXxXzXlXlX(.(.6X).(.^.).7X^.R./.cXvXzXxXmXvXvXHXHXHXNXNXNXxX/.^./.^.R.^.!.R.K.K.R.^.(.).(.hXbXbXxXcXDXDXiX2X#.h 8 0 ..A.Q.8X4X4X6X6X4X0XcX0X6X).).0X0X6X).R.^.0XqX`.^.!.^.zXF.S.6XmXxXxXHXHXJXvXcXbXxXbXvXvXbXbXbXbXzXkX).).!.).8X).6XxXmXmXmXHXGXVXZXoXA 0 ! 1XdXPXLXLXnXqXnXwXnXwXW.6X^.qX7X4X7X/.6XcXcX6XxXHXHXcXxXxXmXcXwXqX0XqX0X6X/.zX).).zXcXzXzXvXvXzX0XzX0X6X(.K.F.^.cXmXDXDXDXDXmX8X7XL.M.|.@.9 4 1 v ..OX<XrXpXKXKX9XQ.-X&XQ.5XiX9X=X9X8XW.7X9XQ.j.M.-XT.j.v.C.v.q.C.%XT.M.j.T.J.M.j.f.j.7.,.5.j.9.8.8.8.B.v.f.m.m.z.m.m.M.N.J.N.8.6.#.~ G 1 - ",
"6X0X/.6X^.wXcXDXvXcXcX6XE./.8X4XHXnX0X/.E.E./.0X0X0X0XzXzXzXxXcX6X6X6X6X0XmXHXHXmXHXHXxX0X6XxXvXzX6XzXxXxX)./.qXFX7X4XqX5X7X9XuXMX;XJ.k.j.f.k.J.L.E.4X6X).^.~.~.zXbXvXbXvXbXcXzX).zX/.K.0XLXIXIXDXvXDXDXGXnXwXE.cX!.6XxX6X7XE.=Xb.5.b.M.9.7.J.4X7X4X7X0XxXxX/.F.6X)./.^.^.4X4XW.4X4XW.R.H.R.0XFXDXmXnXmXDXDXmXnXnXHXnXE./.DXmX^.).6X0XvXDXmXcX0X/.6X0X6X6XzXzX).).).(.!.!.^.(.^.).6X6X4X4XE.R./.D.R.L.W.5XW.H.N.s.v % + + > Z y.N.=X9XuXiXSXFXFXLXIXIXIXHXmXmXHXHXDXmXxX6X).).(.(.).).).(.(.~.!.H.H.R././.^.^.).).6XxXmXmXbXlX).(.~.).zXzXzXlX~.!.!.P.!.(.).).hXlXkXzXxXvXcXxX4X%X .f 8 k %.&XeX0X6X4X8X0X0X0X0X!.R.!.!.).0X0X0X0X0XzXbXbXzXzXcXbX6X6XvXxX6X6XmXHXHXvXbXbXbXvXvXJXvXNXNXvXbXbXbXbXzXzXbX).(.bXNXlXbXHXHXKXyXa.N f O.dXZXLXFXHXmXcXcXwXwX4XE.E./././.xXmXvXcXcX6X).xXHXHXvXzX6X6X0XxXvXcXzXzXzXxXcX0X).0XbXvXbXxXxX6XbXJXDXcX`.R.8XzXcXwXzXcXDXDXIXmXmX7X=Xn.} 1 4 1 k y.<X;X;XiXiXMXW.k.M.k.z.Q.nXGXwXnXwXE.4X^.M.j.T.;XM.8.j.M.v.5.v.M.N.M.z.T.T.M.f.7.7.5.8.N.8.R 8.v.v.N.v.8.f.f.7.f.j.M.N.N.;Xv.5.U f g ; 2 ",
"(.).(.zX6XxX0XzXvXzX6X!.K.(.zX0X8X0XcXcXwX8X4XqXwXnXcXcXzXcXcXqXzXmXHXmXvXmXcX0XvXcXxX0XzXcXvXcXzX).).zXxX6XxXHXxXL.^.mXcX7XqXiXpXSXeXT.T.9X;Xk.H.Y.W.4X0XqXqX0XbXvXvXvXbXxX`.(.(.).0XHXHXvXcXLXHX0X6XxXqX8X/./.HXxXvXvXzXxX6X5Xb.X.u.u.9.j.Y.Q.4X^.R.K.R.!.^.^.^.^.E.K.E./.Q.H.Q.M.H.5X0XE.R.4X7X7X6X0XcXnXnXcXvXzXxXmXmX6X0XmX/.!.).vXcX/.!./.6XzXxXzXzXbXbXhX).lXlX(._.(.^.!.R././.6X0X/.R./.D.H.H.x.L.R.H.-Xs.m # + % 4 H #.v.W.9XuXqXcXDXFXLXIXIXIXHXDXvXvXvXqX8X).(.(.`.).!.!.!.!.!.R.R.R.x.H.Y.Y.Y.E././.cX0X(.(././.(.).vXbXzXzXhXhXhXP.)._.!._.).).).)._.].!.0XJXDXcX9XC.t.j 8 k A.eX8X0X/./.6X0X0X)./.).(.^.(.).0X0X6XzX).(.).`.0XzXbXzXvXvXlXzXvXmXxXcXbXzXzXzXbXvXJXvXbXNXNXNXkXbXbXbXkXbXbX).).vXHXNXNXHXFXMX>Xu.Y N e.pXSXFXnXDXmXcXwXnXwX8XE.D.R.R.E.0XcXxXxXcX0XDXDXmXvXmXHXDXvXvXcXqXzXcXDXcXzX`.vXDXbX).zXvXDXJXzXzXvXbX0X/.R.cXcXqX/./.0XcXcXmX6XmX5X=Xi.@.8 > - k |.aX;XT.=XY.5XR.k.Y.H.H.4XwXFXcXnXwX4X4XH.7.M.5X=X7.8.M.8.j.8.8.,.5.m.f.f.v.M.M.N.M.8.4.u.8.R 4.4.X.u.6.4.9.f.f.j.j.M.J.T.N.8.O.P f l - # ",
"0X(.~./.zXcXqX/.zX`.(.(.).).).).qX0XeXqXeXcXcX/.0XcXqXJXJXbXJXcXcXcXcXxXcXcXcXwXcXxXcXcXcXxXbXcX`.vXJXbXxXxXmXDXcXmXmXwX/.7XcXGXSXKXiXSXuXQ.W.M.w.1.Y.R.8XY.W.8X~.~.(.`.JXHXvX~.R.R.).0X6XvXHXzXzXxXzXzXcX'.^.cXHXbXzXbXvX6X7X5Xn.| +.6.N.u.N.&XQ.W.R.c.H.4X6XR.6X^.R.R.Y.M.J.Q.Y.Z.T.Q.T.M.J.W.K.L.R.4X4XR.E.6XcXxX6X/.xXxX6X/.).0X0X).8X/.^.'.qX8X0XcXxXzXxXzX).`.).!.(.)./.R.R.8X8XH.x.Q.Q.D.l.z.x.Y.J.k.j.q...m % + % 3 ' #.q.M.R.4X0XwXwX0XDXHXHXHXDXvXbX0X/.W./.8X0X`.`.).~.^.).).'./.~.R.Y.x.x.x.Y.Y.W.8XwX0X^.D.R.^.`.).bXbXkXhXhXhX)._.~._.!.~.).`.).!.!.].R.~./.W./.-XN.O.j 0 B OXZ.8X/././.).0XzX0X6X).^.(.).0X).^.^.`.).).).zXxXbXbXbXbXbXxXlXbXvXxXzX~.).zX`.zXvXbXxXvXvXbXkXhXkXbXkXkXkXkXzXbXvXNXbXlXLXcX9X%X6.Y N 6.&XQ.4XR.zX(.0XcXcX/.H.x.Y.4XE.0XwX0X4XwXcX0XcXcXnXmXvXcXDXHXDXwX0XqXqXcXcXDXDXHXDXqX0XcXbX/.DX0XqX/.qXJX/.cXDXDXJXwXcXcX8X4XcXqXcXwX%XXX[ 1 > 1 j {.>XMX9X5XJ.x.Y.8X4XM.Y.qX8XiXwXW./.wX8XY.f.M.iXb.8.9.8.v.q.8.8.5.9.7.j.M.j.j.v.v.q.q.8.8.X.T T E O.6.u.6.5.7.7.8.j.v.N.T.OXT Y A V K > # ",
"/.(.!.^./.8X`././.).).zXzXxX).(.qX0XqXqX`.qXcX0X0XbX`.bXbXzXcXzXbXcXcXcXcXcXxXzXvXcXvXvXbX0X0XbXcXHXHXvX(.R.0XHXHXmXcXnXnXnXnXGXGXFXSXLXLXiXiX-XY.R./.c.R.~.W.c.D.F.U.).bXJXbX).~.U.~.).^.).zX6XHXHXxX).8X/.^.zXzXzXbXvXmXqXE.m.T Y ! Y +.q.C.T.Q.T.E.E.Y.H.E.0X4X4X=XW.W.Q.T.N.N.N.C.C.b.8.w.k.W.4X8X0XW.R.7XnXcXmXxXqXcXwX6X0X6XqXqXqXqX8X8XwXcXcXJXJX8X(.).0X(.~.R.R.R.R.R.D.R.R.H.x.k.x.k.h.l.l.j.k.k.k.k.v.%.Z % + % i [ t.b.z.M./.8X4X4XcXqXcXDXcXbX0X).(.`.).~.`.`.`.`.`.`.`.`.`.`.8X0X8X/.8XeX8X0XcXcXwXDXcXqXqX8X).`.`.hXhX_._._.(.~.!.!.(.).(.!.R.!.!.R.F.Y.Y.Y.Q.Q.&Xb.6.C j ] 1XQ././././.).0XzXzX0X).).).).).(.^.!.).).`.kXzXzX).).zX).lXzXzXbXbX6X).R.(.`.).zXvXbXbXbXbXbXbXbXbXbXzXkXkXkXzXbXNXNXNXbXHX0X5XC.6.D k u.rX-XW.K.cXqX'.W.Y.Q.4XqXqX0X8XW.E.8XwXwXwXcXcX8X/.8XcXcXwX8X^.8XqXqXwXcXwX8XqXW.W.0XqX^.^.8X0XcXqXwXwX8X0XcXDXDXcXwXcXwX0X8XwX4XqX8X-X@X@.4 # 9 W +XrXMXuX9X=XW.=X8XeXeX9X8X8XT.x.x.E.8X8X-XT.v.Q.j.v.8.5.v.v.q.w.q.j.j.j.j.T.q.) ) q.b.u.5.X.5.+.E T 6.i.6.v.v.M.b.b.b.M.N.4.T |  .Q } a % ",
"/./././.^././.8X0X0X6X6XzXxXxXxXzX0XzX`.).`.vXbXzXbXkXzXzXzXbXbXJXJXJXvXvXbXvXbXbXbXvXvXbXzXzXbX8X8XcXDXDXcXmXHXcXcXmXHXFXwXwXGXnXGXwXcXnXcXcXbXvX~.G.3.D.R.0XbX~.R.!.`.zXzX`./.^.R.!.).^.K.!.(./.6X6X0XcXqX~.U.bXvXbXxX0X6XE.j.Y D S D +.i.%X%XuX5XW.=X-XW.W.-XQ.=X&XQ.Q.&Xn.5.) 5.j.C.Q.C.N.C.Q.4X8X4XE.E.4XqX^.6X6X4X4X/./.0XwX8X0XwXqX4X8XwX9X8XqX0XR.D.R.R.H.D.D.Y.E.E.E.T.Y.h.1.7.j.w.w.j.H.x.k.j.M.M.M.N.s.Z % + > p @.s.C.Y.Y.=X4X4X4XqX4X0XwX0X/.^.R.R.~.!.~.).kXkXkXkXkXkXkX`.`.`.bXJXzXDXDXcXcXDXJXzXzX`.zXvXvXzXzXbXbXbXbXbXbXxXzX).~.).0X(.R.R.R.R.R.D.c.x.Z.Y.T.&XC.e.C k | >X4X).).).).).0XxXxXzX0XzX0X(.^.).).~.).`.zXzX).(.!.!.(.^.).zXxXvXvXzXvXbXcXvXbXbXJXvXzXzXkXbXvXvXbXzXbXzXzX`.kXzXzXzXlXzXvXwX9XOX0.N D n.;X%X=X/.zX^.8X'.'.-XeXwX9XqXeXqXwXnXeXW.8XnXwX4XW.4XwXwX8X/.0XwX0XR.W.wXcXwXwX/./.cXcX^.W.0X4XwXR.0XDX0XwX8XwXcXwXeXwXwXwXqXeX=X4X4X&X@X} 4 > G }.3XrXiX5X5XQ.;X9X9X&XY.T.Q.W.k.k.-XwXeXeXMX9XT.Q.M.N.v.v.b.N.v.q.w.w.j.M.T.;XT.b.q.q.b.N.C.N.6.+.X.O.T X.6.8.8.v.v.q.8.9.4.4.6.t.}.} K < O ",
"6X6X4X/.^.W./.8XqX8X).).0XzXbXbXzXkXzXzX).kXvXbXbXvXkXbXkXkXbXbXJXHXHXHXJXNXNXJXbXbXbXvXbXkXhX).zX8XqXcXDXDXcXvXHXcXxX0X4X0XnXLXIXDX!.).HXIXHX).).F.F.~.zXzX0XzXzX`.`.0X0X).^./.R.R.^.0X6X(.!.R.6XzXzX0XcXFXFXJXJXvXbX6X6X7X7XT.t.C N Y n.n.%X&XtXiX9XQ.W.eX8XY.Y.T.T.N.N.b.5.R R R ) v.%X>X>X9X8X9X9X8XwXnXcX4X4XqXqX8X0X4XW.8X0X^./.4XE.M.Y.W.Q.M.Y.Q.Y.H.D.l.Y.x.x.Y.W.E.T.Q.Y.j.7.j.b.j.k.M.Q.Y.M.m.v.v.M.C.s.M # + , M %.n.%X9X9XW.W.eX9X=X8X4X4X/.W.W.R.R.)._.).hXkXkXkXkXjXjXhXhX).kXbXJXvXvXbXzXkXkXkX).!._.kXvXvXbXbXNXbXbXbXbXbXzXkX(.).).^.R.R.R.R.D.Y.x.c.k.Z.Z.W.;X%Xt.j f | &X/.~.6X6X6X).0XzXzX0X0XzX6X~.^.zXzX).).`.zXzX).~.!.!.^.~.).xXxXvXvXxXzX0X0X0X).).0XzXzX0XkXzXvXvXbXzX`.`.`.0XzXzXxXzX).xX6XwX9XA.t.k D i.C.J.4X4X6XR.~./.wXiXiXwXMXGX-XiXGXeXE.Y.E.W.4X4X4X4X4XW./.4X8X0XeX/.8XwX0XW.8X0X0X8X8X'.W.R././.Y.8XDXGXwX/.8XwXeX8XwXwXwXiX9X;X4X=X&XOX[ 7 8 } #X2X%X4XQ.Q.Y.J.Q.5XQ.j.j.Q.Y.k.T.9X9XN.N.5XY.;X5XN.j.b.b.v.b.v.j.j.8.8.M.T.j.C.%XN.9.,.8.b.%X6.X.6.t.X.T X.8.8.v.b.N.b.8.4.) 4.X.{.*.F < % ",
"(.^.!.R.R.R.E.^.R.^.).0XxXxXzXzXbXlXzXbXbXbXNXbXkXbXkXzXhX_.bXbXbXvXNXvXbXbXbXNXJXvXbXvXbXhX].F./.0XqX/.!.).xXmXmXvXxXzXnXHXFXcXbXHXIXIXHXNXNXHXvXNX).G.G.).zX`.zX`.`.`.).!.(.0X~.).).6XbXbXlX^.(.6XzX8X/.0XcX`.`.).kXxXxX6X=X%Xt.P C U n.n.N.T.J.5X8XY.M.Y.W.T.=XY.J.J.M.w.9.,.v.4.R ,.v.=X;X-X=X-X4X4XwXmXnX6XxXnXcXqXqX7XE.4X/.D.H.H.h.,.7.8.k.w.k.T.Q.E.R.c.E.H.x.Y.Y.H.x.k.-XQ.Y.N.M.k.M.Z.J.M.M.v.j.f.v.N.s.m > % 3 K y.OX-XuXiX4X=X9X5XW.8XW.H.H.E./.6X6XbXbXbXbXbXkXhXjXjXjXhXhX).).zXbXvXzXkXkX).!.!._.).zXbXbXbXbXNXbXvXbXbXbXbXzX).~.).(.R.U.U.Y.D.S.H.D.c.x.Z.T.W.5X:Xp.C N t.:X/.F.(.(.(.(.6XzXzX6X).).^.!.).cXbX).).0XzXzX).).).).(.(.6XxX6X6XzXzX0XzXzX0XxXxXcXvXzXzXbXcXbXbXxXxX).).`.zXcXvXvXNXvXNX).^.M.q.O.k N u.OX=X4X^.).cX8X0XwXGXGXwXeXeX8X9X9X8XqXqX4XE.4X8X0X0X4X4X0XcXwX/.R.W.4X0X4X/.W.0X0XW.W.0X0XW.W.W.qXqXcXcX4XwX8XwXqX8XwXwXqXeX9X9X9X4X4XC.] 0 0 =.|.N.m.E.L.E.5XM.m.=X9X5X-X9X9X;X5X5XT.f.7.m.7.T.T.N.j.b.b.w.8.8.j.N.T.J.j.h.h.z.M.k.f.5.5.9.v.N.v.9.5.i.i.4.8.6.8.b.%X%XM.7.9.8.X.{.-.( i 3 ",
"!.R.K.K.R.R.R.R.R.^./.0XxXxXbXbXbXzXbXNXvXvXvXzXlXbXzXzXhX_.bXbXkXzXzXzXzXzXzXzXbXbXxXbXxX).!.F.S.R.^.R.(.zXvXvX).bXNXmXHXHXDX6XmXzXbXvXHXIXNXbXbXJXvXkX].!.F.G.zXzXzX0X).).).zX0XxX).(.bXJXbX(.lXxXHXHXbX8X`.~.)._.).zX6X^.J.N.^ ~ ^ ^ u.B.T.H.x.z.D.H.H.H.Y.W.5XW.E.=XQ.M.k.M.T.j.5.f.J.-X=XY.H.Y.E.R.E.7X8XqXqX0X6X5XxX7XW.7XR.c.x.z.,.R ,.R 7.w.T.8X-XW.W.E.W.Y.H.H.Y.H.D.x.Y.W.W.Y.k.k.M.Y.k.k.j.v.j.j.v.N.t.v 4 > u J e.N.=XW.4X4X4XE.E.4X4XR.D.H.^.6XqXxXxXvXvXbXbXbXbXzXbXkXzXzXzX(.).zXzX_._.kXkX].P.!.hXbXbXkXkXbXNXbXJXNXNXbXbXbXkX).).0X8XR.D.D.D.H.D.F.x.Y.Q.E.W.-X5XB.C g t.%X6X!.F.R.R.!.).0X0X).~.!.!.!.).xXzX(.).`.0X0X0X0XzXxXzXzXxXvX6X).lXzX).0X).^.).zX).0XxXbXvXvXbXxXxXxX`.`.`.zXbXcXxXzXzXbX).W.v.i.| k D OX%X;X8X6X).xXqXcXDXGX8XY.Y.E.wX5X8XMXnX4X4X8X0X4X4X0X0X8XwXcXcX/.D.D.E.4X0XwX4X4X4X/./.4X8X0X4XE.qX4X8XqXY.4XqXnXcXqXwX0X4X8X&X,X8X4X-XN.U k B }.|.B.j.J.H.E.5X5X=X=X5XuXiX9XiX9X9X9X=XY.M.j.j.k.j.W.&XT.N.k.j.7.7.Y.eXeX4XJ.E.R.Y.Y.Y.Q.Q.Y.N.-X%XM.9.u.v.N.4.X.X.q.N.C.M.7.j.%Xn.t.*.} 8 @ ",
"P.K.!.!.^.^.E.R.7X7X).6X6XxXvXmXzX6XzXvXbXxXxX6XzXxX6XzXzX).xXzX6X6X6X6X6X6X6X/./.6X0XqX0X/././.W././.0XxXxXhX!.zXbXbXhX(.lXmXHXmXwXvXxXbXJXxXbXvXvXzXbX!.R.R.qXzXvXJXvXbXzXxXzXxXbX).).vXbX).(.bXlXzX8XU.U.`.zXzXkX).^.K.L.L.v.X.^ X.X.N.J.=XL.K.S.G.L.E.E.R.R.7XE.R.E.W.E.J.m.f.z.J.W.4X7XE.L.E.W.=X=XW.7X6XxX7X7X7X0XcX6X7XqX^.H.R.H.7.7.j.,.5.w.T.9XeX8X4X/.E.R.K.H.R.E.E.Y.D.Y.E.R.H.H.Y.E.H.x.j.m.M.M.M.N.t.j 8 4 y W 6.J.E.L.J.7X7XL.K.7X/.E.^./.7X7X6XxX6XzXzX6XzXbXbXbXbXzXzXzX0X/.^././.^.(.).(.!.R.!.!.~.(.).zXxXbXbXbXzXhXhXhXhXhX).6X0X).^.R.R.Y.K.F.F.U.R.W.E.E.E.;Xu.j f O.N.8X^.F.R.!.^.).0X6X).~.^.(.).).).).(.).).`.0X0XzXzXzXzX0XxXvXzXzXzXzXvXHXbXzXvXvXbXxXbXbXbXbXxXzXzXxXbXzX0X0XzX`.(._._.).7X4XT.:X| f Y <X-X=X4XcX).(.!./.0XeXW.H.E.wX/.4XqXnX4Xl.z.^.L.L.L.R.^.^.^.^.R.R.R./.6X0X7XE.6X7X/./.E.E.E./.4XW.R.E.4X4XR.E.0XcXcX0X0X4XE.E.T.-X4X7X4XM.Y f A oX:XT.L.^.L.E.=X9X9XQ.H.J.=X9X=X-X5X4X=XQ.M.g.L.R.h.4X9X8XW.M.j.7.f.H.4XqXwXwX4X4X7X/.W.4X5X9X9X5X&X9XN.j.5.N.8.9.9.8.j.v.j.7.9.M.v.o...-.9 - ",
"F.K.!.^.!.!.R.R.E./.6XzXzXlX).).)./.0XxX0X6X).).6X6X^.6XzX6XzX(.6X/.^.^./././.E./.8XqXwX`.^./.qX8X8XbXcX6X!.!.hXhXhXhXbXbXbXzX6X0X).vXzXzXzXF.U.!.vXHXHXzXDXcXbX).bXJXvXvXvXvXxXxXxXhXzXNX).F.P.lX(.xXvX/.!.`.`._.kXlX!.K.E.J.v.r.Y U 9.;X=XE.L.L.7X6XR.D.K.R.L.K.L.L.S.K.R.x.<.d.m.R.J.z.g.z.x.E.J.L.E.7X7XE.K.K.P.P.^.^.L.S.J.6X^.0X4Xk.N.&Xk.j.q.C.9XiXiXeX4X/./.R.H.H.E.E.H.W.W.4X4XW.Y.R.W.R.m.j.k.L.J.M.v.6.N y 8 v [ u.%XJ.E.^.E.K.K.P.E.7X6XxXxXzX)./.6X6X0X6X^.~.).zXzXcX6X).0X0X/.^./.0X0X).~.!.~.^.~.!.F.!.zXcXzX`.kXzXhXjXjXhXlXzXzX).(.R.F.E./.R.c.F.F.!.)./.E.R.J.M.6.g f t.C.8X!.R.^.(./.6X0X6X^.(.).zXxXzX(.~.~.).).).0XzXzXzX0X).^.6XxXxXxXxXxXbXJXzX).vXmXxXxXxXxXzXzXzX0X0X0XzX0X`.zXzXzX).(.zX6X0X4XC.2X] f N 2XrXE.R.xX0X0XcX^.H.R././.E./.6X8XwX8XW.K.L.L.H.L.E././.^.^./.K.E.E.D.L.E.^.R.0XcXcX0X6XqXwXwXR.8XW.4X4XL.4X0X/.0X0X4X4X^.R.R.T.;X4X7X4Xb.Y f B {.&X=XE.7XL.=X9X=XJ.J.M.l.H.4X5X9X9XQ.M.M.M.J.D.4XD.E.Y.-XW.j.7.j.J.Y.L.D.L./.cX0X4X4X4X0X8X8X8X9X=XuX=X=Xj.7.f.5.9.,.,.,.,.:.f.j.q.|  .*.1 4 ",
"`.!.(.6X).(.(.!.R.).zX0X).).).!.0X0X).(.).zXxXzXbXbXxXxXbXxXzX).!.!.^.).).(.~.~.F.).~.!.`.0X`.zXqX8X/.(.!.!.~.(.zX_.(.zXzXzXxXxX0XzXzXzXzX).!.U.~.zXvXvXvXJXJXvXNX).kXbXzXvXHXhXzXxXxXlX~.!.(.).).zXxXzX0X8X8X0X).).).).^.E.R.C.#.P U ^ %XT.L.R.6XE.E./.W.H.L.^.^.^.L.K.8X4Xj.7.7.j.-Xk.7.d.=XJ.E.7XQ.m.z.z.S.H.L.J.^.^././.7X0XE.8X4XH.x.W.-XW.-XeXeXeX9X-XW.W.4X4XW.E.L.L.H.H.Q.J.H.M.z.f.l.H.=XE.L.L.^.6X8X-Xu.P B V B [ @X2X%X=XJ.J.m.E.L.R.4X0XcXcX6X0XwX6X).).).~.(.zXbXxX`.)._.(.6XzXzXzXzX).6XzX8X/.cXDX).0X`.).kXkXkXhXNXNXbXhXhXbXzX(.).^.!.^./.^.E.R.R./.zX8X/.Q.H.g.8.U f 0 t.N.Y.^.6X6X/.cXcX^./.).xXcXxXzX6X(.^.(.`.).`.0X).!.!.(.).(.).zXzX~.F.G.G.R.(.^.6XqX7XH.J.5X4XK./.`.).zXbX).`.vXvX`.).zXbXcX0XT.rXi.A f D n.;X9X8XmX6X0X!.R./.E.4XL.E.^.9X9XW.Y.Q.R.Y.W.D.H.E.4X4X^./.qX^.W.R.H.R.H.D.H.S.^.qXqXqXqX6X^.7XJ.4X8XY.W.wX4XR.E./.W./.4X'./.-X-XE.R.-Xn.I f B y.N.J.=XL.M.=X9X9X=Xm.H.z.M.5X=XW.W.W.W.W.Q.Y.R.R.R.J.H.Q.J.7.7.Q.Y.z.L.W.L.x.4XR.H.4XwXwX4X^.wXDXFXwX4X4X4XL.M.f.9.9.) R ) w.f.8.v.e.%.Q 1 4 ",
"8X^.).8X)./.).).qXcXqX^.R.~./.).).).kXzXzXbXbXzXzXzXzXzXbXxXkX).K.!.(.(.).0X`.(.!.`.).~.zXzX`.zX).0X0XR.F.K.!.P.zX).)._.F.P.).xXvXvXvXJXJXvXbX`.`.bXvXvXvXJXJXvXJXbXbXhXF._.NXvXbXbXbXxX).).).zX_.).zXqX0X8X0XqX0XzX6X6X0X8XqX>X .A ! ^ N.J.R./.R.Y.E.4X4XW.L.K.E.^.L.S.R.Y.f.9.,.v.uX;XN.j.T.Y.L.J.J.M.z.m.m.S.=X4XcXnXcXxXxXcXxX/.H.x.H.Y.M.h.1.T.eX8XT.Y.W.W.4X^.K.x.j.j.k.M.f.f.f.k.M.H.H.J.V.S.P.(.6XxX0X-XB.P j B C @.+X*X;X5XJ.k.h.Q.4X9XY.E.8XqX8XqXcX0X/./.(.^.).zXbXbXkXkXkXzXxXzX6X(.(.0XcXcXcXcXcX).vXvXbXkXhXbXNXJXNXNXNXNXbXhX).).(.!.K.!.!.R.K.K.K./.6X(.Q.Y.D.g.9.Y 0 0 e.b.D.R./.0XwXDXcX6XwXcXcXcXcXzX0X).).6X).~.~.(.(.(.!.~.!.F.G.F.F.F.G.G.F.R.(.0XqX8XJ.9.9.J.4X4X/.~.~.`.0X0X0X0X`.).~._.vXDXwXN.Z.O.A k k u.C.=X7XmX6X0XR.E.0XW.W.H.7XwXW.W.Y.M.J.M.x.L.c.R.0XnXwXE.c.l.W.W.E.E./.E.R.4XK.W.4X7X7X7X7XE.L.k.Y.E.x.x.E.H./././.W.4XwXcXwXH.=X4X5X&Xu.A h S {.N.f.<.7.N.9X=XMXuX-X9XMX5XE.Y.W.4X-XE.Y.Y.H.4XW.W.Y.j.f.j.f.M.5X=XM.H.J.R.4Xx.W.8X4X4XwXnXcX4X4XwXnXDXnXmXFX4XM.8.v.n.q.w.w.j.j.q.e.%.Z 1 4 ",
").).0X0X).0XzX`.`.zXzX).!.(.(.~.).).).).).).(.~._._.).hX).)._.~.!.).6X^.(.0X0X~.!.~.~.~.`.zXzXzXR.(.(.!.K.!.).hX_._.).(.P._.zXzXzXzXzXzXbXzXzX`.zXzXzXzXbXvXvXbXbXvXJXzX]._.xXkX).).).).`.0XzXxXzXbXvXDXDXDXDXFXHXmXxX6X6X7XW.C. .S ! T j.z.L.^.E.E./.8X9X5XR.S.E.6X7XL.H.H.j.7.7.5.M.M.M.M.Q.R.E.R.L.L.H.m.m.M.M.T.5XwXcXcXnXnXnXwX4X4X8X-Xj.R N ,.N.Q.Q.&X=XW.R.W.W.R.J.M.M.M.j.7.9.9.j.J.Y.J.z.S.L.^.6XxXqX-Xu.P c B A $.#X:X;X5XJ.M.j.W.=X=XwX/.E.E./.0X/.H.^./.).).`.zXbXbXHXbX)._.~.).6XzXzX0X6X(.!.0XcX).JXDXJXvXbXbXbXbXNXNXNXJXbX_.!.).~.!.K.R.K.K.H.H.K.E.(.!.Q.Q.R.K.8.U h 0 #.b.H.!.^.cXvXmXzX/.0XzXcXxXzX0X).).6XzX`.~.!.~.).).(.~.`.).!.U.!.(.).(.!.~.).wXnX5Xm.:.E R M.8X0X8XzXbX~.0XbX`.`.bXvXzX!.zX^.M.i.t.A k D i.N.T.^.xX(.(.(.8XnX8X4XH.L.x.k.H.M.x.H.z.h.H.wX8XL.2.<.d.H.4XqXqX8X4X4XY.H.R.L.J.W.4X5X4XW.E.=XE.4X8XQ.E.W.L.x.Y.4XwXnXnXwX4X4XeX4X=X%Xt.A j A a. Xf.:.7.%X&X4X4XE.J.=X=XQ.=X-X=XT.M.k.k.M.Y.4XR.L.M.f.f.j.j.J.=X5X=XQ.H.H.R.z.L.E.E.W.8XqX0X0X4X7X0X0X4X/.^.5XJ.M.C.%XZ.q.5.5.8.q.OX.XJ 4 > ",
").).0X0X).0XbX0X).0X0X`.).).).(.`.).(.~.!.~.!.!.!.!._._._.!.P.U.~.).).(.(.).).~.(.(.~.~.`.0X0X0X8X^.!.6X).F.P.hX!.!._.(.).xXbX6XzXzXkX`.`.).).).).).~.~.).zXxXbXbXvXJXvXzXbXxX!.!.!.!.~.`.zXzXxXzXzXbXDXDXDXGXDXHXvXxXxXcXcXqX;X..S ! T 8.z.H.E.8XqXqX4X5X4X4XE.L./.6X^.R.L.L.J.Q.k.j.M.E.W.4X4XW.J.H.H.m.f.8.j.T.=X-X-X5X9X9X5XqXnXnX9X8X-XM.,.7.1.1.f.N.&X-XW.R.4X4X4X=XY.J.M.M.M.j.f.m.E.=XY.E.J.L.K.).0X4XT.r.! P C S [ {.OX9X5XT.=XQ.eX9X9XwXE.D.D.H./.8XE.^./.).6X0XzXbXbXbXzXkX).).).(.^.).K.!.)./.!.^.(.zXbXbXbXkXkXkXhXbXbXNXNXbX)._.(._.!.!.!.K.F.H.R.E.^.).^.Q.W./.W.v. .v 0 #.M.R./.^.xXxXzX/.^.0X).zX6X).^.^.(.).6XzX`.).).0X0X).(.).0XzX).).zXxXzX~.).(././.E.<.E E E <.E././.).R.R.'.0X).).bXvXbXU.!.c.M.b.i.S f U n.C.T.E.7XR.!.K.K.E.Y.8X4XR.d.l.x.H.H.H.l.h.x.z.L.Y.x.c.H.R.H.R.E.E.Y.E.Y.Y.=XR.J.R.4X4XQ.=X4X4X4X9XiX5XW.W.H.H.Y.R.H.R./.8X4X9X-XL.J.%Xu.A f C #.N.=XJ.E.&Xv.m.H.=X5X4XH.H.=X9X=XY.k.x.Y.T.T.E.L.m.k.k.T.Q.m.J.Y.Q.=X4XQ.H.g.Y.H.H.W.4XE./.0XW.4X/.E.^.0X4XL.R.J.Q.%XC.q.5.w.7.j.b.3X$XK q # ",
"(.(.0X`.(.).zX0XzXzX`.(.(.).).).).(.~.~.(.(.(.(._.~.(.).).~.~.~.~.!.!.(.(.!.~.).).R.R.U.D.D.D.G.R.S.F.).zX~.!.(._.!.F.F.P.).xX6XkXkX)._.~.!.!.~._.!.].!.).kXbXbXJXNXbXzXzXNXvX`.`.).).`.bXbXbXzXzXzXbXDXDXcXcXcXDXvXcXmXDXnX9X&X .c P T j.J.4X4X0XwXwX4XW.4X6X6XH.H.R.E.H.x.R.5X4X4X4X9X4XE.H.W.L.x.l.j.7.,.7.j.q.q.8.w.N.;X>X;X8X5X4XE.J.k.k.b.N.7.) j.Q.;X=XW.8X8X9X=XJ.M.m.j.8.M.T.&X;X9X-XY.J.J.^.7XzX0XW.T. Xe.~ C S [ }.OX9XY.j.Y.=X9XeXGX=XY.H.x.g.c.R.^.H.K.^.).).`.zXzXzXzXzXzXlX).(.^.(.F.K.^.R.R.(.0X).!.U.!._.kXbXbXbXNXNXbXbXbXzX).(.^.^.^.R.K.K.R.^.7X).^.Q.Y.K.D.M.o.z 8 o.b.R.).R.0X).).).6XvXzX6X).^.~.~.(.).).`.0X`.).).`.`.`.~.0XbXzXkXzXzX`.bXcXqXE.E.4Xk.R E E :.L.R.^.).~.0XqXqX0X0X0XzXbXzX(.c.J.q.0.D f Y b.N.N.H.^.K.^.R.c.l.d.E.=XW.l.H.Y.R.L.H.l.g.x.x.Y.Y.x.H.W.4X4XY.Y.H.M.J.M.H.W.W.J.M.J.H.m.Y.9XY.Q.5X5X=XR.L.H.Y.E.E.H.c.c.H.H.x.j.l.H.&Xi.B 0 P #. XuXnX9X;XM.m.T.=XJ.M.T.Q.J.Y.Q.W.4X8X5X-XW.W.H.J.=X=X=X=XQ.T.T.T.J.E.5X4XH.k.M.E.4XH.g.H.8XR./.E.R./.wX0XE.L.J.T.T.b.5.5.w.M.N.N.3X.Xm 9 # ",
").~.).`.(.(.`.).).).).(.~.R.F.F.!.!.~.(.).~.!.!.~.!.~.).kX).).6X).!.P.^.~.F.F.~.!.D.D.D.l.l.c.l.S.D.R.R.).xXlX~.F.F.~.~.K.~.0XzX).).)._.!.!.!.~._.!._.).kXzXbXvXbXvXbXzXzXbXbXbXzXzXzXcXJXJXJXbXJXNXJXHXHXDXDXDXDXDXmXmXDXnX4XN.] k S U q.T.4X^.0XcXcX8XW.E.^.^.wXE.R.R.l.g.H.4X4X8X7XqX0X/.D.H.x.k.k.k.j.j.v.n.R R E E 5.C.&X&X;XM.k.Q.Q.j.j.C.j.7.1.j.T.Z.N.Y.=X5X5X=XY.N.j.5.5.v.T.&X&X=XQ.J.M.E.6X0X)./.4XuX2X{.~ V W $.XX:X;XJ.j.=X=X=XT.8X4XH.z.c.c.x.c.g.l.G.K.^.).).).kXvXbXzX).(.).).6X).(.!.G.l.R.qXqX!.U.U.~.kXzXkXkXkXbXbXkXzXvXbX).^.^.^.^.R.K.K.E.^./.).(.Q.Y.D.x.N.o.h 8 o.b.R.~.!.).!.(.).zXvXzXzX6X(.(.(.).hXhX!.(.).).).).`.zX).zXbXxXzXzXzXxXzXvXbX/.6XnX8XJ.l.z.E.4X/.`.bXcXcXqX0XqX0X`.).kX).(.E.Q.q.+.D f Y i.N.J.H.E.F.^.R.D.D.l.Y.J.L.l.E.E.R.H.H.z.g.x.H.Y.E.Y.Q.5X=XY.8X-XY.H.J.k.k.J.Y.J.J.J.M.j.m.J.k.J.Y.E.Y.L.H.H.L.W.8X4XE.D.l.d.x.M.H.Y.C.6.B 0 [ a. X7X5X4X9XuXuXE.m.f.f.m.J.k.h.M.W.-XW.Q.W.8X4XL.=XiX-Xk.m.=Xj.M.Q.Y.L.4X8XE.Y.W.4XR.x.z.x.x./.R.H.E./.^.E.R.R.J.M.b.b.q.8.7.f.j.C.2Xs.v 4 # ",
").!.~.zX).~._.(.!.~.(.).(.!.G.[.P.F.!.(.(.!.F.F.~.F.K.^.).).).6X).^.!.^.~.R.!.^./.R.~.W.Y.Y.'.8X8XwX0X(.(.6X~.G.F.F.).xX).).).).zXbXxXzXkX).hXkX_._.).kXzXkXzXbXhXzXzXxXbXzX).kX0X0XzXbXDXHXDXJXvXbXvXDXHXDXDXDXmXmXHXHXHXFXnX>X[ f S U 8.Y.4XR.qXwX0X/.R.R.E.^.DX4XE.R.S.D.E.R.cXcX^.6XwXcXE.E.x.M.J.T.T.%XZ.i.6.5._ U T 6.t.q.C.J.Q.8X,XC.k.b.&XT.b.9.) ,.h.k.H.E.=X=X=X&XM.5.j.j.b.N.M.b.M.J.J.T.7X/.^.E.5XtX@Xy.~ V ~ %.|.OX;X9X9XiX5X5XT.=XY.h.d.x.H.R.Y.c.S.L.^.6X0X).).kX).kXxXbXxXzX(.^.!.^.).).^.).).K.!.!.(.xXbXzX_._.hXhXhXhXzXzXhX_.(.~.^.^.!.R.R.E.E.^.(.(.R.Q.K.H.N.o.h 8 O.N.Q.R.!.^.!.).zXzXxX).zXlXhXhXhXlXhX).]._.hX).).hXkXkX).).).).)._.).`.~.(.)./.4X7X7X4XcXmXDXcXcX0X`.`./.E.R.W./.~.!.~.~.^.0XQ.n.t.! 0 Y n.N.J.L.R.F.R.S.l.H.H.=XY.E.L.E.E.H.H.H.D.x.Y.Q.Y.H.M.Y.-X-XT.W.T.J.Y.&XW.T.&XN.M.M.J.J.m.f.d.f.z.k.k.H.H.J.R.8X8X4XR.Y.E.E.E.8X9X4XQ.C.O.B k %.+X%X=X^.E.;XtXiXH.M.5X4XJ.k.f.h.j.k.k.M.Y.T.=XE.R.4X5XJ.f.j.J.j.j.H.J.H.E.4XJ.9X9X4XW.W.W.Y.x.Y.H.H.W.4X4X4X6X4XY.N.C.T.Z.b.w.9.5.&X1X%.b > + ",
"zX].!.zX).!.!.~.~.~.~.(.(.(.~.~.~.!.!.).6X).).0X^.K.F.!.).(.(.).P.!.~.^.(.0XzXxXR.D.R.Q.c.x.W././././.).6X).).(.bX(.).zX).(.).^.kXzXzXkX)._._._._._.).kXkX).).zXbXkX(.zXvXxX(.).xXxXcXvXDXDXJXvXvXbXvXHXHXHXDXHXDXDXHXHXDXnX5XC.] f P | v.-XwX/.4X/.E.Y.R.W.6XcX4XR.E.E.R.4XwX/.R.wX6X6X^.^.G.H.x.k.M.Z.Q.%Xq.T Y U Y D E T X.+.j.;X9XT.M.C.Z.w.) n.&XZ.M.Z.M.7.T.Q.T.J.T.Q.N.8.8.w.v.C.T.N.M.T.J.H.J.7X0X7XY.N.6.#.~ A ~ #.s.OXC.9X9X;XM.=X=X5XY.Y.W.E.l.d.x.R.E.^.6XcXcX0X`.zX`.`.).).).6X6XxXmX6X).xX0X6X)./.(.^.).0XzXkX).kXkX_.hXzXbX).(.(.).^.^.^.^.!.!.^.^.^.(.~.Q.H.D.H.v.| h 8 O.N.Y.F.F.R.!.zXvXxXvXxXzX).hXhXhXhX).(.~.).zXzXkXzXkXhXkX_.!.).hX).).).zX`.qXcX0XR.D.E.E.7X/.(.cXDX0X).qX8X/.'.0X0X`.~.bXxXcXM.N.XX%.f Y i.b.J.L.E.F.K.8XY.H.x.Q.M.L.H.R.K.D.D.R.Y.R.4XE.H.k.M.W.9X9X-X-XW.Y.E.;X&XY.T.T.m.5.7.8.j.j.8.m.H.J.J.Q.=X4X9X4X4XW.W.4XqX0X4XwX9X4X9X;Xt.B f %.3X;XJ.7X7X%X%XT.m.M.J.M.E.-XJ.j.7.1.j.T.W.Y.z.H.W.4XJ.j.Y.=XM.5Xj.f.j.k.L.7XR.Y.x.H.W.W.x.H.W.x.Y.R.H.L./.W.H.4X4X5X9X9X;XT.N.N.m.rX@X] z > % ",
"`.).).).).(.(.(.!.~.).).!.U.~.kXzXzX6X^.!.!.^.^.).(./.6X/.R.R./.!.(.^.!.^.zXzX4X0X0X8XQ.D.h.h.x.H.D.D.^.(.R.F.R.(.).zX0X).).).6XxXbXzX_.P.!.].F.]._.hX).).hXhX).~.).zX).).`.`.(.cXxXzXbXvXJXcXzXvXvXJXDXHXDXDXDXDXDX0X0XnXwXW.%X[ h B Y N.9X9X/.D.E.E.E.4X0X7X^.R.R.c.R.D.R.S.D.S././.G.g.D.R.D.x.k.j.j.w.q.5.+._ U U _ | | +.n.C.T.T.T.T.N.j.5.4.C.&X>X9X9XMX-X5XY.T.Q.-X;XM.v.j.b.N.N.Q.-X=XM.j.m.S.6X6XnX4X&X@X#.S ~ [ ! a.i.&X-X%XT.T.T.Q.Y.J.5X5XY.L.x.x.4XE.7XwXcXcXcXbXzX).bXzX!.(.vXmXxXxXvXmXvX6X6X6XR.^.!.(.0X`.(.).zXhXhXkXzXzX).(.~.!.!.!.!.R.R.R.!.D.R.~.!.Y.H.D.S.7. .0 0 %.C.h.S.F.).zX).6XxXzX).hXvXbXhXxXzX).).bXzXhXzXzXzXzXzX)._.!.!._._._.~.zX`.0XbXwX6X4X4X/.K.^.R.0XDX).R.qX/.E.4XcXcXzX0XzXxX6XY.C.a.! f U u.b.M.J.^.S.K.K.x.Y.E.k.x.W.R.D.D.c.c.L.W.W.E.x.M.j.M.;XQ.M.8X-Xk.Y.9XQ.j.M.T.M.7.j.T.%XN.8.j.f.H.M.m.T.T.E.8X9X4XE.4XR.R.wXW.Y.Y.L.J.%X6.k j @.a.N.=X7XJ.T.-XT.k.f.j.M.J.T.Y.7.M.N.k.Y.T.Y.=X=XL.m.M.J.Q.=X5X&XQ.M.M.J.j.g.W.Y.Q.Q.H.h.f.x.Y.R.R.Y.L.L.R.E.^.4X4X5X-XQ.%X&XW.=X&XC.o.S y > + ",
"zXzXzX).).(.~.!.~.~.(.~.].F.F.!.G.!.).).(.^.!.R.(.^./.6X/.E.^.6X/.6X6X^.^.6XwXwXcXnXwXW.E.W.Q.x.c.c.D.R.!.!.^.).lXzXzXzX6X).6X0X).(.).).!.F.].).hX`.hX).zXxXkX~.~.(.).zXxXxX0X).~.).`.0X0X0X0XzXbXbXvXDXDXGXnXDX/.mXmXqXwX4XQ.OX@.v C U C.uXiX4Xc.E.W.E.W.W.K.K.E.H.c.D.D.H.D.D.D.H.R.R.R.D.D.H.Y.Y.M.k.w.9.) _ 0.0.6.+.X.X.6.q.q.j.w.7.8.q.8.) ) 4.,.N.&XN.=X=XL.J.-X5X5X-XN.C.8.-X>Xj.9.M.%XN.%XT.S.R./.nX=Xv.o. .[ W A  .y.XX>X-XT.T.=X5XQ.M.E.Q.J.M.R.R.H.Y.L.R./.6X0XzXbXbXkX).).0XzXzX6X7XmXxXxXvXxX6X0X8XF.F.R.(.).).).).kXhXkXzXzX).^.~.^.~.!.^./.6X6X/.K.^._.!.Y.Q.R.K.j.o.0 7 O.C.x.R.F.(.).6XzXzXhXzXzXvXbXzXbXbXhXzXzXkX).kXkX).).).!.).zXzX)._.!.!.`.bXcX`.).qXzX/.R.K.)./.).0X~./.^./.4X4X(.~.).zX0XxX4XT.n.i.W f P u.b.N.L.4XD.R.^.D.H.W.Q.W.=XL.R.L.c.h.z.Y.W.W.Q.<.1.J.j.f.M.J.k.M.-X-XY.Q.Q.M.7.7.M.M.N.T.v.m.7.J.J.f.j.m.J.5X9XwX8X8XL.l.E.H.k.H.L.k.N.6.k f ..a.N.=X7XL.T.%XQ.J.M.M.M.k.f.f.T.;XT.k.M.J.Y.5X5X7XQ.E.Y.J.J.T.Y.5X=XJ.Q.E.x.g.J.Y.Y.J.M.x.H.Y.L.Y.Y.Y.R.R.R.R.K.7XQ.M.j.M.Q.=X=XQ.v.| V i % X ",
"zXcXbXzX).`.).!.!.!.!.!.~.!.~.(.!.).6X).).6XzXxX)./.^./.E.L.L.R.qX0X6X7X/./././.4XW.Y.H.Y.E.Y.x.H.R.^.^.(.0XzXxX6X).(.^.^.(./.).).!.~.).hX(.hXbXzXzXzXzXzXzXzX).zX).(.).zX`.).~.R.~.).)./.).).0XzXzXcXcXcXqX0X0X0XcX6XR.D.z.M.OX{ h C U OXtXMXqXH.4X4XW.E.R.L.R.8XE.R.R.^.R.!.!.R.H.R.6X8XE.R.R.Y.D.x.k.j.w.5.5.b.C.&XOXN.B.8.) ,.7.w.8.j.N.v.9.8.8.) ,.8.N.-XQ.Y.H.Y.N.m.j.7.j.&XC.N.T.j.:.:.7.7.J.Q.4X/.wXQ.q.X.! $.W S  . .n.%X-X=XJ.m.v.m.m.Y.J.z.k.R.W.H.H.E.E./.6X0XzXzXbXvX`.!.R.!.6XxXmXbXxXmXHXDXmXcX6XD.H.R.(.0XzXzX).(.(.).zXzX0X0XzX).^.R.!./.).^.K.^.!.!.U.Y.Q.!.E.N.#.0 7 ..Z.x.U.F.!.^.0XxX0X).xX).6X(.(.).(.~.).kX`.`.zXzXkX).kX`.bXvXxX~.].!.).~.0X0X~.!.(.).(.R.K.).).(.(.R.(.^.4X8X8X(.!.).cXzXxX8X%XXXs.W f D u.N.T.Y.4XK.E.R.x.M.Q.W.W.Y.x.z.k.x.k.x.H.H.H.M.,.7.Y.M.k.N.M.8X8XW.j.<.j.Y.k.T.&X9XN.j.j.5.9.J.9X9XJ.T.4X9X9X8XuXnXMX4XY.W.Y.x.R.E.M.C.i.D f  .n.N.L.L.S.M.v.j.M.Y.=X-X=XY.T.Y.Q.J.j.k.j.j.k.L.R.Q.Q.J.k.m.J.5X5Xm.7.x.=X4XE.Q.Y.Y.Q.W.Y.H.J.Y.E.W.=XW.W.E.R.E.W.E.T.9XiXiX9XM.j.5.Y B u % X ",
"~.`.`.~.!.(.~.R.!.R.!.(.zXbXvXvXbXxX6X).).6XxXxX0X6X/./.R.L.D.H.H.x.S.E.0X0X/.R.H.h.h.T.W.H.Y.8X8XcXcX0X6XxXxXzX(.~.K.F.K.!.!.^.^.^.!.R.).vXvXzX6XxXvXcX6X).6XxXvXzX(.(.).~.(.`.0X).).0XqX0X0X0XxXzXcXcXwX8X/./.0X6X0XmXnX4XY.C.] f B U OXuXiX8XE.4XW.Y.H.H.K.^.4XR.R.S.R.D.R.R.R.E.^./././.E.Y.'.Q.Q.W.-X-X,X,X,XtXVXVXtX;Xv.R 7.7.7.j.b.N.N.n.&X&XN.8.j.&X9XW.wXW.Q.Y.J.J.j.w.5.8.w.8.7.j.f.7.,.M.4X4X4X4XQ.b.o.P W W ! ..#.@X>X9X;XT.v.f.j.m.k.k.z.k.x.x.x.x.L.K.E./.).(.~.).).zX`.!.!.0XxX7X).lXmXmXxXxX0XR.l.D.F.F.!.).).!.~.~.(.).`.`.zXxX).!.K.K.R.!.K.G.!.!.P.F.Y.Q.).4X%Xt.y 1 | N.x.c.F.R.!.).zX0X6XxXxXzX).hXhX(.(.zXzXzXzXzXzXzXzXzXbXcXbX`.!.U._.`.~.~.~.~.R.F.R.).).!.(.`.0X).!.^.(.R.K.R.^.(.(.(.)./.Y.b.u.#.S 0 P n.OX-XQ.W.K.R.c.x.Y.Y.M.j.k.M.h.k.Y.Y.Y.M.k.j.h.Q.Y.k.T.=XT.W.E.M.M.H.k.h.j.M.J.%X;XN.j.M.v.v.J.=X=XT.-X9X5X=XW.=X4X9X9X4XW.L.H.L.R.m.M.t.B f ] a.N.z.z.z.j.8.T.=X5X5X=XQ.T.T.T.T.N.k.k.j.j.j.j.x.L.R.J.M.M.J.J.j.f.J.5XW.L.Y.Q.Y.Y.W.=XY.H.J.R.W.W.4XW.W.E.E.K.L.J.;XuXiX9X5XM.j.9.| A a & X ",
"(.).).(.~.).).~.).).).).zXcXcXcX).).).).6X6X/.K.D.D.S.S.c.c.c.D.z.l.S.R.W.J.x.l.z.1.1.Y.4XW.W.wX4XcXcX8X).zX6X~.).^.!.K.K.K.R.R.D.F.F.S.K.6XzX).0XxXvXcX0X(.).zXzX).~.(.~.~.).bXzXzXbXcXbX0XqXcXDXJXDXDXcX0X8X4XE.^.zXDXHXFXMX1X} l C ! C.;X5XW.R.W.Y.D.H.H.K.W.4XR.R.S.R.D.!.!.R.R.R.Y.H.H.Y.T.eXW.Q.Q.-X8X9X9X9X8X9XiXFXGX9X-XJ.5.R ,.9.9.j.%XuX-X-X;X-XE.E.4XW.R.8X9X9X9XN.M.7.j.j.7.<.7.m.J.%XN.J.J./.W.Y.B.n.y.W W [  .y.OXpX;XN.v.M.N.m.j.7.d.f.l.j.l.x.H.L.L.R.^.(.(.).zX`.bXxX^.R.^./.!.6X(.7X(.D.S.K.R.D.R.E.R.R.^.(.^.).(.(.(.~.~.^.).!.!.K.!.!.!.R.R.K.!.!.!./.qXcXcX9Xy.y 1 U n.Z.D.D.R.R.R.).zX0XzXcX0X6XzX0X).zXxXbXbXzX0X).).).).0X`.).).).).~.!.(.~.).).!.F.!.).zX0X0XbXbX).(.(.).!.R.!.6X0X6X).(.E.J.b.i...V 0 P OXOX;XQ.W.R.R.S.H.Y.Y.k.f.j.L.E.W.=X=XT.J.M.M.J.9X4Xx.Y.=X=X9XW.D.x.R.R.j.j.T.M.k.M.m.v.M.M.%XJ.m.m.J.J.T.J.M.=X=X4X5X8X4XY.J.W.R.E.L.N.6.N f I i.N.z.z.z.m.j.T.Q.Q.T.M.j.j.m.T.M.j.8.5.f.v.M.H.H.J.Y.Y.J.N.J.k.7.m.9XuXH.g.f.x.z.k.Y.Y.Y.Y.Q.Y.Y.E.R.R.Y.Y.R.W.E.4X5XT.j.k.=XQ.T.N.s.} a % X ",
"0X0X0X).).(.).).).`.`.).).`.`.).~.^.^.).0X0X^.L.g.2.2.2.d.g.h.z.H.Y.W.Y.x.g.g.g.f.<.<.h.E.8X8X/.E.4X4X/.).6X).R.(.^.~.!.K.F.D.D.G.G.D.K.D.S.R.0X0X6X6X0X0X).(.(.!.!.~.~.!.!.!.~.(.`.cXcX).!.`.vXJXvXvXJXcX0X8X0XR.wXmX6X/.GXLX2X{ h B U N.%XW.Y.R././.W.4X/.^./.4XE.E.R.R.R.(././.R.Y.E.Y.z.k.W.Y.c.d.h.k.x.M.Y.Q.T.=XwXFXFXmXnX-Xv.5.5.5.9.8.N.&XT.%XH.m.J.R.4XL.R.qX8X4XQ.J.Q.9XJ.M.Y.Y.f.f.M.T.v.m.H.R.c.k.v.|.#X..W ~ ] a.A.rX%Xm.v.M.M.M.m.j.7.g.x.M.Y.W.L.W.K.R.E.^.^.).bXvXzX).).!.R./.xXbX^./.lX^.g.S./.4X4X6X/.!.(.0XzX0X).(.(.(.(.^.(.^.^.^.^.R.K.K.K.F.K._.(.0XnXDXmXSXXXx 1 P u.Z.H.D.R.K.F.(.zXzX0X6X!.^.).^.(.zXzX0X0X`.`.0XxXzX0X`.~.R.!.).0X).~.!.0XzX~.!.(.(.!.~.zXxXbX`.!.).).0X6XzXxXxXxXcXvX6X4X=X%X|...v 0 N XXC.-X=X^.^.R.R.E.H.M.J.k.j.m.Y.T.=X5X-XQ.Y.Y.W.Y.9XnX=XQ.8X4XqX0XE.L.R.L.J.W.=Xj.j.j.v.j.5.m.T.m.M.J.j.f.M.E.Q.-X9X4X4X4XY.=X8XE.^.W.N.0.D k P s.N.L.L.L.T.N.k.M.k.j.j.M.N.T.M.j.j.j.7.7.j.j.L.S.m.J.Y.Y.J.T.Y.M.J.Q.H.k.S.M.M.M.J.J.J.Y.E.W.Y.Y.Y.Y.L.L.R.R.7X4X4X9XQ.h.f.H.Y.T.OX.X@.a + X ",
").(.~.^.R.F.R.)./.0XqX).^.(.).).zXzX6X6X6X6X6X/.K.H.D.x.D.H.J.L.z.J.R.J.J.Y.Y.Y.x.x.c.x.Y.4X4XE.E.E.E.^.).6X^.K.F.!.~.~.!.K.F.D.K.K.E./.R.D.H./.R.K.H.R./.^.R.R.R.!.~.!.!.!.R.F.!.~./.`.!.F.R.0X0X`.8X0X8XW.4X4X/.cXHXDX0X9XuXOXJ 0 j P n.%XW.R.R.4X0X0X0X/.^./.R.H.D.H.S.D.K.E./.R.E.4X-XY.N.T.c.l.h.x.x.x.Y.W.8XwXnXqX6X7XP.D.=X=XQ.Q.N.v.j.8.j.m.M.,.<.E.7XqXcXqXcX4XY.J.J.5XY.=XQ.J.=XuX=X7.8.8.H.x.H.g.j.q.6.{.~ B W @.a.*X>X;X-X%XJ.M.J.=XH.f.j.M.H.Q.=XL.L.S.D.R.R.R.R.).~.!.(.cXvX0X).7XxX).6XxX6X/./././.E.R.R.R.R.!.).).~.!.(.).).).).).).).!.F.S.l.l.S.!.hXzXqXwXcXcXpXXXv 7 D q.M.D.D.D.D.R.6X0X6X0X0X).6X).^.6XcX0X`.`.`.0XcXDXvXzX0X(.!.~.`.bXbXzX).zXcX`.).`.).!.U.zXzXzX).~.zX).(.).6XzXzX).6XzX).7X=Xb.| B 0 7 N n.b.%XQ.^./.R.^.W.Y.T.-XY.j.j.j.j.Z.&X-XQ.T.T.T.M.9XFXwX4X4XL.c.E./.4XwXwX4X5X=Xj.j.j.M.m.7.m.J.m.m.m.9.7.M.J.f.m.E.J.R.E.k.E.R.H.K.x.j.6.C f I u.B.L.L.D.T.T.T.T.Z.N.T.Q.T.N.M.j.T.=XN.M.N.M.m.l.f.k.M.J.J.J.m.J.=XQ.m.H.J.m.Y.W.Q.Y.J.T.Q.Y.E.Y.Y.Y.L.Y.E.W.K.L.L.Q.W.T.j.f.M.M.C.{.' u + * ",
"bX).).`.(.R.~.zX`.cXvXqX(.(.).0XzXvXcX0X)././.E.R.R.H.x.H.L.Y.Y.E.=XQ.Y.=X5XT.h.H.H.Y.Y.x.d.z.W.W.E.R.E././.!.F.G.F.^.(.(.!.!.!./.8X6X/././.R.l.2.3.l.H.K.F.R.!.~.(.~.!.(.zX0X(.).R.F.R.!.R.F.F.~.!.!.^.^.E.^./.mX6XqXcX/.Y.T.N.] f C ! n.%XQ.R.D.E.4XW.R.D.D.E.R.R.c.R.c.R.H.^.H.W.4X=X-X8XT.j.k.c.x.Y.Y.M.Y.4XE.qXwXR.S.E.7X7XJ.=X-XC.N.N.v.7.5.,.f.j.M.=X=XMXmXqXqX4XR.L.x.H.5X4X4X4XW.R.R.Y.=XM.m.2.L.H.J.8.p.#.~ c P  .Y p.rX-X%X%X%XJ.M.M.H.j.M.M.j.m.J.H.x.S.E.0XxX6X8XzX!.!.!.!.6XxX6X^.(.lX6XK.K.xXvX!.^.K.D.K.R.R.!.(.).R.U.R.(.(.!.R.)./.^.R.F.S.l.g.K.).zXbXwXwX0X4XOX#.v 0 Y b.Y.D.H.S.c.^.wX8X/.qXzX8XqX).!.).xX(.zXqXzXzXvXJXbX(.(.).zXcXDXDXvXbXcXbXcXvXvXzX).).~.cX0XzXxXcXmX/.6X).6XzXzX0X).).xX8X%X6.C 7 ; 7 j a.u.T.Q.W./.H.^.8X8X8XeXW.j.j.Z.M.k.M.M.M.M.T.W.iX8XE.9X4XH.H.W./.E.E.0X4XW.qX9XT.Y.M.M.M.7.f.N.v.m.j.7.m.T.m.j.j.M.k.Q.-Xj.J.J.H.R.k.8.u.Y f U u.B.m.m.j.M.N.k.M.N.T.;X9X&XZ.M.j.M.J.j.j.N.J.M.z.j.k.m.m.m.M.J.J.=XQ.k.x.L.M.H.T.Y.M.M.Q.W.J.Y.J.J.J.H.J.R.E.H.J.J.j.k.Y.Y.H.J.N.XX}.K 4 + * ",
"kX`.~.!.~.).`.).~.JXbXR.!.(.(./.xX0X0X6X^.U.U.Q.W.c.D.R.x.z.Y.Y.l.d.g.M.H.f.f.k.M.M.Y.Q.x.k.Q.9X9X6XH.z.E.^.R.^.G.F.!.R.~.6X6X(.6X0XcXwX/.E.R.M.d.<.2.z.R./.6X6XzX6X6X).!.!.).).(.G.U.`.~.R.!.F.!.K.F.R.!.^.).zX^.6XxXcXnXqX4X%XP f N U :XrXiXnXcX0X4X4X/.L.x.H.S.S.U.R.W.Q.R.Q.H.x.j.W.T.T.H.-XT.-X8XW.W.5X9X8X4X8X-XT.Y.Y.H.j.T.T.N.j.w.v.M.b.N.f.j.m.J.k.k.9XY.wXnXR.g.z.L.S.^.xXmX6X7X0X6XR.K.S.S.K.^.E.M.v.u.| ] B P ~ #.n.rXN.N.;XT.N.J.j.j.M.J.M.M.M.k.j.x.L.E.W.E.R.E.^.L.^.!.G.K.lX6XF.I.hXhX(.lXlX).xX~.).).(.!.~.(.(.(./././.(.R.!.^.).R.^.7XK.L.^.xX0X0XxXxXzX/.L.m.u.#.B f | b.M.H.K.F.F.R./.8X8X0XbX^.U.!.zXbXkX).~.'.cXJXcX).).0X0X0X`.0XbXJXJXcXvXxXbXJXHXvXxXzXzXxXzX4X6XwXwX4X8X8X0XqXzXxXxXzX0XiXC.| A w # 1 v s.@XB.J.4X/.D.l.Y.W.uX&X&Xj.9.8.j.j.j.7.7.M.Q.;X9X5X5X9X8X5X8XwX8X/.W./.4X8X4X=XW.T.M.k.j.j.j.j.8.j.j.v.M.M.N.j.j.k.b.Z.b.k.Z.x.k.j.v.i.6.Y k | n.i.C.v.v.q.b.N.J.N.Q.M.M.;XM.T.N.C.C.M.j.v.T.J.J.J.m.k.M.M.k.J.M.L.R.Y.Y.Y.x.Q.Y.Y.J.Y.Y.J.H.E.Q.Y.M.M.T.Q.J.T.Z.j.j.H.Y.H.H.-XC.t.@.K a & * ",
"_._.~.!.~.).).).)././.qXcX^.R.cX4X8X4XH.H.W.R.x.h.x.Y.x.h.M.T.k.,.f.H.J.k.f.v.T.&XT.f.R 7.9XiXH.d.H.R.^.6X7X^.6X(.(.(.~.^.).).).6X^././.Y.M.j.7.,.z.W.8XcXvXxX6XzX).).).R.K.R.F.!.F.R.(.~.).).R.U.K.!.(.^.!.^.6X6XxXxX6XqXqX7XB.P f N P @XpXSXmXxX6X^.^.E.H.J.E.D.D.D.D.Y.Y.Y.Q.-XT.Y.W.M.f.<.j.Y.&X8X8X4X4X4X0X0X4XE.Y.Y.k.h.h.M.M.b.j.8.M.&X9XM.M.J.m.k.j.7.M.Q.E.E.E.E.E.^.7X!./.6X6X6XxXxXnXcXwXqXqX4XJ.j.6.T Y U N A ~ #.|.%XT.;X%Xf.j.J.j.j.M.T.T.J.J.Y.L.4XE.L.x.z.S.S.S.K.S.S.^.).^.K.K.!.hXhX_.).(._.).~.!.!.).).~.(.0X0X/.^.E.R.R.E./.^.R.K.R.^.0XcX4XwXnXvXxX7XE.m.9.O...j f U b.M.L.D.F.R././././.8XW.'.cXJXbX).].U.R./.qX8X)./.).(.~.).~.~.`.zXbXzXbXzXzXbXbXzXhXlX).).6X0X6X4X=X=X5X-X/./.0XxXbXcX6X9Xn.! H q # > k O.OX&X=XE.R./.R.Y.M.-XQ.>XT.M.N.j.j.T.Q.N.M.Y.8XW.J.Y.4X5X4X0X0X0X8X/.W.E.W.W.Q.-XW.Y.k.j.j.j.7.8.j.j.M.N.N.C.N.k.w.k.Q.Z.w.7.h.H.M.q.q.t.Y f U i.n.;XC.Z.b.N.%XT.k.M.f.f.Y.M.Q.;X9XT.M.M.M.j.N.J.E.T.M.j.k.M.M.k.J.Y.Y.Y.Q.Y.H.H.Y.Y.J.J.Y.E.Q.Y.H.M.M.M.H.N.T.T.M.M.R.L.H.m.N.n.y.' M i & X ",
"R.R.R.R.D.Y.R.Y.W.wX4Xc.x.Y.H.k.k.J.J.Y.T.W.M.1.h.h.x.h.7.h.j.<.J.T.Y.Q.;X9X%Xv.q.,.,.7.M.-X;XM.M.x.g.z.E.^.^.6X/.^.^.).6X6X0XzX^.L.D.x.d.1.1.<.j.-XMXnXwXcXcXzX).^.(./.^.^.^.R.(.!.~.~.R.).`.R.!.!.(.^.!.R./.0X0XwX6XR.4X8XQ.8.S g B P OXZXSXnX0X/.R.R.R.Y.T.4XcX`.^.R.R.Y.Y.T.Y.k.M.M.M.h.M.Q.Y.W.8XwXqX7X7X0X/.K.D.R.R.x.x.H.z.7.<.7.m.J.M.k.k.M.M.f.m.T.j.j.N.k.k.L.W.E./.0XnX0X6X0X/.K.E.0XcXnXnXnX8XJ.j.8.T Y [ S W  .}.<X;X-X;X%Xv.M.T.j.j.k.M.J.Y.Y.Y.M.R.K.L.H.x.l.l.l.H.z.H.7X6X!.K.^.!.(.!.P.(.).^.).(.!.!.)./.R.R././.R.F.K.R.^.^./.^.E.^.^.^.6X6XR.Q.;X5XR.R.E.N.O.] ' h 0 P i.N.m.L.R.^.4X0X0X4X4XR./.8X/.R.R.).cX(.qXzX(.!.).(.R.U.R.!.].!.`.zXbXbXzXkXkXhX_._.hXbXzX6XzX6X^./.8X=XT.J.K.(.6X6X7X8X;Xi.! H p # - B O.OX;X4XR.K.^.!.R.E.4XY.5X9XiX5XJ.J.5X9X=XE.=XH.z.k.W.qX8X4X4XE././.E.H.H.H.Y.8X=XQ.Y.T.Q.N.j.j.M.T.Q.=X5X9X9X&XQ.M.Y.-XQ.x.h.h.H.M.q.u.u.U f | n.b.C.v.v.b.N.Q.Y.H.Y.M.j.M.j.7.k.T.T.&X9X9X;X%XT.=X=XT.M.M.Y.N.M.Y.Y.M.M.Y.H.W.4X4XW.L.x.z.x.R.H.x.J.H.k.M.Y.M.Q.E.E.R.H.m.m.B.OX{.Q z a s + ",
"D.Y.R.Y.D.Y.Y.Z.T.Z.k.j.M.M.N.Z.j.8.j.M.Z.k.h.h.,.,.1.M.Y.Y.T.-XQ.9XtXuX-XC.b.q.R E ,.%XQ.7.7.j.Y.m.f.S.E.R.K.K.R.K.^.6X6X!.R.R.D.H.Y.x.f.j.T.Q.,XiXGXwX4X7X6X6X/.^./.4X/././.^.^.R.R.R.R.~./.~.^./.6X6X/./.6X0X0X0XW.J.Q.=XT.6.B f B ~ @XaXuX5XE.E.E.E.E.W.-X8XzX).(.R.R.D.x.M.M.M.M.R R R 7.j.L.L.E.7X/.K.L.K.S.l.l.D.R.R.R.E.E.z.g.L.4X4XJ.j.J.Q.Q.j.j.J.N.Q.Y.=X5XW.W.4XwXcXwX4XW.4XW.L.Y.5X4X4XqXwX9XQ.N.n.+.] [ C A [ }.+X2XN.N.T.v.8.f.j.M.j.h.k.Y.Y.x.h.g.S.K.L.l.7.7.j.f.M.E.L.L.K.!.K.!.!.K.K.^.).(.^.^.R.R./.^.R.R.^.!.K.F.!.!.!.!.^.4X^.qXnXqXE.W.5X;X&XN.v.v.v.O.W Z m y 1 V t.n.v.H.H.L.4XwXMXiX9X9XwX9X8X4XE.R.E.6X0X6X^.!./.^.D.F.R.R.R.!.).zXvXbXxXzXkX_.!.!.).hX~.!.^.^.R.H.H.j.7.7.l.K.4X^.E.9X%Xe.W V e @ @ c 6.OXT.7X6X^.K.^.^.4XqXW.4X8XnX5XQ.E.4X4XQ.W.4XW.x.l.H.J.J.7X9XW.4X4X4XR.L.J.J.5XE.H.J.=X4XJ.f.f.j.M.J.J.J.Y.Q.Q.4XW.E.W.Y.H.E.H.S.k.M.N.t.Y f T n.u.v.7.f.j.M.J.Y.Y.Y.Y.Y.Q.J.j.f.m.&X5X=X%X;X;X%XJ.J.T.T.Y.T.J.N.Y.J.j.j.k.x.H.E./.W.Y.H.x.H.H.x.H.H.H.z.z.H.c.Y.W.W.L.M.M.M.u.a.@.v 9 i < + ",
"Y.Q.W.T.Y.T.T.T.k.N.C.C.%X&XC.q.) X.8.N.b.9.) ,.R R 7.Z.-XW.Q.=X9XC.n.n.n.q.) R n.b.C.-XT.M.j.7.j.f.j.x.l.g.S.R.R.R.!./.R.l.2.2.g.x.H.z.k.8XVXuX9X9XeXwXwX7X^.^./.^././.H.H.R.Y.R.U.D.Y.R.Y.R.'.R.W.4XwXcXxX0X4X4XW.Y.T.N.b.w.6.V 0 v ] @X:XC.J.H.R.^././.4XW./.!.!.!.^.^.R.Y.Y.T.%XT.R E E 4.:.x.g.g.S.D.g.g.g.g.l.G.S.L.R.K.D.E.R.R./././.4XwXW.8X9XN.7.,.7.&X,XeXwX8X8X0XwXqX'./.W.W.W.W.Q.Q.W.Q.W.5X5X&XC.A.oX%.[ j C [ {.+X%XT.%X%Xj.,.f.T.M.k.z.k.H.L.H.c.D.S.z.g.,.R R ) R j.N.j.g.S.L.G./.^.R.K.R.E.R.D.H.R.W.R.W.4X8X/.).(.^.^.R.F.F.K.K.K.6XnX4XH.L.=XC.6.U U T P c q 8 3 > - z %.{.i.B.N.J.%X;X>X9X2XpXrXT.j.j.M.T.W.4XW.E.7X7X7XE.J.E.^.4X^.E.7XqXcXvXvXcXzX(.R.P.!.zXzXxXcXmXcXH.<.E E R 7.J.=X=XT.%Xp.! B p < @ @ f X.n.N.=X6X6X).vX/./.4XqX6X4XL.W.W.E.Y.J.Y.E.E.5XT.E.E.z.d.m.J.-X=X=XQ.J.M.m.m.M.Y.E.J.M.m.m.z.d.f.j.f.7.<.7.7.l.R.W.W.E.K.L.^./.R.M.M.i.O.C f D e.u.N.z.x.z.S.L.R.H.f.x.=X5X5XQ.J.J.=X=XM.j.v.N.%XT.M.M.N.N.m.k.k.M.M.h.j.M.M.H.L.R.R.L.H.x.c.D.L.R.H.D.c.l.g.l.c.R.E.k.k.N.B.n.#.A q 8 9 < @ ",
"W.-XW.T.M.k.k.w.9.b.C.q.6.A.i.E D U X.X.) ) R Y ) j.Z.T.-XW.M.f.M.C.C.b.R E ) Z.&X&X,XQ.N.J.M.f.m.j.j.j.g.z.K.R.D.D.K.R.R.D.D.H.H.H.H.k.Y.9XuXQ.=XJ.J.4X8X7XE.^./.^./.^.D.S.D.D.^.R.S.D.R.G.c.^.R.R.K.R./.0XwX0X4XR.J.N.v.5.4.+.B 0 v W s.6.) ,.z.R././.W.E.R.H.R.!.^.6X4XW.Y.J.j.N.C.6.6.q.v.8.M.z.z.z.S.S.g.z.g.S.L.H.L.W.R.x.D.L.R.^././.4X8XQ.M.M.j.j.h.7.M.9XQ.Q./.qX8X/./.0XwXeXW.Q.T.M.j.N.k.k.M.Y.C.B.i.@Xs...k S @..X+X%X-X-XT.N.T.T.Y.j.k.M.H.z.l.D.E.!.G.g.f.9.T E D D T 5.q.j.x.L.L.E.H.R.R.K.E.E.x.H.E.E.Y.Q.8X8XW./.(.R.F.S.l.S.R.K.R.4X=XL.J.M.8.O.Y f j c f 1 > # # @ # z } }.t.p.|.@X|.e.O.e.t.Y ^ e.n.OXOXn.v.N.B.N.%X5X5X;X;X=X;X;X=XQ.=X-X5XiXiXwX0XW.R.H.L.4X8X4X=X-XQ.7.E Y T X.6.8.8.6.+.O.~ B q 2 : O @ f | OX:X=XL.E.xX6XJ.E.W.4XE.E.H.Q.-X&XT.Q.;X&XM.%X%XuXpX%Xv.v.8.B.v.u.u.v.B.v.r.B.N.N.B.v.v.v.f.j.j.j.j.f.7.7.d.g.H.R.4XqX6XE.K.K.E.N.8.O.#.P f Y e.r.m.m.L.L.L.H.L.J.j.J.-XQ.=XM.N.J.J.T.T.N.v.8.T.;XT.M.M.M.j.k.k.M.M.j.j.M.M.W.W.R.R.Y.H.x.l.x.R.W.R.Y.R.L.x.l.g.D.M.7.5.u.O.s.' c r r e 5 , ",
"T.Y.M.h.7.9.,.R 4.E U 6.6.T T ^ U Y N N D _ 0.u.q.%X-X&X9X9X=XT.T.n.q.5.5.q.b.b.9.8.M.Y.k.g.l.M.Y.J.=X4X=X4XW.g.l.D.R.R.E./.4X4XwX4X4X4X4X4XE.z.x.z.c.K.^.^.^./.^.!.^.!.F.F.R.K.!.!.D.S.F.G.l.R.R.R.D.S.F./.zXxX4XW.J.m.j.7.5.+.C 0 B A O.+.4.7.M.E.4XE.R.R.H.S.K.L.K.E.R.H.j.j.9.6.6.u.t.t.O.+.N.N.N.N.M.J.J.J.M.M.J.J.T.%XT.N.J.R.W.=X4X4XW.L.J.7.,.7.J.Q.k.k.0X/./.8XqXqX8X/.R.R.R.Y.Y.Z.Z.k.7.7.<.f.j.j.8.6.%.[ { k C [ s.a.&X%XM.k.Y.=XY.k.j.j.k.x.g.g.S.E.L.z.l.j.u.+.U U P P Y X.q.N.T.=XL.H.Y.Q.Y.Q.=XJ.M.H.x.k.x.Y.T.Y.R.K.G.c.z.z.D.L.4X=X=XQ.J.T.M.5.%.! S V z q , & & o X $ 5 G Q W / $.$.~ V j j c S W ~ ! ..#.$.#. .o.o.#.e.a.a.p.e.r.p.t.e.t.u.u.n.N.N.b.v.u.u.u.;X:XOXv.u.6.X.^  .O.#.o.^ Y D C C c q 9 # O X O g $.<X<XN.v.N.-XJ.M.%X%XC.f.N.N.N.OX&XOX%XOXC.b.OXn.OX Xe.r.|.p.o. .| | o.e.e.e.e.o.X.X.6.u.r.5.r.8.8.8.8.8.8.f.j.M.J.Q.9X9XQ.H.m.J.N.O. .} A w P t.e.v.f.J.P.R.m.m.J.J.-X=Xj.J.M.N.T.J.J.M.v.j.8.N.%X%XT.T.M.8.M.M.N.N.k.k.N.N.M.M.M.J.Y.Q.Q.Q.J.J.J.Y.E.Q.E.Y.x.h.M.N.9.X.| A A z r 9 3 , # + ",
"7.7.<.:.,.,.,.) 4.T X.u.6.T Y N Y f f U t.i.i.n.>X,X%X%X;XJ.m.T.v.q.4.R 9.b.v.4.9.8.m.J.Y.W.7XE.m.M.T.M.d.m.J.z.k.R.4XW.R.R.L.D.E.K.4XwXW.l.2.2.2.c.K.E.^.^.!.P.^.K.!.P.K.K.K.G.G.R.F.l.F.R.U.(.!.(.).).).6X0X6X6X7XJ.l.f.j.j.6.B f V A t.n.&X>XT.4X4XR.H.H.H.S.K.L.L.J.Y.N.b.B.6.T U i.t.#.| #.e.p.n.p.u.B.n.B.OXB.n.n.A.i.u.b.b.%X&XN.v.M.T.Q.T.M.k.f.k.M.k.Y.Y.0XbX^.R.).).F.U.D.c.c.c.h.h.h.7.,.<.7.5.9.) _ ] ] [ B S ..y.i.>X&XJ.Q.=XJ.M.Q.Y.k.g.f.x.x.S.L.L.M.M.u.+.] ..&.@.] C D X.b.Z.M.%XT.=X;XY.%X=XN.h.7.7.h.j.M.Z.T.W.R.H.H.H.M.k.m.M.5.8.b.q.4.4.o.B V v l i 5 6 = = o   . @ 2 8 7 r r r q q 9 9 ; 9 9 7 8 z V z q l c c g l V V c c V S S A A A A S A I W ~ !  . .#.#.#...W B B W Q ' [ W S j v V l q 9 < O . . . 9 -.$XoX|.OXOXn.&Xi.XXn.|.6.6.^ X.t.A.a.O.| O.y.O.!  . .~  .$.A A V B c c B B B B S P P P !  .o.p.i.e.6.6.6.6.6.8.v.v.v.N.N.B.B.%X Xa.y.} G h ; c @.#.|. X5X5X=XJ.8.j.M.%XN.9.C.b.q.b.%X%Xq.8.v.u.8.8.N.%X-XN.8.j.j.M.N.N.T.=X%XM.M.M.M.M.M.N.N.Q.M.v.M.M.v.j.M.Q.M.T.&Xu.O.' v 9 p a i 5 , & $ ",
"H.<.<.9.R R M.N.N.r.u.e.t.6.Y C ~ W  .}.oXoXXXOX*X*XN.6.4.8.v.f.,.,.,.,.4.9.9.9.8.f.m.J.Y.R.K.H.=Xf.:.R 9.f.5.:.f.m.J.J.N.k.j.z.L.K.7X4XS.:.<.z.L.K.7X6XK.G.L.K.^.P.K.F.S.G.S.L.R.K.F.F.F.K.^.^.).6X6X).6XzX7XK./.7X^.S.f.f.j.u.! 0 I ! O.A.OX%XT.Y.M.H.R.R.H.l.M.m.M.N.N.N.n.t.| ] ! ~ ! [ ] ! ! ! ! P P ~  .t.t.O...#.@.! A P +.t.n.A.b.u.b.N.b.M.m.j.M.Q.=XR.^.(.~.!.F.F.F.K.^.^.D.z.x.h.1.j.8.8.8.5.9.9.6.o...] W C C ]  .XX9X9XiX5XN.N.v.v.J.j.f.j.z.d.d.z.7.j.u.O.] { =.*.} ' Z j S o.u.u.b.B.v.b.M.b.j.8.4.9.,.,.w.b.b.v.Z.Q.&X%XN.j.8.8.R R ) +.O.X.Y N h u p e < $ + $ o o o . . O - - @ @ @ @ @ @ O O @ @ O @ : 2 > # @ - : - - - - - - - - - > > > 1 1 ; 1 7 8 0 q l x l l x x x x F K K G b z z l u i 3 , & $ .     5 } *.J ~ $.#.#.%.%.=.@. .[ [ [ &.=.{ ' J J Z v V b b b b v z p 4 4 4 8 9 q p p y q q q h v H Q %. .!  .#.#.O.O.#.O.O.O.o.o.6.u.yX#Xs.Q x 9 > - 9 H $.#.e.B. XN.v.N.n.n.n.B.i.u.6.t.0.i.OXXXt.6.X.6.u.B.v.v.b.B.C.C.b.u.B.C.C.B.b.i.q.q.u.u.u.i.v.v.v.v.u.u.b.OX;X%XA.t...J m z 9 5 < , & = & $ ",
"M.J.%Xm.,.v.;X%XOXn.u.^ D Y  .|.{.}.}.{..X{.{.{.i.i.u.6.6.r.u.r.9.9.9.9.6.6.6.8.8.8.8.v.m.m.m.m.4.^ R R T ^ R E 8.8.v.B.B.b.b.M.m.x.x.M.L.H.S.S.H.H.R.W.L.L.^.7X^.P.P.D.S.z.S.S.K.H.L.L.K.K.E.E.E.E.E.7X6X7X7X^.E.J.H.M.J.=XN.u.C j  .P U XX*XOXN.n.M.M.M.M.j.j.N.B.v.u.u.t.O. .[ [ ' W Q Q Q W Z z h c h 0 f c k Q @.' v h 0 0 k S ..s.t.O.| X.6.u.v.v.M.&X;X=XR.K.D.c.S.K.^.4X/.E.Y.T.T.7.,.M.OXn.6.4.6.u.t.O.#.@.] j j I  .p.rX%X%XM.q.v.v.v.q.9.4.8.8.8.f.f.r.u.e. .W J K K m M h y j I ! P T T T | O.6.6.+.5.0.5._ ) ) X.5.8.u.N.n.b.0.6.o.6.O.O.O. .! P B x p 3 < & + . o o     . . O O O O . . . . . .     . . . + + @ O . + $ + + @ + @ O O @ O @ @ @ @ + O O + # @ @ : : # # # # $ $ , # - > 4 3 i a a s 6 & & $ o     O e p 8 l z v b m m m M b b V b M M z y u u 9 4 4 4 4 2 2 2 1 - # # # % > , , > 3 3 2 2 q p b F H A S H Q Q W ' [ ' ' ~ ~ W [ ..&.} K p , # @ O - n J Q ! o.#.o.O.t.y.t.t.y.t.#.y.y.#. ...| I U ! o.e.s.p.t.t.u.n.n.u.6.6.u.6.X.Y P P Y | o.e.t.i.t.t.a.XXn.t.o.O...] W Z v p i , , & $ $ $ $ X ",
"v.N.%XN.6.n.@X|.XXs.t.^ U ! #.{.$.} [ W A W W ! P P I U ! ! ! U T ^ X.X.o.O.O.e.p.e.6.5.8.8.8.8.^ o.6.O.O.| ! U U U T ^ | +.6.6.v.8.9.) 5.v.8.,.5.5.v.J.M.m.m.m.m.m.m.f.f.f.f.j.m.M.H.J.J.Y.Y.Y.M.j.k.J.=XJ.J.=X=XJ.N.N.:X*XOXp.! Q {.[ ..oX1X@XXXOXOX&XOXOX:X*XOXa.#. .! P S V Z Z V z z z z z u 1 ; 8 8 ; ; 7 q M G x 9 4 4 8 z Z ' ' { W I U U ^ X.o.r.N.OXN.m.k.j.k.Y.=X-X-X-X-X&X&X%Xq.X.0.i.#.X.| O.t.%.....@.[ k j W [ t.*Xu.6.X.T O.O.o.X.o.o.o.o.6.6.e.t.$.[ H Z x p u 4 4 1 4 y m Z B C C Y U  .O. .] |  .| U | o.O.t.t.O... . . ...@.@.[ [ ' [ ' Q J L i , $ $ + .         . . . O O .   . . .           X .   . . .   . .     . . . + X + + X X X X . . . + O O O O O . . . . .   . $ & & % % & , & < & & $ o .   X & < , 4 8 7 4 9 4 4 4 < 4 3 8 8 3 3 , > > < < > % % % # % & # $ & & & & & & & & % % > > , 3 5 i q q y y q q y l y q q y q q g l b l 9 % + . . . @ < n G J W H S A W W W W ' ' W @.@.[ H A Z V A A ! ..$.$. .[ [ ]  .! I ! ] U A j k k v Z Q [ @.[ ! ' @.s.$.I N B j h h q 8 < , % % * + $ $ $ X ",
"n.e.t.|.{.{.}.y.#. .@.@.$...A V c b c q 0 h v k j k B A W A A A ~ ! [ [  ...@...@. .~ ~ ! ^  . .o.#.y.&.$.[ ~ ~ ~ W W P W W ! ! ^ ^ | | O.s.XXXX@Xp.6.o.X.6.i.B.u.r.u.u.u.B.n.n.i.i.n.n.n.n.i.u.6.o.O.e.i.u.u.B. X|.n.u.e.#.#.#.W A *.} [ [ ..@.[ ..%.%.#.#.y.}.$.[ P B k 0 0 7 7 8 8 7 1 1 1 1 4 - - 2 3 1 > 3 8 4 1 4 > # > 9 x x x l h h c v B B P P ! o.#.O.6.u.C.:X;X:XC.v.B.C.n.u.i.a.#.U W W [ [ ! ~ ! Q ' ' J h k H [ y.+Xt.O. .|  .' ] W [  .~ ~ ! ^ ! ~ J G x p 9 > # # # # > 9 x F m V Z W [ [ Q H A A A V V ' %.%.%.} W S V V Z H J } } J G b z l p a < $ @ + . .       . . . . O O X X X X o . o o   X o X X . X X . . . . X X X X + + + + + X X . .   . . . . . . . . .           . . . + + + + + & & * * X . X $ 6 6 , > - # # # # % % # # # # > # + + + + % % + * + @ @ @ @ + + + + + $ * $ + + + + # # % % % % - > > > - # - - - - - - - - - - 2 > # X     . X + # e x F b l q q q h l l l l l q z l u y q 8 p l v G G G b c l c c c c v v c q 7 1 1 7 0 y l z h h z b v h f q 8 7 1 1 > > % # + $ + + $ $ $ $ ",
"W A H ' } [ Q Z v v H G z p 7 8 9 r r 9 8 8 9 7 w 7 8 z b b b b G G Z Z b b z l z l y q h v v v H H H G V b b b G F b b b v v v c V A W ' [ &..X}...I S B S W ~ ~ ~ ~ [ [ ..@.@.......[ ' W A C A H W A I ! ! W ~ ~ W S j j v Z c q V Z Z h y h h h h h 0 0 f h h 0 7 7 1 ; - 1 > 2 2 1 > 1 4 1 > , 2 2 2 2 2 4 1 > 3 e < > > i 9 9 q 9 9 8 8 8 q l c v V Z Z V P [ y.{.}.#.| I P I W A W @.[ Z b G J J Z c c b G b z 8 q V Q }..X[ W H Z Z b b x F F b z v v l p p 9 4 % # @ . + + + # < a a a p x F F x l p p z z q 9 x m x l l y q 9 q q 8 8 8 9 7 4 8 9 q e , % # + + O O + O O O O @ + + + $ $ $ $ $ + + + o + $ & & & % $ $ $ $ $ $ $ & & , , < , & & % $ $ $ $ $ + + O O . . . . . X o . . . . X + + + * + + $ $ $ + $ 6 6 6 6 , - - > # # + + + + @ @ @ + + + . X + + . + + O O + @ @ @ $ $ * * % % + + % % , , , > % # # # # @ # # # # @ O @ O @ @ @ + + X X           + O : e i e 4 > - - - - > > > > # > > - > - # - : > 2 < 2 > # # 2 3 3 4 4 4 > # # % > > > > > > > > 4 1 - - - 4 > > - - # # # # @ + + + + + + $ ",
"- 8 y 7 7 9 8 1 4 1 8 4 - - # 2 - < e e 3 3 4 > > # # > > > - 1 2 4 4 > - # @ O # # # # > > 4 4 9 1 ; - - 1 , , < < 2 2 4 1 1 > 8 4 4 8 9 4 8 q p 7 8 8 8 7 1 - 8 w 8 q q q u q u u u u 9 w 7 1 8 u u 8 w y y 0 7 7 7 w 8 8 8 q p q l y x q 9 1 4 1 1 > > 1 1 1 1 - - > > > > , 2 3 3 3 3 9 e e 3 i a e e p p i a a a 3 3 a a i a i e e i e 9 3 8 9 q q q q 8 8 q l z b l g q q 0 7 q l 9 8 q p 9 9 9 q 8 7 4 4 3 4 3 9 p b Z @.} v f 0 7 1 - > > , , - - - - - @ @ @ O . . . . . . X + & & % @ > < 3 , # @ > < # < 2 > > > - > 4 > - - - > > - 3 2 , : # @ @ @ # # & & $ O @ $ $ $ $ $ & & & & 6 , , , & $ & & & % % < 5 5 3 < , , , , , , 3 5 5 5 e 5 3 3 < , , , , : : > : # @ # # + + + * X & $ $ * * + + + $ + % % # , 6 e e d L e 2 3 5 % + + $ + @ @ @ @ $ $ $ + + $ $ @ + + $ $ & & , & < < < < 5 5 < < 3 5 s i i 5 3 3 , % % # % % + O . . . . . . . . . .             X O + : , % # @ @ O @ @ @ O @ @ # $ @ O $ + + $ . . . . . . . . @ @ + + + + + + + $ % & % % % % , # # # > # # - # # # # # # % > # $ $ $ $ $ $ & ",
"@ > > # # > > # % @ @ @ % , % & , , < 5 s 3 < < , % % + + + O O + + + + + X X X . . X . X . + @ @ @ O O O @ @ + @ + $ $ # @ # # @ + + + + % # @ < # # # @ @ % % # # # # > > # @ O @ @ @ @ @ # % + # # # # # # # - # - 2 e e e e 9 p p q x a i # > > % % % > > , < > > < < > , 6 < 5 5 5 5 i a i a a x a x L L x L x p 3 9 a x a L a i 3 3 5 3 2 3 3 < < , , % % % - - # - - - - 4 # > 3 # O # % # O O @ - - - # @ # < 5 x G G ' } q 1 > > % @ % X . . . . O O O . . . . . . X . . . X X $ + . . . . . . . . @ % . % % # % % % < < , % @ # # , < # # & , , , < 6 & < 6 6 6 $ # : 2 2 2 , 6 6 6 6 e e e 5 < 2 < < 3 2 3 i a a a p p e e e e r l b p p l l l l p p 9 e 9 9 9 9 8 2 > > > # # % % + + O O + $ + * & , & % , 2 e r a x L L L e 9 3 # % % % * $ # # @ @ + $ @ @ $ $ $ @ $ # , , < < , < , < 3 5 5 i e i i a a a a i i s 6 < % % % + . X + X . o o o X X o o o     o . X $ , & $ + @ + + O + + + O . O . . . . . . . .             o o     . X o o o o   o o o + + * & 6 & & & < , & & % & > , < < < 3 5 5 5 5 5 < 6 s ",
"< % # # < > % , , + * # , 3 > 3 2 - # > > > > > > % # @ @ # @ @ @ O O O . . X X . X X X . . . + O O O O O O + O . . + + O O @ + . % % X + % & + @ + & 6 & % % + % $ $ $ % $ + @ % # # @ # # > > % # # > 4 - - 1 4 4 q p p i a x l b b G ( x p 1 4 3 3 4 > > > 1 3 4 4 3 9 3 9 a a a p p x b b b G b c V G V c c l v J J Z z m ' H Z b x x x p e 9 e 5 5 3 < , , > > > , < < > - > # > > # > < + $ @ # > > - - > > > < 1 p K } -.J 7 ; ; 1 > @ @ # @ O @ # @ @ @ O @ @ @ # % # @ @ @ @ # % % # # O O @ @ # # # @ > 3 < > 3 3 < < 2 < 3 3 3 < 2 2 3 3 3 < < , , < i i i i e 2 1 7 7 2 w 9 i a a x n v v l q q q q q q h v V V v V H V V V Z Z J [ } ..@.$.$.@.@.} } ..[ ~ H W H Z v v l y q y y u i 9 3 3 4 1 1 4 i 9 8 8 q l n b L b G H v z z 8 8 8 3 4 4 1 1 1 - 2 2 2 2 9 9 8 9 q q p p p p y y y y l z b b b l l l z c l l l p p p 9 3 3 2 > @ # @ . . X o o X X       . X + @ , < , # # @ @ @ O @ $ $ O O + . $ $ + $ + . + .         . . X * + + + X X X + & & & & , , 6 5 , , < 3 < , , 5 3 3 9 e e e r r a p p p e e p x ",
"4 e 3 8 7 - 4 i < , s < 3 y h V f 0 f f f f h h h v v c V v h f 7 7 1 ; - - > @ # @ @ # % @ @ # @ O @ # # @ @ O # # @ @ # # # # % # # # % # # % % % @ % < , , # , % % + * s & # > - ; 7 q h c v B A I W ' W W  .P C ] @.W A W ] W y.#.%.y.}.! ] W A ] A S A S ~ A B C S A W W  ... . . .^ o.#.o.e.6.O.u.s.t.6.t.t.|.|.XX1X@X.X@X@Xe.#...$.H V l z l v l y p w q 9 q u q 8 8 8 9 9 8 3 4 > > > - 4 2 4 4 9 q l l H H A S ] y.a.y.O.P P ~ P A W V c h h 0 7 1 7 7 1 1 7 0 h v S I ! W W ! [ W B 0 h 0 0 0 0 f h v v j j N j j N V h h v v v v c h v H 0 p r r a x x } *.[ ] ] ] ..] A B B S S S A I Y P ]  .] U ] O.O.%.i.a.i.a.XXXX{.a.|.@X@X<X2X3X2X2X<X<X2XyXdXZXpXrX;X*X:X%X%XOX*XOXu.6.u.u.t.%.#.t.s.O..... .] I P P C S W A W  .#. .! |  . .t.[ B B I S C [ [ { ] ] [ [  . .t.#.#.y.a.t.t.s.s.t.t.s.s.u.t.t.p.t.e.t.u.e.6.O.O.%.#.] W ! W S c f 0 8 # + = * + # # # - - - 4 > 4 q i 4 8 8 7 - > - # - > - @ - # # - - # # # > # @ @ > > - - 3 > - 4 3 > - 4 7 q p l x b b z q z b l l b b y b b V V Z G G H Q Q W H H H W W ",
"7 p g v Z c y 8 i < s a } .X|.oX . .#.y.#...#.{.}.oXXX{.@X+XXXXXy.#.@.~ Z b z w 4 q u 1 1 u h 0 p p q 9 q p p z q 9 8 4 1 1 1 1 q 4 1 1 1 - - - 1 3 1 3 9 3 i 9 > 3 a 5 , < > 3 1 w v [ s.s.s.{.XXyXyX<X2XyXyX3XyX<X3XdX1X@X:X@XKX3XyXZXyXZXZX3X3X*X*X<X2X1Xn.6.|.u.n.n.@X2X:X%XaXpXKXpX5X;X5X5X9XiXSXKXSXSXSXKXpXKXKXKXPXKXKXPXLXLXPX<X{.#.$.~ A S W A A H V v v V Z V b v b b h l l h y y h l 9 p b b V Z W [ s.}.oX1X2X1X3XZXpX*X*X2X*X<X2X<X1X{... .....I j k j B A ] O.i.XXA.OX&X*X*XOXA.i.s.s.a.a.a.i.t.t.t.t.6.O.6.t.u.t.%.%.y.s.y.%.#. .P  .W Q b x l n } .X#XXXA.OX1X3X2X1X+XA.t.t.n.OXOXOX&XOXOX&X>XtX>X>XtXKXKXVXtXtXrX>X;X>X2X;X&X%XT.N.N.M.M.J.J.J.=X=XW.7X5X5X4X-X9X9X9XuX9X=XQ.-XtXeXVXKXSXpXtX;X>X2X2X|.e.s.a.O.|.*X2X:XOXOX:X;X;X*XOXOX*X@X*XZX3X3X2X3X3X>XOXN.OX:X2XrXrXtXtXtXpXuXrXuXuXuXuXtXuXrX9XrXrX5X-X-X>X&X;XtXrX:X%X*X|.y.$.Q p < 6 & i p r l V v 0 0 h z Z K K Q W V V b l q y z z z l h y y q q y l z y q q q q h l z b H K H Z H } W ' [ [ [ [ ' ~ ' ~ W ~ W ~ ' ..[ [ $.$.y.y.y.%.}.|.oX|.y.t.{.oX",
"*.*.~ W ~ H J G M p a b *.$X@X|.+Xa.s.@X+XXXXX+XXX@XOXXX@X*X@X*XOX|.XXXX{.{.}.&.*.}..X-.&.}.}.%..XoX#XoX#X$X$X#X{.}.}.s.%.$.$.@.' J Z Z Z V v z q l h l h h m m } } } F i 9 p G G ~ {.fXZXZX3X3XyXKXKXVXKXPXKXaX>X:X>XyXyXyXZXZXVX&XrXKXKXVXVX;X2XVXKXPXKXVXaX>X:XOXOXB.N.;X:X%XMXBXMXuX9XuXMXFXMX5X4XiXLXLXFXGXGXKXKXLXPXKXSXKXLXPXPX2X+X{.XXy.#X{.{.a.s..Xs.}.&.y.}.}.}.}.s.s..X}.&...W Z C B h c V V B C I | t.i.*XyXyXrXVXKXKXpXrXrX*X:X*X:Xn.n.i.i.XX@X+X@Xt.%.t.t.i.b.C.T.&X;X9XtXtXtXtXtX2X1X2X1X2X3XyXyXyXyX>X;X>XtXtX2X2X1X1X3X3X1X+X@XoXoX}...v v x Q [ oX1X1X>X>X>XtXCXCX3X2X2XyXyXrX;XVXKXtXtXKXKXSX>X;X;X9XuXuXuXtX%XN.N.T.-X-XQ.J.M.m.M.H.L.L.H.S.W.E.W.4X8X5X5X=X=X=X5X9X9X=X=X5XGXeXeXiXMXiXMXtXuXrXpX*Xn.OX*XOX:X2XaXrXrXpXpXpXMXKXMXKXKXKXKXPXKXZXaXtXyXtX>X-XN.5XtXuX9XuXuX9XuXuX9XiXiX9X9X9X9X9X9XuXuX9X9X5X9XN.N.-X;XN.%XaXaX2X#X&.M 3 < 5 x J } $.&.#.] ] A I } }..X#X#XoXs.}.oX#X#XoX.Xs..X}.}.}.}.s.}..X}.}.}..X}.}.}.}.oXoXoX#X$X#X#X#X#X1X3X3X1X1X1X1X#XoXoX#X+XoX{.{.a.a.a.{.{.a.t.O.s.<X3X@X|.<X3X<X",
"$X#XoX|.{.y.}.@.M x M Z @.#X@X XOXu.6.B.OX XN.n.OX:XOXn.OX%XOX%XN.B.N.n.n.|.XXa..X{.a.{.a.s.i.OXtXZXZXpXpXZXVX2XaXaXaXyXtXrXtX3X1X#XoXoXoXoXXX{.oX$X#X$X#X#X3X3XAX3X$X-.} } } }.$X1X2X2XrXtXKXKXVXSXSXKXKXpX9XuXtXtXiXSXVXSXSXSXSXVX>XC.tX-X;XtX;XSXSXKX9XT.9XrX9X;X;XM.j.m.M.T.E.4X4X5XnXmXnXcXE.L.E.8X6XR.4XnXwXnXnXGXFXMXuXwXFXwX9X>X2Xs.s.oXyX3XyX2X2XyX1X3X2XyXyXZXZXZXyXyXyX3X1XXXa.t.t.t.%... . .o.e.t.p.:X2XtXtXSXPXPXLXKXMXpXsX&XT.T.C.N.%X&XC.8.+.6.i.i.a.n.N.Z.C.Q.&XuX9X9XuXSXKXKXVXVXtXrXtXpXyXpXVXtXtXuX9XuXSXSXpXpXyXtXaXaXaX2X*X@X@X#X}.S V l H ! a.:X&X%XT.T.T.T.%XOXOX,XVXpX9X&X>X9X;X9XSXiX-X;XQ.Y.J.J.T.=X9X9X-XQ.Q.Q.T.Y.Y.R.R.R.E.^.4X^.W.4X4X8X8X6X4XW.E.W.9X9X5X5XwXnX9XwX4X4X8X4X8XwXuXMX5X-X;XN.8.u.B.N.J.J.%X5XuX9X4XuXuXuXuXKXKXpX>X9X;X%XT.%X&X=XT.J.5XuX8X4X4X4X4X7X4X4X4X5X4X4X5XqX8X5X8XqX9X5X4X9X9X-XY.Y.=X5X5X9X;X*X$.k 1 % u ' }.#X3X2X<X:X:X*X+X1X3XyXdXdX<X2X1X1X1X3XyXyXyXyX3X3XyXdXyX3X3X3X3XyXZXZX3X<X+X3X3X3X3XyXyX2XOX*X2X2X2X*X2X2X3X3XyXyX3XyXdXyX*X*X:XOXOX:X:XOXn.i.OX%XB.n.;X;XOX",
"3X2X*X*X*X<X1Xs.v z Z Z ..oXOXN.u.N.C.N.M.M.N.%XC.%XT.M.N.T.J.%XW.J.J.J.v.N.N.v.1X&XOXN.N.N.;XMXiXMXwXW.E.4X5XW.4X5X8X8X8X9XqX9X;X%XC.N.N. XOXN.2XaX2XyXaX2XyX3X3X1X1X#X{.}.{.#Xn.<XpXSXMXGXMX9XGXFXLXPXGX9XeXGXFXLXLXFXGXGXSXFXiXLXLXeXGX5XT.Q.iXSXeXeXeX8XGXiXMX9XiX9XW.H.x.E.7X0X6X7XxXmXxXmXHX6XK.^.zXxX6X^.6X6XcXmXnXnXcXwXcX6XwXuX;XT T XX*X2XZXdXpXZXyXaXpXSXKXPXPXPXKXKXKXKXSXpXpXpXVXZXaX<X*X*X2XrXrXpXtXpXiX9XMXFXGXnXMXMXuX5X4X-X-X5XJ.N.N.N.M.M.Z.C.b.N.C.T.T.Q.W./.DXnXcXnXGXFXFXFXSXuXuXSXGX5XJ.Y.M.R.4X4X8XnXFXnXMXiXuXuXuXuX;X%X%X|.@Xy.B v f A e.OX&XT.T.Y.Q.-XW.,X;XN.M.Q.9X9X9X-XT.T.-X9X9X8XqX9X9X8XW.H.H.R.4X=XW.W.W.W./.4X4X^.R.K.R.R.R.R./.4X0X8X/.E./.4XwXmXDXwXwXnXDXnXqX0XcXcXcXwXcXwXFX4X4X4XT.m.M.J.T.T.T.E.4X5X4X7X5X5XqXnXnXMXuX-X5X5X9X9X9X4XW.R.4X7X6XqXqX7X7X6X6X^.E.^.4XqXnXFXnXnXwXqXqXqX6X7X7XnXDXwX8XwX8XQ.5X-XOX .k 1 > a .X2XaXaXpXMXuX-X9X;XrXpXVXKXPXPXrX:XN.N.%X2XpXVXpXrX9XuXSXMXiXrX>X*X;XrXtX;X%XB.N.&X9XrX9X5X-X-XT.%X%XN.N.C.%X;X-X;X%XC.&XrXpXtX;X>X>X9XiXSXVXtX;XQ.T.%XT.N.N.T.",
"KXrX%X%X%X:X@X] B h v Z ..XXB.v.T.-X;XT.J.Y.J.M.f.m.k.j.m.m.m.H.L.L.K.J.L.=X5X-X=XuXiX5X4X8X8X^.0XwXqX4X4XqXwX0X/.4X0X0X4X4X8X0XuX9X5X-X=X-X-X=X=X-XQ.;X5X-X-XT.C.OX;Xi.O.e.|.2XrXiXuX5X6XnXHXHXHXHXLXHXFXLXHXwXwXDXDXnXnXnXnXGXGXcXFXwXW./.DX0XcXwX8XwXDXDXHXGXGX=X/.7X4X^.H./.7XmXmXxXvXxXxXHXbXHXHX6X^.6XzX).!.!.).6X6XxXcX0X6X6X4XQ.&XX.| i.2XyXKXtX5XuX9XiXnXmXFXLXLXLXHXFXFXMXnX9X4X=X=X-X;X;X9XrX5X=X=X5XMXwXnXDXDXcXcXDX7X7X7XE.E.E.R.W.8X4X4XW.=X=X=XW.8X8X4X4XW.R.R.R.0X0XwX0X4X4XwXnXqXW.W.9XwXW.H.R.L.E.6X0XxXxXcXcXnXnXcXwX9X9X-X%X;XOX|.t.j k B ! u.%X-X=X4X7X4X0XqX9X9XQ.Y.=X7XW.5XW.=X8X8X4X4XwX0XwXwX4XR.D.S.D.g.h.c.H.H.H.R././.^.!.K.K.R.!.^.4X4X8X4XW.E./.0XwXwXcXmXcX0X8X0X0X`.0XzX).(.0X0XxXwX0X4X=X9X9XQ.E.5XnXnXqXcXmXHXxXnXHXFXnXqXnX9XnXMXMXnXnXnXnXnXmXqX6XqXxX7X/.6X/.^.4X0XxXqX0X6X0X6X6X7X6X6X6X7XR.^.6X8X/./.^.E.4X=X%X| j 8 4 K XXrXuX5X7X7X7XE.wX8X9X9X5XuXmXMXKXuX-X-X9XiXSXLXLXMXwXnXmXmXmXMXuX4X=X4X9X5X=XJ.S.L.E.7X8X5X7X4XL.T.R.J.J.=X4X5X9XE.L.=X=XT.Q.5X5XqXcXnXGXGXwX-XY.8XeXY.j.M.Y.M.",
"9X5X5X5X=X%Xn.D v h v J s.+X&X;X5X&XY.T.=X5XT.k.J.Q.=XE.W.E.L.J.D.S.K.K.H.E./.Y.E.wXDXnXnXxX^.G.H.R./.8X0XwXwXwX0XwXwXwX8X4X4X4XcXcXqX^.E.P.E.E.E.7XR.7X4XW.W.L.&X;X>Xu.) 6.OXpX9X9XnXnXmXnXmXDXIXHXFXFXHXIXHX8XDXLXHXnXDXDXcXcX0X4XDXLXDXFXFXqXcXwXcXqX4X/.R.E.wXL.H.K./.0X6XcXK.xXvXmXHXHXxXxXJXJXvXzXvXJXNX).zX).lX6X^.zXvXzX).).E.M.;Xi.0.i.:X<XrX%XJ.=X-X8XnXmXmXmXHXHXHXmXFXFXmXcXwX8XqXqX7X=X4X5X7XH.x.L.E.E./.qX0X4XqXmXcXnXwX4X5X7XE.^.E.4X0X0X8X8XwXnX0X0X8X/.(.(.).).).6XzX6X/./.0XnX0X4XW.4X0XcXcXnXzX0XzXvXvXxXzXzXzXzX0X0X0X4X5X-XC.OX*X#XI j V S 6.N.&X4X6X7XE.E.4XE.E.=X8X6X^.H.R.Y.W.0X8X4X/.6X6X4XE.R.H.R.E.^.D.x.S.D.S.l.l.D.^./.).)././.).0XqX0X8X4X/./././.0X0XcXmXvX0X8XqXcX`.).).~.(.).0XxXvXmXqX4XwXqXL.7X5XnXmXnXmXHXLXmXmXLXHX6X^.6X6XqXqX6X6XqXnXmXHXHXHXmXxXxXzX6X7X6X0XcXDXDXxX/.!./.6X6X6X0XxX0X(.(./.8X0X)././.qX4XQ.%X| k y 3 } s.rXMX4XK.K.P./.D.D.L.R.E.5XMXnXLXFX9X4X4X4XmXLXLXmXxXxXxXxXxXnXqX7XE.^.6X6X7X7X^.S.z.L.7X7X^.K.S.H.H.L.R.W./.W.xX7X6XcXqXE.H.R.wXDXDXDXDXcX8XQ.h.8XeXk.7.M.Y.j.",
"4X4X5X4XM.%XyXXXj h m ' =.i.n.&XT.J.Y.;X9X9X9XuXW.9X5X=X=XY.x.S.E.!./.6X4X0X8X/././.0XnXmXzX).^.0X4X-X4X8X8XwXGXqXwXwXwX5X=XW.4X0XxX0X^.K.L.R.K.R.^.R.W.^.R./.R.M.T.T.5.T 6.n.:X=XJ.W.nXmXxXcXHXHXcXHXLXcX6XqXcXwXDXcX6XcXcX6X/.6XxXE.cXDXDXE.6X6X/.xX/.^.^.S.H.c.c.R.E./.xXzXcXzX6XG.2.(.bXzXbXzX(.zXJXNXzXbXHXHXxXzX).F.(.xX).(./.R.j.Z._ U 0.e.n.>X9X9XMX9X8XxXzX0X0XxXcXvXcXcXxXqX6X/.^././.6XE.E.7X4X^.K.K.R.^./.E./.xXcXcXnXGX9X4X4X4XL.L.E./.4X8X8X0XxXcXcXqX).^.!.!.(.).).).(./.8X0XwXcXqXcXwX8XqXmXcX6XxX).).xXvXzX).zX(.).6X6X4X8X9X9X&X1X+X$XA f S I p.%X-X=X4X^.R.E.Y.Y.R.W.W.E.^.7X/.L.x.L./.6X4X4X/.R.H.L.R.E./.E.D.c.h.h.c.l.D.Y.^.8XqXqX/.^.^.^.0X8X/.W./././.W.R.8XzX0X0XcXcX0XbX`.0XcXbXzX0X(.).6XcXDXGXGXGXnXnXqX6X0XnXmXmXmXHXnXmXmX7XE.7X7X^.^.^.7XqXcXxXqXcXmXnXxX6XxX6X).xXqX0XxXxX0X6X6X^./.4X/././.K.S.D.(.0X8X/.(.R.R.4XW.&XU h 7 > } +XpXMX5X7X6X).R.R.H.E.W.Q.7X8X4X8X9XMXMX8XW.E.^.mXnXxXxXlX7X7X6X^.E.E.^.6X4X7X7X/.K.L.^.^.K.^.6X0XcXcXcXnXnXcX6X^.7X6X7X6X0XwXqX(.0XxX0XqXwX0X/.8XY.Y.-XW.k.h.M.",
"R.W.4XW.Y.-X2X#XV h h J %.#Xn.;XQ.T.W.Q.&X8X9XiX8X5X-X-X5X-XW.E.cX0X/.4X8X4X4XwXwX/.E.0XcXxX6X4XE.=X-X-X5XeXiXiXMX5X8XQ.W.8XQ.9XwX4XR.E./.7X/.E.E.E.H.x.H.H.c.k.Y.C.C.X.Y +.n.OX%X=X9XGXHXDXDXHXHXcXcXJXwXW./.cXwXcX8X^.'.R.c.H.R.6X8X7XW.E.E.7X^.K.J.E.L.L.K.K.D.Y.^.8X8X/./.8X/.(.!.R.~.).`.).zX~.`.zX~.`.JXbXzX0X`.zXzXzX(.!.zX/.4X&X0._ Y Y +.u.&XuX9XuXiXqXwX0X4X/.4X0XcXnXwXwXqX/.^./.6X0X0X5X^.L.E.cXcX4X/.6XR.R.0XwXqXnXGXiX-X=X=XY.H.E./.W.E.E.E.E.^.^./.8X).~.R.!.~.(.`.).^.R.^.qXcX0XqXwXwX4X4XqXxX0X0X0X).).).zX0X).).0XzXqX4X4X-X;X&XA.XXs.A y k ] t.%X=X5X6X4X0X/.8X8X8XQ.R./.6X6XE.M.E.qXqXW.Y.H.z.E.R.x.E.W.H.H.R.8XY.x.R.R.E.R.R.W.8X0X~.R././.0XR.S.D.R.^.)./.qXcXcX0X0XxXbX0XcXJXcXqX`.`.zXzXcX8XqXDXDXwXnXLXKXnX8XqXmXFXmXqX0XLXHXHXcX7XnX8XwXwXwXwXnXFXnX4X0X0X0XqXwXwXqX0X8X0XqX4XE.4XwX4XR.4X0X4X4X/.E.E./.R.R.~.).'.'.'.W.eXZ.U k > % K oXn.9.M.wXwX4XH./.h.h.W.W.L.R.W.T.7.M.5XT.Y.W.E./.4XL./.0X7X0XR.R.E.4XE.D.R.0XwX4XH.c.D.D.S.^.mXmXxXwXcXDXDXnXcXcX6X^.6X0X8X6X0X6X!.^.E.E././.wX8X=XW.=XQ.N.j.j.",
"E./.6XW.J.&X<XoXv z m ( &..XXX2X>X9X;XZ.C.,X,XQ.9X9X;XQ.T.Q.;X9XqXGXGXnXuXeX-X8XiXqX8XwXcXwX4X4XuXMXuX=XQ.5X9X9X9XT.4X-X8XuX4X5XR.R.R.E.W.W.W./.4X4XE.Y.Y.H.x.M.Z.b.N.X.Y +.a.1X2X;XeXGXFXFXFXFXDXDXFXJXW.c.R.cXcXcX8XW.U.3.1.S.K.S.z.K.^.L.S.J.L.L.J.^.^.7X7XE.4X/././././.8XqX8X/.(.(.).).0XzX).!.`.).G.D.bXJXcXbXbXvXJXcX).F.`.8XeX>Xi.` S D U t.;X;X-X9XwX8X4X4X0XqXqX0X8X8X8XwXnXcXqX4XW.R.R.^.^.H.K./.6X4XE.0X0X/.4X4X4XnXuXSXMX9XT.j.J.eXE.Y.H.D.H.H.D.D.D.R.R.R.R.R.~.!.R.R.R.D.D.R.W./.0X4X4X/./.4X8X0X0X0X6X).0XzXxXzXzXzX0X/.W.W.T.b.6.o...{ k 8 h Q u.%X=X-X/.E./.E.W.-X-X-X5X4X^.R./.Y.W.8X4XE.R.H.z.W./.E.E.E.E.4XY.8XQ./.wX/.W.W.W.Q.Q.Q.Y.Q.8X8X/././.8X`./.8XcXDXzX0XzX0X).0XcX0XqXbXbXbXcXcXqXcXcXcXcXqX8XeXGXMXFXLXFXnXcXmXHXDXFXcXnXFXFXFX4X8X8X8XwXnXnXnXqX/.4XwXwX4X/.4XwX/.E.4XwXqX0X4XE.wX4XW.4X4XE.R.qX^.R.U.R./.'.'.8X8XeXi.S y - + a [ t.q.C.5XQ.E.E.x.k.M.T.T.W.W.M.7.,.M.;XZ.k.Y.J.W.9X8X4X4X0XwXR.Y.=XeX-XY.E.Q.x.Y.J.z.g.l.R.4X4XwX0XwXcXcXwXxXcX0X/./.wXDXnXwX0X7XE.^.E.K.R.L.=XW.J.J.J.J.M.m.m.",
"W.4X4XH.f.v.t.' 0 8 z M [ @.O.n.&Xb.j.N.%XT.%X;XQ.%X&X=XQ.T.M.M.W.eX9XW.W.-XW.Q.W.W.&XeXeXeXeXwXqX7X7XqXnXqXqXqXqXE.K.J.7X5X7X4XH.x.H.E.-X-XW.W.W.Q.T.Y.Z.N.N.Z.%Xn.n.+.Y ` t.1XyXrX9XiXGXLXFXFXLXLXHXwXW.Y.R.8X0X/.Y.R./.R.D.E.S.z.z.E.7X^.J.7XL.S.E.7XL.z.S.J././.0XwXwXwXwXcX0X4X4X6X4X/.6XwXbX0XbX).3.l.).zXvXcXcXvXDXJX0X~.0XwXnXtXA.] S A P a.tXrX-X9XuX9XwXiXiXiXeXeXeXwXwXnXGXwXqX4XW.Y.D.H.H.H.D.H.R.Y.Y.4X4X=XW.T.Y.&X-X9X9X%XJ.j.7.7.M.j.h.j.D.Y.Y.H.R.^.^.^././.(.R.)./.8X8XW.Y.Y.W.E.H.H.W./.W./.qXwXxX0X).6X0XzX6X).6X4X/.E.N.8.T T U W B 0 1 y J t.N.N.J.H.D.R.H.Y.Q.5X8X8X4XE.L.E.Y.T.T.Y.T.W.Y.x.H.D.H./.4XE.E.8X8XQ.Q.8XQ.eXGXeXQ.x.h.h.x.R.Y.R.^.8X8X/./.8XcXbXqXbXJXvX).!.R.8X0XwXcXJXDXcX8XqXwXcX0X8XeXwXnXwXnXnXwX5X4X6XqX5X5XcXqXnXFXFXFXwX9X4X4X4X8XwXnXqXnXGXnX8X4X4X8XwXW./.qXwXqXqX8XnXwXqXcXnX8X/.wXW.R.Y.R.~.W./.'.8XeXi.V 8 % X > k ] +.N.T.Z.W.8XZ.T.&XT.N.T.T.j.N.b.T.;XT.T.9X9XuX9XiXMXeX8X-XiXiXQ.T.&XY.M.Y.8XT.W.T.M.M.=X9X5X4X4X0X0X4XW./.4X4X/./.4X0X4X0XwX7X7X6X7XJ.L.x.H.=XE.=X5X9X9X5X;X",
"/.8X4Xx.9.6. .B y 4 i p ' ] U _ 6.) ) b.%Xn.T.;X;XC.j.j.N.T.T.M.Q.W.Y.M.-X,X&XT.-XW.-X,X8X-XW.=XnX6X7X0XmXnX7XL.7XK.L.L.P.^.E.E.Y.M.M.W.eX9XW.Y.T.Y.T.Q.Q.-X-X&X%XC.OX+.D Y t.*X3XrX9X8XeXGXGXGXGXDXwX8X8XwXcXcX/./.W.8XcXnXqX4Xz.E.4X7X7X5X5XqX8XH.H.W.S.<.7.L.4X8XqXwXcXcXcXcXqX4X4X0X4XE.R.^.'./.0X0X).0XcXcXcXzX0X0XbXcXvXcX).4XW.Z.O.P B A W XXVXtXuXuXqX4X9XeXeX9X9X8XeXeXiXMXnXeXqX8X4XW.R.L.c.D.H.H.x.z.x.H.H.Y.T.Y.k.j.8.q.w.j.%X-XM.7.j.f.f.j.x.T.Q.W.R.R.R.R.~.~.R.D.S.D.W./.R.c.3.l.x.x.D.E.W.E.E./.cXwXqX0X0XxXxX0X/.^.E.W.Y.j.) T | ..] v 8 1 y J a.%XJ.Y.Y.L./.E.Y.Q.8X-XE.R.E./.E.Y.T.Y.M.E.W.Y.W.E.R.4XnXnXwX8XW.8XW.8X8XQ.8XeXwX4XQ.Q.D.Y.Q.Q.qX8X8X8X0XqXcXcXcXcX0X(.^.0XqX/.8X0XqXwXcXDXcX0X/.8X8X8X0XwXwXiXGXnX8X8XqXqX7XE.7X6XmX6XR.5X5XMX5X4X4X9X9X4XQ.W.nXiXwXiXiXwX9X4XnX4X4X0X0XqXcXnX/.wXwX8XwXqX/.Y.4X/.W.~.~.~./.'.8X>Xi.V 8 % + % y C P X.b.N.Q.W.M.k.Z.T.N.N.T.T.>X;X>X>X;X9XiXeXiX-XiXMXuX9X;XKXSXT.T.9X;Xj.j.N.Q.;X9X9X=XQ.=X9X8XwXcXcX8X4X/./.E./.8X4XR.H.R.0X5X7XwX7XE.J.m.H.J.M.M.J.=X;X5X9X",
"'.8X4XL.v.B.t.W q 1 e 9 J W Y U T b.b.b.v.b.C.8.v.9.) 4.j.N.N.M.T.J.M.Q.9X;XJ.M.4X=X-X8X9X9X5X5XcXmXxX^./.mXcXK.G.S.L./.7X^.E.K.W.E.W.4X8X-XY.M.Y.k.Y.W.T.W.&XY.C.%X*X+.N U a.2X;X>X5XQ.W.8XwXwXqXcXqX/.W./.0XwXqXDXHXJX8X8X8X/.H.7X7X^.^.7X^.7XcXK.H.E.^.R.E.E.DXnX0X4X4X0XcXcXcX0X0XwXqX(.R.F.'.`.bXcXJXHXHXcXbXzXkX).).`.vXHXcX0XY.b.0.U B I ..XX1X>XuXuX5X5X9XeXMXGXMXeXqX9X8X9XnXnXnXnXqX/.4XR.H.R.E.Y.H.H.x.j.j.k.M.Y.Y.N.j.b.j.8.v.N.T.Q.m.m.k.k.k.M.Y.E.H.D.D.H.R.E.R.R.R.R.4XcXxX4X/./.E.E.E.H.H.R.E.R.^.^.^.^.7X6X6X).zX^.R.R.M.4.) 6.O.%.{ v 0 1 y J n.%XT.Y.Y.H.^.R.Y.Q.Q.T.Y.Y.R.E.E.W.W.R.D.R.E.H.c.H./.0X4X/.4XwX4XqX4X/.E.E.0XW.R.W.qXqXW.E.4X4XqX0X6X6X0X0X0X0X/.6X/.^./.cXmXcX4X4X0X0XqXcXcXcX0X/./.0XwX0X8X8XnXnXGXnX8X4X6X6X7XR.7XR.E.qX4X8X8X4XW.4X8X4X4X4X4XW.W.4X8X8X4X4X/./.0X0X4XqXcX6X6XcX0X/.4X0X7XE.0X8X/.^./.).'.8XW.;Xi.V 7 # + * y B N Y q.j.M.k.T.Y.T.Q.N.M.J.J.N.%X;X>X;X-X=XJ.Q.&X9XJ.Y.MXuXuX-X%XQ.J.N.Q.=XM.Q.=X5X9X5XQ.E.W.W.4X0X0X4X/.E.R.H.E.4X0X/.L.H.H.4X7X6X^.J.R.H.J.H.j.7.<.7.m.Q.-X",
"~.R.R.H.j.B.e.Q ; 1 p p Z W ^ 6.u.>X;X&XN.q.v.4.) ,.9.8.q.j.8.5.j.z.k.J.Y.x.k.Y.Y.Y.Q.-XeXeXeXeX8X4X0XwX6X/.4XcXH.R.R.4X4XR.W.E.Y.W.4X8XW.H.H.Y.E.M.T.W.J.J.Y.j.T.&X,X+.D T n.2X&X5X5X4X/.8XwXwXcXcX8X^.~.^././.cXcXDXcX/.0XcXqXcX4XR./.8XR.D.R.R.8XcX8X^.qXmXxXDXcX0X/.8XqXzXqXcXcXcXvXvXzX(.R.bXJXDXvXbXbXbXzXbXvXvXzX).).zXvXJXxXR.N.n. .V A @.XXOX%X9X9XqXMXnXGXGXMXMXnXnXnX0X0X6X4XqXcXxX0X^./.4X4XW.E.W.4XL.M.M.M.k.Y.5X9X-X9X-XN.M.M.M.T.T.T.T.Y.M.J.T.W.E.R.K.R.E.^.E.E.W.R.R.^././.).6X/.4XW.H.H./.0X6XE.^.^.^.^.).^.!.).R.W.4XM.) T O.....A h 0 1 y } n.%XJ.J.L.D.R.D.R.H.x.Y.E.E.K.D.D.H.R.R.H.R.^.R.^./.xXvXzXxXvXcXnXnX0X^.R./.cX0XE.0XGXnX/.R.R.R.^.6XzX0X).(./././.^.8XDXFXcX0X8XqXwXwX0X0X0X0X0X0X(.^.0XwX8X/.4X7XqXcXcX0X4X6XqX^.K.R.R.4XcX8X0X0X/.E.E.4XwXcXnXE.4X4X4XE.E.W./.E.7X0X4X^.0XcX6XxXwXwXcXmXqX7X0X/./.^.~.~./.`././.Q.u.C 1 O X $ u S P X.v.M.T.Y.Q.8XeX5XY.=XW.k.k.J.=XQ.J.M.M.N.M.M.M.j.M.5X5X=X-XT.J.m.M.=X9X9XW.4X=XE.4X9X4XL.H.H.R.R.E.E.R.D.R.H.D.R.W./.R.D.H.D.R.H.L.R.H.R.Y.J.x.j.x.Y.T.T.",
"!.D.D.z.f.8.o.H w 9 a b J %.t.OXC.;X%XrX%X4.j.v.N.M.v.f.f.j.m.M.x.L.H.x.S.S.L.7XW.W.4X=XW.Q.E.T.8XT.W.iX5Xj.j.-X5X5XJ.T.T.M.W.E.H.Y.E.W.E.H.Y.E.8XW.0X0XH.H.E.M.-X&X%X+.D T n.;X-X7X6X6X6X0XzXxX0X^.F.R.).xXcXmXcX^.^.0X0XvXDXvXvX8XR./.qX/.R.).!.cXHXcX!./.cXcX0X0X0X0XxXcXzX/.zXvXmXmXmXHXvX0X!.zXbX0XzXbXJXJXvXJXJXbXkXhXkXbXbX6XD.M.n.| j C  .#X2X-X9XnXnXFXMX8X4XR.E.4X4X6X8X7XK.L.K./.6X7XE.4X0X4X/./.4X4X4XR.W.E.M.J.4X=X=X&X%X-X9X;X=X=X-X=XQ.Y.Y.Q.=X4X/.E.R.E.E.R.R.R.4X).(.!.!.^.^.^./.^.^.W.^.7X6X6X6XlX6X).6XlXlX6XK.^.7X7XJ.5.X.O...[ V 0 0 1 l &.OX-X=X7X7X^.).R.R.Y.Y.W./.R.K.F.S.S.K.R.R.E./.(.(.R.!.^.^.zXzX!.0XqXxXDXcXxXnX/.cXnXDXDX0X/.4X6X6XxXvXcXxXxXwX0XnX0X4X0XwX0X0XwXcXnXcXxXxXxXzX).6X6X6X0X0X0X8X4X0X6X6XxXnXmXcXzXxXxXxXxX0X/./.E.H.E.0XcXcXcX8XE.0X0X0X4X/.E.^./.0X7X6X6X7XqXxXqX^.7X6XqXxX7X^./././.^.!.^.`.).~.'.T.6.C 1 O X $ z { ..i.OXQ.5X4XH.E.4X4X7XqXqX^.E.E.L.L.R.R.R.=XY.z.7.M.E.H.J.E.4XJ.W.5X=XM.m.H.W.W.J.L.K.^.7XR.E.E.E.K.E.^.^.W.^.L.g.g.S.K.K.H.c.c.H.c.D.R.D.x.c.x.H.H.R.E.Y.x.",
"8XR.H.H.m.v.e.! 0 q 9 z H y.6.B.b.;XN.%Xb.9.N.v.v.8.8.v.N.N.v.f.S.R.L.l.S.L.z.g.H.R.W.W.J.J.J.T.k.M.M.w.j.T.Q.T.Q.Q.k.T.Q.M.Q.M.H.c.c.H.^././.E.E.H.4XW.d.d.Y.J.%Xb.v.X.E X.B.>X%XE.^.7XzX0X6X6X0X)./.^.R.R.0XHXDX/.8XvX6XR./.0X!.).(.!.(.0XzXcXHXqX).0X`.).0XqXcXxX6X).6XxX0X/./.xXmXvXmXHXHXDX~.zX`.).zXvXbXbXJXJXvXbXkXkXbXJXbXzXH.N.OX..C P I 3XKXrXuXMXnXnX8X4XR.R.E.E.E.K.E.K.L.S.L.K.L.S.E.W.W.W.4X4XW.L.8XQ.W.4XE.Y.J.7.j.j.j.j.M.j.j.J.;X-XT.J.Y.R.E.W.4X/./.8X0X6X6X0X(.6X0X).(.6X).^./.^.7XqX0X^.K.K.K.K.L.F.K.(.6X6X6XxX6XR.k.v.N.n.e...V w 8 1 v .Xv.Y.Y.W./.^.(.K.R.E.8X8X^.F.K.^.^.R.^.).^.^./.(.^.!.(.!.F.(.zX(.cX).6XmXcXxXDXcX^.R.R.E.^.0XnXmXvXxX6X6XzXvXcX0X/.0X6X4X6XcXwX4XxXcXcXmXHXHXDXzX6XvXmX0X4X0X0X4X/./.4X0XcXcXxX0X6XxX6XnXnX0XcX4X0XwX0XE.R.^.4X4X4X^.R.E./.8X4X/.7XE.7XmXmXcX6X/./.xX0XE.^.6X6X6XqX0X8X).0XzX0X^.8XN.+.C 1 O + % ( &.t.i.%X=X4X^.6XK.E.7XE.L.L.J.7XJ.z.J.wXuX=XJ.Y.E.l.H.T.J.=Xm.z.m.H.m.f.x.J.J.L.z.z.l.7.:.g.E.R.R.L.S.x.L.R.E.E.R.K.H.x.x.S.D.D.c.H.c.D.H.c.g.c.l.h.h.c.Y.Q.E.",
"R.H.Y.H.l.l.j.O.l - 1 F  .u.C.N.N.;X%XN.w.C.C.C.N.j.j.M.J.f.7.z.z.x.z.z.g.g.l.z.H.Y.E.Y.Y.Y.H.k.M.M.j.j.j.M.T.W.eXM.H.W.Y.E.W.z.E.H.H.4X4XR.H.^.E.R.x.h.x.Y.Y.j.M.X.5.E Y +.N.;XQ.=X4X^.!.0XbX/.8X/.6XqX0X6XqXDX6X^.^.6X^.D.K.6X!.0XqX0XzXzX0X0XzXxXzX0X0X0X8X4XR.0XxX4X/.0XzX6X6X).).zXJXHXHXvX0X~.F.F.).xXbXcX`.zXbXbXbXzXkX).hX~.H.&X*Xo.C P O.yXpXN.5XW.9XeX8X5XW.Y.M.M.Y.=X4XR.H.Y.4X4X/.R.4XqX8XW.E.J.H.E.W.M.Y.iXGXW.k.k.M.f.7.5.w.v.N.T.Q.;X;X=X=X=XE.H.E.8XqX8XzXvXbX(.0X^.!.^.`.6X).).).zX/.6XR.6XE.E.D.D.L.H.E././.^./.).).R.J.C.C.n.u.I Z 8 - ; ~ B.N.J.J.Y.E.E.E.R.R.R.R.E.E.E.R.K./.7X/.R.L.K.L.D.D.!.(.R.F.R.).0X6X4X6X0X/.R.R.^.R.S.S./.cXcXnXDXzXJXcX).cXmXzX6X0X8XcXcXE.^.cXcXwXxXcXHXHXHXDXcXvXHXwXqX4XE.cXcX/.E.4X7XE.0XnX0XqX0XqX0X4XcXnXwXnXcX8X4X4X/./.4X0X8XE.L./././.cXqX/.0XnXxX4X6XwX0X0X6X4X6X0X6X/.Y.Y././.R.).zXW.W.%XO.j 1 @ X # A O.i.*X;XM.J.7X7X^.K.S.M.J.M.v.T.j.m.J.M.J.T.m.M.m.f.j.T.%XM.v.v.M.M.v.v.M.M.m.j.f.f.k.m.j.m.J.5X=XY.H.L.R.L.g.H.H.H.S.x.x.x.M.J.M.k.j.z.D.H.x.z.x.x.M.x.k.M.Y.",
"D.k.x.x.G.F.H.u.z < 3 l P i.%XM.j.v.j.T.N.T.N.T.%Xv.8.j.k.k.k.J.R.x.d.7.l.H.L.L.g.x.H.Y.E.Y.x.7.k.j.7.7.j.J.W.8XqX4XwX8XH.H.E.H.D.x.L.E.E.R.E.4X4XE.H.M.J.Q.Q.N.b.6.u.Y Y +.A.,XC.M.R.R.R.^./.W.4X/.4XwXwX4X4X0X4X/.W.^.0XcX0XE.F.(.0XxXxX)./.cXD.R./.E.K.R.^.4XxX0X/./.qXcXmXcXzX).!.^.zXvXDXHXvX).F.2.3.F.).bX(.).zXzXzX`.).).hX)./.9X1X..N P O.*X&Xv.9X9XVX9XT.5X9X-XY.M.Y.Q.E.E.Q.=X=XT.Y.Y.Q.=XT.M.k.k.k.Y.Q.Y.M.k.J.5XeX9XT.M.j.7.,.,.8.N.%X%XQ.T.=X5X8X8XR.'.qXqXzXbXzX).~.~.`.0X).).qXcXcXxX/./.L.^.R.R.R.L.H.L.R.E.E.R.8X).^.R.E.&X;X*Xu.I m 3 - 7 #.:XT.Y.Y.Y.Y.E.E.E.E.R.K.H.R.E.^.^.^.^.^.K.D.S.S.l.c.S.D.D.R.R.R.D.6X^.E./.0X0X0X0XqXcXcXnXnXnXwX4XxXvXxXzXzX(.!.0XcX0X0X/.D.R.6X6XvXDXHXmXzX0XqXcXcX0X/.cXDX0X/.E.wX/.E.H.H.4XDXcXwX0XwXwX0XwXnXwXnXnXwXwXcXwXwXcX0XwX4XE.E.K.E.wXcXqXcXnX6X^.4X0X4X0X0X0X0X4XE.D.W.Y.R.^.U.U.R.S.T.C.o.k ; O . % W p.n.%X&XT.=X7XE.E.L.z.j.j.j.j.8.9.5.f.7.m.T.N.N.8.4.8.N.v.v.:XN.b.q.9.5.j.b.M.M.M.M.N.J.Q.;X9XM.N.T.Y.J.J.R.R.x.S.L.J.H.H.M.M.j.j.M.M.Y.E.R.x.x.H.E.W.Q.M.h.<.",
"^.E.Q.R.F.F.H.t.0 > i F  .n.N.4.8.8.9.N.b.N.8.8.j.f.f.j.j.f.j.k.m.H.H.m.k.l.x.H.M.k.f.d.j.x.M.k.j.j.M.N.M.M.W.eX4X8XnXwXR.R.4X/.R.E.E.L.H.H.L.D.H.c.l.z.k.k.k.v.b.n.OX| Y X.A.&XQ.M.H.E.R.^.8X0XqXW.D.S.D.H.R./.D.R.R.R.R.^.E.H.).(.^.zXDXxX/.0X^.6X6X^.R.R.4X0XcX4X/.qXcXcX0X0XvXxXzXxXcXcXvXHXzX0X).).).).!.R.~.).`.kX`.`.`.).hXzXwXiX1X .N P #.*X;XN.9X9XiX9XT.Y.M.k.k.J.H.z.H.z.x.W.8X=XY.H.z.j.1.,.,.<.f.M.x.E.=XE.E.=XY.d.k.j.j.N.T.C.v.w.5.5.8.v.J.J.L.R.Y.~././.~.!.R.!.U.~.0XzX`.).bXDXxX6XR.^.K.E.H.R.E.R.R.E.^./././.(.~.~.(.=X&X;X*X6.P z > # 7 #.:X=XQ.Y.Y.Y.E.E.W.R.R.H.H.K.R.E.E.^././.E.K.K.L.S.H.S.S.D.R.R.S.l.^.^.^.^.4XwXqX4X/.wXcX4X0XnXDXcXcXvXxXzXxX6X).cXzX/./.4X/.wXnXmXxX0X).(.^./.4X6XnX/./.0XcXwXR.D.H.H.R.E.4XcXnX0XwX0X8XwX4X4X0X8XwXwXnXnXwX8XwXnX0XwX6X/./.E.E.wXwXwXcX0XR.K.^./.E.^.E.E.E.W.E.R.E.z.c.R.R.!.^.E.Q.N.| k ; O . < }.<XXXu.q.m.=XE.L.J.L.z.f.w.q.q.b.j.8.5.,.5.j.j.8.9.8.B.N.u.8. Xq.8.8.q.v.v.b.M.N.N.v.8.5.8.v.M.;XT.m.k.m.k.l.j.l.x.L.R.J.J.M.k.k.k.k.k.H.R.E.E./.W.R.Y.T.T.Y.M.",
"7X/.4X/.!.(.W.i.Z > , x W o.q.9.8.v.w.j.8.b.5.R R 7.j.j.f.f.M.Q.m.J.J.H.k.f.j.x.x.x.M.H.J.J.x.j.f.w.k.T.T.M.M.Y.4X4XwX0X/.6XwXE.W.R.L.H.H.H.c.l.H.D.x.J.J.k.M.N.N.OXOXT Y | A.C.T.k.D.H.R.R././.4XE.R.E./.E.H.D.D.D.R./.E.H.E.0XcX0X^.).cXcX/./.cX0X^.R.^.6X6X/.0X0X0XcXcXcXxXcXcXzXxXcXzX(.).zXxX).!.^.).6X(.U.(.).`.kXkXkXkXkXhXzXqXuX*X] j P e.*X;X-X9X;X-XN.h.1.,.1.j.k.j.d.f.1.g.R.4XW.L.H.H.x.d.1.d.k.L.4XqXE.z.f.g.h.L.4XE.M.j.j.v.M.w.9.,.R ,.j.M.m.m.L.R.R.R.R.R.F.G.F.(.(.(.).0XzXzXzXzX/.R././.^.R.R.H.D.D.H.R.R.K.K.R.F.F.R.Y.N.OX*X6.I b > # 4  .OX%XT.Y.J.J.Y.E.W.R.R.R.R.R.K.H.D.^.7X7X7X7X7X/.^./.R.K.K.D.l.S.K.R.4XqX6XE.E.R.H./.0X4XE.E.wXcXqX0X0X6X(.0XcXxX/.0X8X0XwXqXqX0X/.8X6X/.(.6XxXxX0X8X8XwXR.R.0XR.D.D.D.H.H.E.0XcXwXwX4X4X0XW.R./.0XE.4XqX8XY.x.E.wXnX8X/./.0X6X7X7X4X4X0X7XR.E./.E.R.E.R.H.K.E././.4XT.Y.R.R.R.R.Y.T.b.| v 1 O O 5 [ {.u.6.u.M.T.m.H.L.H.z.j.j.v.j.j.w.8.5.9.8.j.v.8.N.N.B.N.B.v.u.R R R 9.q.q.u.b.8.8.9.R R 5.j.v.%Xj.5.j.M.M.l.f.g.k.H.J.J.H.m.k.N.M.h.f.z.Y./.4X4XE.x.l.k.Y.-XeX",
"xX0X0X/.~.^.Y.6.G > > p A  .t.6.b.C.b.b.8.M.j.f.j.v.M.m.k.J.-XiX=XM.f.d.m.J.J.M.M.Y.T.Q.Y.M.k.k.M.j.j.T.-XW.J.x.4X8XwX4X/.4X/.H.D.x.H.W./.R.R.E.W.E.E.W.E.M.M.T.b.n.i.Y D _ OXN.N.M.D.D.D.^.8XW./.^.^./.8X/.K.S.H.S.S.R./.4XwXmX).xX0X!.^./.).zXvX0X^.!.).xX0X/.6X6X^.R.^.zXmXDXvXxXzX0X(.!.^.zXzX).!.R.!.(.(.(.).).kXkXzXzXzXzXkXzX0X9XOX! j S O.OX&XuXuX9XQ.h.R ,.j.T.Y.h.d.x.1.g.Y.4XR.c.H./.4X4XH.x.L.W.4XnX4XY.R.4X/.x.l.H.M.Y.%XT.v.j.b.N.j.7.9.j.M.m.L.4XW.R.U.R.R.R.!.~.0X).~.(.`.zXqX0XxX).^./.6XE.R.K.R.L.L.R.E.H.D.S.R.F.F.F.z.j.Z.*Xu. .G 4 > 4 !  XJ.J.M.M.H.Y.E.Q.R.R.R.R.R.R.K.D.E.^.^./.7X6X4X^.6X^.R.K.D.l.S.R.E.6XwX4XE.R.R.H.E.E./.4X0X8X0X7X6X0X0X6X6XwX0XE./.0XwXwXwX4X/.^.^.0X0X/.R.R./.4XR.^.wXR.L.8XR.L.R./.4X4X4X4X4X4XwX4X4X6XW.E.4XwXW.W.4XE.x.z.L.4XnX0X4X4X4X4X/.E.4X4X0X6X4XqXwX/.E./.4X7X/.E.R.H.Y.E.R.D.F.F.D.D.T.b.| c 1 O O 5 } y.O.X.6.8.m.M.m.m.m.m.M.N.M.v.8.w.5.4.9.9.9.4.q.v.8.4.9.8.9.4.T E E E R T 5.u.9.8.9.) ) 9.q.8.8.w.v.J.M.j.f.j.z.m.H.J.J.M.M.m.j.j.k.J.E.W././.4X4X=XW.E.E.W.-X",
"vXcXwX8X(.(.Y.+.y > , a W XX*Xn.%XN.v.T.j.j.j.T.&XY.M.M.M.M.M.M.E.M.j.k.J.T.M.z.x.x.k.j.f.7.h.k.j.j.M.M.M.M.Y.W.Y.4X4XE.H.H.L.D.H.Y.4XqX/.H.R.6XR.R.Y.H.x.h.f.8.v.i.O.D Y X.OXC.N.H.H.H.R.6XqX/.6X/.!.R.^.R.R.H.l.K.R.D.K.4XxXqX^.0X/.K.!.0XxXxXcXcXxX0X).6X6X).6X/.R.R./.xXzX/.zXxXcXxXzX0X6X6X!.).cXcX0X(.~.~.).`.kXzXzXzXzXzXNXbX0X9XOXU k C o.<XKXPXiX;XQ.T.Y.Y.-X9X4XH.k.H.d.x.R.W.R.L.E.0X0X4XE.L.E././.0XwXwX0X0X/.R.D.x.m.Q.9XuX9X;X;X-XT.M.k.M.M.x.x.Y.D.c.l.c.F.~.).).).).`.).).8XqXzX0X^.!.K.^.R.E.E.E.R.R.W./.E.R.E.^.^.~.!.J.j.q.6.6.O.K 3 , > W B.M.M.x.x.H.Y.R.E.E.R.R.K.R.E.^.^.^.E.E.R.^./.^.R./.R.K.R.^.E.R.D./././.^./.4X4X7X4XR.L.W.4XW.E.4XE.R.6XcX4XR./.qX^.0X8X4X4X/./.8X^.^.R.D.S.H.K.D./.H.R.E.4X0X0XwX/.cXFXFXFXnX6X0XcX6X0XqX4X0XcXnXnX8XW.W.4X4X4X4X/.W.4X6XE.E./.4X0X4X0X0X0XcXwXE.^././.E.R.R.H.H.h.J.H.l.F.U.U.Y.N.b.] h - O . < } t.| X.6.4.j.M.m.m.m.m.N.J.M.w.j.M.q.9.5.9.R R ) R R 4.q.6.4.u.6.6.5.+.X.X.+.8.q.q.6.5.4.4.4.4.q.q.j.w.7.7.f.j.H.J.J.J.M.M.M.M.N.M.Y.W.4X4XE.E.R.E.4X4XW.Y.Y.Y.",
")./.8X8XzXvXwXn.z > # 1 V {.3X*XC.M.j.N.j.j.f.J.Y.M.k.M.j.9.R R j.M.T.=XT.M.j.7.,.<.f.j.j.7.1.1.<.j.M.h.<.7.x.Y.x.L.H.c.l.l.x.R.4X8XwXqXE.D.D.K.R.E.E.J.x.k.k.j.v.u.| D Y X.*XOXv.f.c.K.!./.6X/.^.6XqXxXqX/.R.D.K.0XcX6X/.8XqX8X^.^.H.D./.zX6X(.(.0XzX).K.F.F.F.).).0XvXDXvX0X^.R.).zXzXzXzX).K.K.^.).).!.!.~.).`.0XzXzXzXzXzXzXNXNXxXuX@X! j A #.2XKXPXuXW.Q.-XiXwX9X5X4X4XR.L.H.H.H.H.R.4X0X6X0XwX0X4X0X4X/.4XE./.4X4X4X0X0X4X9X9X=XT.Q.&XQ.N.-XQ.Q.Q.T.H.x.x.S.D.D.l.F.R.(.^.!.).0X).)./.8X0X^.!.^.D.E.R./.E.D.l.l.H.R.R.E./.'.).).).=XN.5.E U ! K 4 % - C r.M.M.M.H.J.Y.E.E.E.R.K.H.R.E.^.^./.^.R.K.R.E.E.R.R.E.^./.4X6X^.R.^.E.^./.4X6X6X0XmX0XE.R.H.l.c.H.D.l.E.0XY.c.R.8XqXwX4XY.H.z.h.c.6X/.K.D.^.0X4XH.4XE.Y.0XnXwXDXHXnXDXwX4XqXqXwXFXwXwXwXwX0XwXcX8XnX9X4X8XqX8X4XW.R.L./.4XR.R.4X4X4X/.7X6X4X4X4XR.E.E.R.D.D.H.R.R.Y.Q.H.D.R.D.l.z.N.n.| h - O . # 0 P | s.OXb.B.m.m.M.M.M.M.M.j.5.,.v.j.8.b.b.q.q.9.8.8.B.%XN.v.N.i.A.OXn.t.6.6.6.+.+.+.6.6.8.u.b.9.4.) ,.7.M.T.T.J.J.J.J.M.M.M.M.T.J.H.Y.E.E.E.E.g.l.l.z.z.z.j.z.",
"xXxXqX0XzXxX4Xu.b % @ 9 V ..i.q.q.b.j.j.f.M.k.m.j.f.j.j.9.R ) j.v.j.j.M.T.J.j.7.f.1.<.7.7.7.j.k.W.W.Y.x.J.=XQ.x.R.L.c.l.c.c.D.E.4X8X4XW.E./.R.c.R.E.W.Y.H.Y.T.M.v.u.| Y U X.1XOXN.f.S.7X0X0XzXxX8X8X/.R.K.D.R.E.8X/.^.xXmXcX6XE.D.K.K.K.R.F.G.F.F.!.(.!.F.F.F.F.F.D./.cXcX).(.0X0XcXxX6XzXvXzX^.R.K.K.^.6XzX0X).0XzXbXbXbXzXzXzXbXvXcXtX*X! j A t.n.N.pX9X5XT.j.x.4XqX=XE.4X4XE.L.E.E.D.l.H./.7XE.4X6X6X0X4XE././.^./.4X0X4X^.E.Y.5X9X9X5X-XQ.N.T.M.k.z.z.m.H.L.E.4X4XR.K.^.).^.!.).).).).).^.R.).6XxX^.6X^.4XR.E.H.D.L.E.E.4XxXqX).R.F.E.Q.q.R N P G > % - V u.M.M.H.J.Y.T.E.E.R.Y.R.R.E.R.K.K.^.E.K.D.D.R.R.K.D./.0X/.^.^.^.^.L.R.6XxX4XE.E.7X4X4X4X4X/.R.E./././.qX0XR.E.0X/.qXcX4XE.W.Y.x.Y.R././.^./.8X4XR.D.0XwXFXHXDXHXDX4X8XW.K./.E.L./.wXwXcXwX0XwX0XR.R.E.=X5XW.L.x.x.8XR./.4XR.R.W.R.4XE./.4X/././.E.R.E./.E.R.R.L.H.H.M.c.D.^.R.c.J.C.A. .h - @ . @ v | | o.6.6.v.v.m.J.T.J.M.j.8.,.5.C.C.v.M.b.q.b.C.&XC.q.8.u.8.5.u.n.i.O.T _ +.6.X._ T X.X.T ) 5.) q.C.M.j.j.M.M.J.J.J.M.M.m.j.j.j.f.h.M.R.E.E./.D.c.z.x.H.H.J.M.",
"_.6XcXzXbX(.8Xi.8 > % 9 v ..Y U ) j.m.j.f.M.J.H.k.f.7.7.7.j.N.C.N.v.v.j.7.j.T.T.W.k.7.j.M.j.j.T.Y.E.E.R.W.4X4XW.x.R.4X/.H.E.4XW.E.W.4X8X0X4XE.E.4X0XL.k.M.T.Q.j.u.6.X.U Y O.*XN.M.f.c.^.6X0XzX^.R.(.(.F.F.D.K.K.^.0X6X(.0XvXzX/.H.K.R.R.D.l.l.G.F.!.^.^.^.(.(.^.(.!.!.).).^.^.).(.^.R.R.6XxX).D.F.F.R.^.(.(.).0X~.zXvXvXvXzX).).bX)./.;X1X .f A ! O.r.pX7.7.M.&XY.Y.W.4X4XE.W.4X/.K.H.z.2.L.7XR.4X7X/.0XmXnX4X/.E./.4X4X/.E.E.E.H.J.Q.-X;X-X&XQ.M.j.j.j.k.M.L.W.4X4X/.7X6X0X).!.(.!.!.(.!.R.R./.0X6XxXxX6X7X0X4XwX4XE./.wX4XR.E./.R.R.R.E.T.v.5.D N l 3 % 4 B e.M.M.H.Y.E.E.Y.H.E.W.E.R.R.^./.^.^.R.D.D.U.U.S.l.c.D.D.D.E.E.R.^./.^.E.^.4XqX0X/.H.E.cX4X/.wX4X0X/.wX0X/.0X0XW.W.4XE.M.H.Y.W.8XwXnX0X4X6XqXwXnXFXwXnXcXwXGXnX8X8X0X4X4X4X4X4X4X4XnX/.4XwXwXwX/.R.4X8XJ.z.M.f.1.H.4XW.E.E.W.W.R.H.H.0XwXE.R.4X4XL./.E.H.H.L.R.R.J.L.M.K./.^.D.x.M.n.i.~ f - O O # c ! U | 6.+.4.8.v.Q.M.M.j.5.M.b.j.N.Z.b.j.b.N.C.N.C.%XC.b.q.q.u.6.X.6.u.X.T _ T ) E T q.6.) T X.9.v.C.C.N.N.J.T.E.J.N.M.m.j.8.8.j.k.z.x.R.E.E.^.2.2.g.x.H.M.M.H.",
"xXxXcXcXHXbXwXu.Z > % i V ! Y +.v.v.j.7.f.j.f.7.g.k.Y.J.7.,.5.8.v.8.8.5.9.m.-X-XY.&XW.Y.M.j.z.Y.4XE.H.L.W.8XW.H.E.Y./.4XE.R.R.H.R.qXnX8XW.7X0X6XwX/.l.h.k.k.J.j.OXu.^ Y Y t.*Xu.j.7.c.E.^.).(.K.(.^.R.F.S.F.R.!.).0X).R.(.0XzXxXqX4X^.^.!.R.R.!.K.!.(.(.).zXzXzX!.(.!.F.F.!.^.R.!./.).6X0XcX0XR.).).).6X6X).).0XzX0X_._.zXbXzXzXhX6X4X%Xi.A f W ! ^ X.rXM.T.N.k.x.R.4XwXwX0X4X8XqXR.H.D.l.D.^.E.R.R.H.E.0X4XR.R.^.^././././.E.R.J.M.k.k.m.N.J.J.j.7.<.7.M.Q.R.L.R.R.R.K.R.^.).).!.R.!.^.^.R.^.8X0X/.).xXcXnXnX0X/.E.R.R.^.H.D.R.D.R.(.R.J.N.N.B.+.P x > + # f X.b.M.J.Y.Y.J.L.H.0X0X4X^.^.^.^.R.R.R.D.D.D.D.D.S.D.R.R.^.6X6X/.6XR.^.7X7X/.^.4X0XqX/.4XW./.0XL.H.E.4XE.R.4X4XE.W.H.Y.T.E.T.E.8XnXcX/.^.xXwX^.E.qXnXnX4X4XnXnX8XqX4X/.4XwXnXnX8X4X4XH.H.L.R.W.W.E.E.H.H.M.d.<.z.W.E.W.W.Q.R.H.R.E.H.R.E.R.R.W.4X4XR.E./.E.H.D.x.x.R.R.E./.E.H.D.J.N.n.] h - O + , H t.O.X.6.6.8.9.8.M.j.j.8.7.j.7.k.j.j.w.v.N.N.b.T.%X%XC.b.u.q.u.n.0.u.n.n.n.i.6.5.8.u.6.4.8.q.X.) 8.b.N.N.T.Y.Y.m.k.k.k.j.7.7.f.h.h.z.R.4XR.L.R.L.D.D.H.H.x.M.J.",
"xXzX8XqXJXvXnXn.Z @ # 9 A ! o.n.N.T.=XQ.J.M.H.L.d.f.f.j.j.w.8.8.M.v.M.M.j.M.T.M.z.Y.Y.H.Y.Q.H.h.W.H.x.L.4X4X4XW.wX/.4XnXcX0X4XW.W.4X4XW.4X0X6X/.4X0X4X9XQ.h.M.Q.OXp.^ D P s.*Xu.9.7.S.^.!.!.K.S.D.S.l.l.S.F.D.K.!.F.F.6X6XR.R.zXcX6X^./.6X0X).).0XzX0X).(.).).).(.).(.K.F.!.(.!.!.0XxXxX0X0X8X/.).).).).).^.(.).zX`.~._.bXvXbXbXhX6X=X6.! v h Q W P T ;XT.=XY.j.W.W.E.E.7X0X8X4XwXR.D.K.L.D.R.R.S.D.c.D.R.H.c.D.E.L.H.L.E.E.R.x.4XQ.J.M.k.f.5.9.f.7.<.7.H.7XW.L.z.L.E.R.K.K.R.!.!.!.!.).).~./.8X6X^.^.6X0XwX0XR.E.L.S.H.E.E.H.R.D.^.).!.H.T.&X&Xq.! M > + > c e.v.H.Y.Y.M.M.H.L.L.R.R.R.R.R.K.D.U.U.U.D.D.S.D.D.R.R.^.^.8X6X/.8X^.^.6X0X/.E.7XwXqXE.R.L.E.E.x.l.H.H.D.H.E.R.Y.W.Y.E.4X8X8X4XqXnXE.R./.cXnXqX0XcXnXcX4X4X8X8X8XnXFXcX4X/././././.0X4X^.E.R.4X8X4Xk.M.=XY.,.d.E.Y.W.W.W.R.L.H.L.R.E.H.H.E.E.L.Y.W.Y.Y.Y.H.x.H.Y.W.W.W.W.E.R.H.H.M.N.a.[ h - O + 5 }.OXu.6.8.8.q.8.v.M.v.M.M.v.N.j.N.k.j.w.b.N.M.j.8.w.j.v.M.C.%X&X>XOXN.b.u.N.N.q.C.OXB.X.R q.C.b.,.8.j.M.N.J.m.f.7.7.f.f.7.9.5.j.h.h.z.E.4XR.L.^.0X4X/.R.H.x.M.Y.",
"zX6X8X/.zX6XFX1XK > < 3 V U o.+.q.M.T.=XY.x.x.L.x.l.f.j.Q.-XC.n.T.J.M.j.j.v.M.M.f.M.x.x.W.8XE.c.H.H.H.E./.W.4XwX7XR./.8XwX0X4XR.W.x.H.4XwX4XE./.E.4X8X9XR.7.j.M.u.p.X.P P t.*Xu.9.f.E./.^.!.K.K.K.F.R.).6X(.^.(.F.F.K./.(.!.^.(./.R.R./.0X0X).^.~.^.^.~.(.lXxXbXzX6X0XxXzX(.^.).R.).0X).^.E.^.^.(.).).zXzXzXxXcX).0X`.).`.`.zXvXzX7XM.U B v h Z [ #.e.rX;X9X9X4XR.4X0XR.x.H.4XcX^.H.L.R.E.E.R.R.D.H.D.M.H.z.l.c.R.H.c.x.H.L.H.x.H.M.M.m.k.j.j.f.f.j.m.k.H.R.R.L.m.L.R.L.S.S.G.S.K.R.R.(.^.~.W.'.0X6X0X6X/././.R.L.H.c.D.E.E.E.4X/.8X).R.Y.;X;XC.OXy.K < + % f o.b.J.J.H.M.M.H.H.D.H.H.R.^.^.^.R.R.U.U.R.U.D.D.D.R.R.R.R./././.6X6X^.E.6X4X/./.0X/.R.R.R.R.H.D.R.R.H.D.Y.E.R.E.4X4XW.W.4XqXqXeX8Xl.R./././.qXqX/.E.4X4XH.x.H.4XwXwXcXnXnXcXwXwXcX4X8X0X4XE./.wX4XY.Q.9XeXY.H.W.Q.8XW.R.Y.E.E.L.D.E.H.H.E.E.x.z.H.E.H.x.x.H.E./.W.L.R.E.R.H.H.x.j.v.t.[ h - O O e $.e.r.:X;Xu.8.8.j.j.j.j.b.M.N.M.T.T.N.M.M.b.M.M.M.v.j.q.v.M.N.M.b.B.B.v.u.Z.%X%Xv.j.N.&XT.M.j.9.5.8.j.v.M.M.f.,.,.<.d.f.7.<.7.j.k.z.z.L./.E.E.0X/.W.R.D.g.1.f.x.",
"xX0X8X/.zX).GX2X( > < 3 B ! t.u.N.j.7.k.L.H.g.d.l.H.L.T.;X%Xv.u.,.7.f.f.k.m.k.j.k.Y.R.R.E.R.Y.E.E.R.E./.E.H.R.4XE.E./././.4X4XR.H.H.W.wXwXW./.nX0X4XH.M.M.k.j.9.6.u.| P U t.n.4.j.J.7X6X).^.R.!.!.^.0XvXvXzX0XzX(.0X0XK.F.xXmX!.K.D.R./.0X0X).(.~.^.~.!._.lXbXxXxXzXxXvXzX^.!.^.R.R.R.D.S.D.K.R.!.!.).zXxXzXbXcX0XzX~.F.U.!.`.vX0X4Xb.Y k v z Z Q #.p.rX5X5XqXqX4X6X/.E.E.4X6X/.D.R.R.^./.6X^.K.R.Y.L.M.H.h.g.z.H.x.x.z.z.k.H.H.x.k.j.d.9.7.j.M.j.M.J.M.H.L.L.L.E.J.S.g.g.G.F.F.l.S.U.~././.'.qX(././.^.R.E./.R.c.H.D.x.D.D.R.0X8X/.R.F.H.Q.C.u.i.s.( < + # w ^ M.M.M.M.H.H.H.H.H.H.R.E.^.E.K.K.R.U.D.U.R.U.D.D.R.R.R.K.R.^.^.6X4XE.R./.7XE.E.4X0X6X4X4XW.H.R.4X/.R.R.^./.^./.8X/.E.R.Y.W././.E.E.6X6XK.H.R.E.L.R.4X4XL.l.R.8X9XwXwXwXcXnXcXwXcX4XwX0X6XE.E.wX4XqX9X8XGXFX9XW.MX8X=XE.E.W.W.Y.x.R.L.H.L.H.H.x.x.Y.L.L.R.E.R.H.l.x.L.R.L.H.H.k.j.8.o.' g - O . e ..^ X.N.C.8.v.N.j.j.j.j.v.N.N.T.Q.T.Y.Y.N.N.N.Z.&XT.M.j.j.b.v.8.5.b.%X%X&X&X%XN.N.8.f.T.%XN.M.m.M.v.j.j.k.J.H.z.d.f.l.k.j.f.j.M.x.J.H.H.R.^./.0X^.E.E.H.x.h.z.H.",
"6X^.W./.vXxXFX*X( @ @ 9 B  .OX2X-XN.j.z.H.L.L.L.l.H.m.M.;X&Xv.q.:.7.7.7.j.j.f.f.L.H.S.H.E.H.c.H.E.R.R.R.R.R.H.H.R.E.4X4X/.wXcX4XH.R.Q.W.4XwXcXwX4X0XR.M.H.Y.Y.7.i.p.U C ! t.u.R J.4X5X7X6X^.!.^.R.!.).0X6X(.).6XcX).).0X).zXxX(.R.K.K.R.(./.).).zX0X).(.).).).).zXvXvX6X^.^.^.R.^.R.K.D.K.R.R.^.R.!.^.).6X).).).zX0X_.!.).).).zX^.=XOX! h p x G H  .e.%X5X4X4XE.mX0XR.R./.0X/.D.S.^./.^.6X6XR.D.L.Y.H.x.x.f.1.h.z.z.z.h.d.f.j.x.H.L.J.m.f.7.7.f.M.M.M.H.L.L.H.S.E.J.S.z.L.E.^.R.F.F.~.).`.`.0XqX).^.^.!.R././.H.E.L.l.l.H.R.K.K.D.Y.F.S.j.j.j.8.6.y.( < + % q o.b.M.x.M.J.Y.H.H.H.D.H.R.R.K.L.D.D.D.D.R.~.R.U.R.R.R.K.D.R.R.R./././.6X6X/.R./.wXwXqX/.4X0X/.4X/./.R.R.^.R.E./.E.E.E.W.R.Y.E.W.4X4X^.^.^.J.L.R.4X4X8X4XW.4XnXFX8XnX4XR.R./.4X4X/.cXDXwXqXE.H.0XW.W.eX5XW.GXFXiXnXW.W.=XW.W.E.E.E.4X5XW.L.H.H.L.J.x.L.R.Y.x.z.l.z.x.H.L.R.H.x.z.j.6.| ' g - @ . r a.v.8.8.8.f.T.J.J.M.J.N.C.Q.T.;XW.Y.k.M.T.Q.T.T.M.M.v.j.M.N.N.v.M.C.N.N.%XT.j.f.,.,.m.-XuXuX5XM.9X-XN.j.k.J.E.E.H.H.H.L.J.J.M.J.k.E.R.H.R.E.E.R././.7X7XE.Y.R.Q.",
"R.K.R./.cX0XnX@X} > % p k | n.%XN.N.m.k.z.x.L.W.K.W.J.J.uX>XN.N.%XT.d.:.9.j.M.W.R.x.g.c.E.R.c.l.D.H.R.R.R.R.R.H.H.D.L.R.R./.4XE.R.H.z.z./.nXwXR.D./.R.H.x.k.J.w.n.s.U Y  .t.n.8.-X9X6X/.6X).^.).).6X0X6X).).).).0XG.K.vX0XR.^./.6XE.K.R.R.!.~.(.!.!.(.(.hXxXbXzX).xXxX(.!.^.(.~.0X)./././././.^./.).).0X6X).).`.).zXzXzXxX`.~.(.R.-X1X .0 9 z F J ..O.N.5X5X5XE.W./.7XE.D.c.D.E.G.^././.6X^.F.H.x.k.k.j.k.h.7.j.h.j.j.j.f.7.f.j.l.x.J.Y.Y.J.m.j.k.k.M.Y.R.M.x.S.H.H.L.J.^.7X^.D.R.^.`.0X0X0X8X8XzXzXzX0X7X0X4XL.4XE.D.D./.4XR.S.c.S.F.F.x.j.j.v.n.oX} < + # 7 ~ v.k.M.J.Y.Y.L.H.H.H.H.E.^.^.^.^.D.D.U.^./.R.R.~.R.R.K.D.R.R.K.^.4X6X6X6X/./.4XqX4X0XE.4X0X4XwXE.R.K.R.E.K.R.E.D.E./.4XW.E.E.E.E.D.S.K.4X^.J.7XnX4XL.R.4X8XnXMXW.R.H.R.4XcXwX4XW.4XwX/.0XR.l.E.H.Y.eX9XY.-XFXGX5XW.Q.E.Y.Y.R.R.W.8X8X4XQ.Y.H.H.L.x.x.x.z.h.h.x.L.x.x.H.K.H.c.h.j.u.| ~ q - @ . a #.B.T.;XJ.J.T.f.T.v.M.m.N.T.b.T.T.H.x.H.T.T.T.Q.Y.T.J.M.J.T.T.v.j.v.8.7.m.m.m.T.M.M.J.J.Q.9XMX9X9X5XQ.M.M.J.R.R.E.L.H.Y.W.Q.J.H.H.E.E.R.E.R.L.K.E.E.E.E.E.L.H.L.",
"^./.0X8X`.R.9X@XK , > 9 0 O.n.i.T.M.z.z.H.J.L.x.z.5X9X5X;Xj.R ,.7.M.m.m.=X=XE.W.R.4X/.E.^.R.c.c.l.R.7XE.H.H.R.R./.H.H.E.R.D.S.l.L.z.l.H.7X4XE.H.^./.x.z.x.Y.=XN.p.s.! P  .t.:X;X-X9X7XE.7X6X6XzX6X0X0X).).6X).!.F.G.K.R.G.!.zX(.cX6X!.!.^.^.!.!.!.!._.(.).lXhX_.!.R.^.).(.R.!.6XzX0X0XqX0X/.R.K.^.!.!.^.^.!.(.).).cXvXzX~.F.U./.E.&X*X] 0 9 p x Z ! ^ 6.J.J.W.E.H.d.2.L.qX0XH.g.S.R.R.^.7XH.z.R.h.j.j.j.k.j.j.k.j.k.M.M.k.j.j.j.J.M.k.k.M.k.f.<.f.k.Q.5XY.f.h.L.H.H.S.S.H.L.S.l.D.R.(.).`./././.F.^.0X6XK.R.E.H.D.4XqX4XE.H.K./.R.D.D.^.W.T.n.n.a..X( # X # 1 ~ q.k.N.J.J.J.L.R.D.x.S.L.K.L.D.K.Y.R.W.8X'.R.R./.R.^.R.R.E.R.R.E.6X4XE.K.W.7X4XR./.wX4X4X4X4X8XE.E.R.^.^.R.^./.D.R.R.Y.H.R.R.x.2.H.^.qXwX5X8XqXqX4XH.R.nXnXMXiX4XL.K.R.E.L.L.K.^.H.W.R.wX4XH.4XR.qXT.8XGXwX9XwX8X8XE.x.x.L.E.R.H.H.H.E.W.E.H.x.H.c.z.l.k.x.M.k.j.H.z.S.L.D.g.g.j.b.o.! q - # O n t.8.j.T.N.M.9XrXT.j.m.v.M.C.w.j.N.J.Y.Y.J.H.Y.5XQ.=X=XQ.-X9X5X=Xv.N.M.v.v.7.8.=XuX9X9X9X=XQ.=XQ.N.T.Q.T.Y.Y.Y.Y.W.H.D.Y.W.W.Y.x.R.E.R.E.^.H.D.E.4X/./.4X/.E.R.R.",
"-XW.8X8X/.E.C..XJ 3 > i v  .a.8.v.J.=XJ.H.L.J.E.7X7XW.H.j.7.,.,.,.<.m.T.H.x.H.L.E.S.S.K.E.L.L.R.K.E.E.R.K.R.R.R./.R.K.R.K.z.l.S.6X0X0X^.K.K.K.K.S.c.c.D.K.R.L.M.6.#.Y D O.*Xb.>X9X9X8XwXDXFX0XK./.^.^./.0XqX8X(.F.vXzXF.!.bXcXbXzX^.!.~.~.!.P.!.!.!.~.).bXvXhXP.R.R.W.^./.8X0X0X).xXvXzX/.^.^.E.6XR.F.R.^.R.R.8X/.cX8XD.R.W.R.R.^.4X%X..h 4 a F J  .u.v.v.Y.=XH.f.k.m.E.8XW.z.x.d.z.D.x.x.H.Y.R.H.z.x.x.x.M.J.k.k.Y.T.x.j.k.Z.Z.N.j.j.j.j.N.T.M.M.T.9X;XN.N.Q.W.R.g.<.d.l.2.3.F.!.(.).`.zXzX).!.R.(.).!.!.(.^.D.K.R.6X0X4X^.^./.R.Y.Y.R.W.T.n.u. .H F < O O < G O.8.8.j.J.-X=XH.K.z.g.D.K.S.D.R.R.R.R.R.R.Y.R.R.^.~.R.R.!.^.!.R.L.E.W.R.R.=X=XQ.Y.T.Q.J.N.J.Q.4XH.0X4XR./.7XE.E.E.D.l.h.h.M.L.z.W.4X4XR.R.W.4XuXR.5X5X4X4X4XW.8XE.5X5XE.E.7X7XE.E.H.z.x.E.5X4XJ.4XeXqXE.H.W.4XW./.H.D.E.E.H.x.H.H.H.Y.Q.H.h.h.M.x.k.Y.Y.Y.J.Y.T.J.H.K.L.K.F.G.g.v.6.P 0 ; - @ n o.B.v.%X&XN.T.J.m.m.v.8.8.8.u.B.M.M.m.z.m.R.W.E.R.R.Y.J.J.Y.N.j.q.b.N.v.8.9.q.b.%XiX&XQ.Q.T.8Xw.Y.Y.J.Y.Y.T.Y.Y.H.Y.R.H.R.E./.^./.R.R.E.^.R.R.E./.0X8XE.R././.E.",
"Q.W././.^.J.b.s.K 4 > 3 q A |.*X%X&X%Xv.v.T.=XH.E.m.j.M.k.7.7.j.j.j.N.E.H.m.M.S.L.J.E.E.J.J.J.W.H.L.R.H.K.E././.H.H.H.E.R.L.E.0XxX4XE.K.L.S.D.H.c.c.x.D.H.H.x.j.O.#.! Y 6.B.v.uXMXuXwXcXcXqX6X4XR./.qXcXcXzXqXqX).(.U.(.HXHXvXvX).0X6X(.).zXzX^.F.!.(.(.~.~._.!.R.R.R.^./.0X0X).zXbXmXvXxXvXDXDXK.F.R.(.!.D.R./.Y.R.c.c.D.c.c.^.K.J.%Xs.A p p p } @.n.%Xm.7.f.m.T.;XT.f.j.m.k.H.l.x.L.Y.Y.Y.H.k.E.R.E.E.M.x.x.h.j.k.k.k.x.Y.Y.M.M.j.m.M.j.v.T.&X8XQ.T.M.k.Z.T.M.x.j.l.x.c.3.g.S.F.!.(.).).).).(.0X0X(.K.F.R.E.R.R.D.S.R.4X4XE.Y.R.Q.R.R.W.T.b.6.[ Z p - O $ , x ..r.v.v.v.m.J.J.H.S.c.c.S.x.D.D.R.D.c.Y.R.W.R.R./.^.R.F.F.R.~./.K.L.L.L.L.Q.Q.Q.=XY.M.k.k.M.M.H.R.0X6X^.4X/.R.R.H.H.H.H.D.E.8X4XR.W.R.H.H.R./.8X7X4X4X8X8XL.S.4X5XcXnXqXqXnXnXwX4XM.l.L.5X5X-XT.=X8XW.H.D.R.E.R.H.c.c.D.H.H.H.Y.x.h.c.Y.Q.Q.Q.E.W.W.W.W.W.W.Q.Q.T.Y.R.R.P.K.F.S.v.e.W 0 ; @ # x ..u.8.B.N.v.M.v.f.f.j.u.u.u.6.8.8.j.j.j.M.E.4X4XJ.M.M.j.j.b.b.q.q.i.u.6.u.OXOXu.b.C.w.b.C.M.Q.j.Y.Y.Y.Y.Y.T.Q.Q.Q.R.R.R.R.E.R.R.R.R.R.R.R.R.R.W.Y.R.E.R.H.D.R.W.",
"Q.Q.W.^.R.S.q.e.J 9 3 a y j | u.n.i.6.6.u.N.N.N.T.v.j.B.v.5.) 5.6.5.q.v.j.j.m.k.m.J.J.H.M.J.J.J.M.M.M.k.M.J.E.T.E.Y.Y.Y.x.j.x.E.8XJ.j.k.k.j.h.k.j.k.M.M.M.j.j.q.O...P T i.8.N.uXMXcXwXxX6XK.!.zX0X)./.8XzX0X(.!.U.R.!.zXvX0X(.qX0XwXwX4X/.4XE.D.H.E./.E.R.K.!.).(.!.!.!.~.).(.!.(.).(.!.R.!.^.^.xX^.G.G.F.R.!.!./././.E.R.c.g.D.K.L.%X{.J y u p ' [ a.*XJ.f.j.N.N.N.b.b.j.,.,.k.W.E.L.H.L.L.D.l.x.D.E.E.Y.Y.E.Y.E.Y.Y.Y.Y.x.c.k.m.j.m.M.j.f.M.Y.J.j.j.j.j.J.J.j.j.M.J.Y.J.M.H.R.R.^.4X/.^.^.^.~./././.^.^.^.^.^.E.R.H.R.R.H.D.x.Y.Y.R.R.R.Y.v.6. .H b 2 @ @ 6 L ..o.o.o.5.8.v.N.k.M.J.k.k.M.M.D.R.D.S.D.!.!.!.K.R.!.(.(.!.!.^.).).^.R.R.R.Y.J.J.Y.M.z.h.l.S.H.R./.8X`./.8X(.R.R.R.R.R.E.~./.0X4X/.4XE.H.R.E./.4X/.E.E.4X0XR.L.7XR.^.7X7X^.W.^.4XL.R.=X4XQ.M.T.9X8X4XE.H.D.H.R.R.^.R.H.S.c.l.c.z.c.z.c.x.c.x.E.0XwXqX4X4X4X/.E.Y.Y.Z.Y.R.R.K.L.m.u.#.W w - @ + M &.i.0.u.i.q.u.q.u.6.5.+.6.6.6.+.6.6.6.8.v.v.b.N.v.v.w.5.9.6.6.5.u.OX:Xi.6.6.u.q.b.N.q.Z.b.,.w.w.j.j.j.j.j.j.j.j.Y.Y.Y.H.L.R.H.D.R.E./.E.Y.R.E.E.W.Y.Y.E.E.H.H.W.",
"R.R.R.!.L.x.8.O.J 8 - 4 q B | e.e.! U o.X.Y E X.4.u.v.u.q.u.0.+.X.T X.8.8.j.M.v.m.j.f.z.J.T.M.j.J.M.j.h.h.j.j.j.N.N.J.Y.N.M.T.&XJ.j.7.j.k.j.7.7.j.k.M.N.b.b.j.u.O. .D Y OXb.;X9XnXqX0X6X^.F.!.).bXzX`.`.`.~.F.3.3.!.zXqX0XqXcXcX4XE.Q.W.W.H.x.D.E.R.Y.R.E./././.).(.!.!.].].!.P.!.!.P.K.!.^././.!.zXmXvX).R.!.^.6X0X/.c.g.S.R.E.E.T.:X.XJ u u M m W #.n.C.%XOXB.n.6.X.) R R 8.=XM.k.h.l.H.R.W.E.E.R.E.E.H.H.R.Y.R.H.L.R.D.l.D.^.J.v.j.j.8.f.j.7.<.<.7.f.7.h.z.h.M.N.N.N.Y.=X4X4XW.4X4X/.W.^.^.^.^.E./.4X4X/./././.W.E.R.D.z.z.x.D.R.R.H.H.Y.M.6...W H q @ # < K ..U C Y X.6.u.v.j.M.N.M.M.N.N.H.R.!.!.!.K.F.K.!.~.).zXzXzX).).zXzX(.^././.Y.z.j.7.j.z.l.g.l.H.^.~.~.^././.R.R.R.^.D.D.R./.8X/.Y.4X4XW.R.E.W.E.E.W./.E.R.W.4X/.E.R.R.E./.E.H.H.Y.4XY.k.M.Q.&X;X;X9XQ.M.M.M.H.H.K.c.S.S.z.l.x.D.H.h.x.W.5XW.Y.R./.8X4X^.^.R.R.R.H.Z.Z.Z.H.D.D.H.b.u.#.H 8 # @ + F =.+._ _ _ T T T +.X._ _ X.+.+.6.6.+.O.6.6.5.4.6.v.u.6.5.+.+.+.+.b.q.6.u.B.b.u.q.8.9.) q.v.9.j.v.j.j.k.b.k.j.j.k.H.H.x.D.H.H.L.S.z.H.R.R.E.4X5X-X&XM.j.M.=X5X=XQ.",
"R.R.!.K.F.S.f.O.Z 9 > 4 p Z ! ^ P C C ~ D f N T X.u.i.6.+.6.6.+.q.6.6.q.q.v.N.k.J.f.f.M.Y.J.M.m.J.x.j.d.f.f.h.j.h.h.j.k.M.M.N.J.k.j.j.j.j.j.w.7.w.j.b.n.b.b.b.b.O. .D D n.N.tX9X8XqXzX6X).).)._.~.zXJXDX0XR.F.G.^.8X).R.^.cXqXR.D.l.z.H.R.Y.R./.E.H.D.K./.4X4X/.).)._._.].]._.).).(.^.^.^.^.E.R.!.R.!./.0XqX^.G.^.7X6XR.D.L.R.L.J.B.XX}.( p i a b A  .t.t.i.b.t.O.O.U N N 9.C.N.j.k.k.H.K.K.H.D.4XY.Y.Y.H.R.W.R.L.z.S.L.S.g.g.L.H.B.v.8.5.v.v.9.j.f.f.7.:.<.l.k.k.j.j.k.J.=X=XL.Y.R.R.R.E./.6X/.0X/.E.E.R.R.E./.E.H.S.D.Y.R.H.H.R.R.R.H.H.L.M.u.#.A l 1 - - 2 L  .P N Y X.r.u.u.j.j.m.M.M.k.M.R.R.!.~.~.!.!.!.(.).(.!.!.!.(.).zX`.(.).8X8XQ.k.w.,.7.j.x.c.l.D.R.R.D.Y.R.R.Y.H.D.D.c.c.R./.8X/.Y.E.W.E.Y.Q.Q.Y.x.8XQ.H.x.Y.W.W.H././.4X4XW.H.M.T.T.Z.j.,.w.C.,X;XC.b.w.j.k.m.x.m.g.l.x.z.x.m.x.k.M.j.h.k.Y.Y.Y.M.H.K.R.K.K.L.K.K.D.Z.D.D.D.D.H.N.u.%.J 8 % + % F .Xt.O.+.+.X.) ) Y T X.5.5.5.5.+.6.o.6.r.r.6.6.6.v.i.u.q.0.0.t.u.q.9.9.v.C.N.b.b.v.8.4.8.N.C.N.v.b.b.N.C.N.M.M.J.Y.H.H.H.L.L.K.K.E.^.W.L.L.Y.J.j.j.7.,.7.J.5X5XY.",
"K.K.K.S.G.z.8.o.h y a a M Z P ~ P ~ ! P D C T o.e.6.6.+.T U T 6.q.6.q.q.8.j.M.j.k.f.l.L.H.l.z.L.x.l.g.h.z.k.x.M.x.k.z.k.k.k.h.7.J.T.N.j.w.j.j.j.8.q.j.j.k.j.b.u.U ! C N | B.>X-X4X6X0X6XlXzX).!.!.^.).(.~.!.(.).cX/.R.R.R.E.R.c.D.R.R.D.D.R.E.K.R.R.R.^././.).6X).hXhX)._._.hXbXzX6X)./.E.D.h.d.g.z.H.x.l.S.W.5XW.H.Q.5XY.z.z.m.b.o.] J M a i i x G ..%.| U o.t...W D N D X.u.8.T.Y.J.H.D.z.l.l.H.j.h.x.x.Y.Q.J.z.d.d.m.H.V.g.f.8.8.v.q.8.v.N.b.M.j.j.j.f.k.H.z.k.f.f.j.J.Y.H.j.L.H.L.L.R.^.^.R.E.E.R.K.R.R.R.R.R.L.H.K.R.K.E./.R.H.D.S.x.j.8.O.] B g 1 @ - 2 G  .| ^ | o.6.u.v.B.j.j.M.H.M.J.W.R.K.D.R./.6X/.^./.^.E./.8X0X8X/.0X6X4X8X-XZ.0.+._ ) 5.b.T.W.E.Y.T.M.N.Z.N.T.T.N.7.7.M.W.T.T.T.Y.N.Q.T.T.&X&XC.Z.Q.w.1.w.k.M.C.C.Q.Y.Y.Q.T.N.b.n.w.C.b.T D _ i.XXu.t.6.q.v.B.b.M.v.M.N.J.N.m.j.8.v.8.5.4.5.5.8.f.f.l.S.S.S.S.D.H.x.x.x.D.S.D.H.N.n.%.J 8 > # % F %.+.6.+.+.+.R X.6.q.q.q.6.9.9.6.6.6.6.r.u.6.6.6.u.u.i.i.b.i.n.n.q.C.&XN.j.j.j.8.v.N.N.m.v.m.N.N.b.v.b.B.v.q.m.T.=XE.J.K.K.L.K.P.7X4XW.E.J.M.j.9.,.7.7.7.f.H.Y.H.",
"H.L.S.g.g.f.6. .h 9 < 3 p m [ {.%.a.t.| | e.e.^ T T T T ^ X.6.u.9.9.8.8.7.f.z.g.g.g.z.S.z.g.g.S.z.g.d.l.S.H.L.L.L.L.L.L.R.E.R.R.T.J.M.v.j.j.j.j.j.8.8.w.j.q.j.6.P B k f Y |.OX%X=X-X6X6X6X/.^.^.6XK.G.l.F./.0X0X4XY.E.4XQ.W.eX9X4XzX6X^.R.^.!.K.6X).6XlX).(.).zX(.(.).).).).6XxX0X4X9X9X;XQ.N.N.q.8.8.N.-X;XC.v.b.) R 4.R X.v.OXt.! S h 4 < i i x G [ [ A A ..s.s.B f C Y U 6.N.M.j.j.l.z.S.K.E.Y.M.M.N.k.j.7.:.R R 4.8.r.r.v.N.o.T ^ o.o.o.u.b.6.8.v.v.m.M.H.j.m.j.f.j.z.j.z.z.L.R.K.K.K.R.R.K.S.L.E.E.W.^.E.H.H.L.R.J.H.x.H.R.M.j.j.k.j.4.^ ! S l l 2 # @ 2 K ! #.e.e.o.5.6.8.8.f.j.j.m.T.-X-XQ.J.H.Y.W.=XY.J.W.=X9XiXSXiX9X=X=X=XQ.b.0.+.` I I U  .i.&X>X-XT.N.u.i.u.0.n.C.u.5.6.n.OXN.v.v.u.u.n.a.i.n.a.u.u.+.U U X.+.0.n.A.N.b.b.n.n.i.u.t.t.O.Y k k A U A ] ] ]  .O.t.t.e.6.6.u.|.OXn.u.u.| %.a.a.t.X.X.4.9.8.j.m.m.m.m.m.k.x.c.S.S.S.H.J.OXt.J w > # % M %.6.B.B.N.C.v.N.%XT.M.v.8.8.8.8.6.e.r.e.6.6.6.6.8.8.u.v.v.i.v.N.b.b.j.j.M.T.v.,.E R 8.9.4.9.V. Xi.e.6.6.+.X.q.N.J.J.J.J.H.m.S.L.j.f.m.N.N.N.M.B.4.8.q.8.8.f.j.f.",
"M.m.f.d.9.9.o.~ z 9 , i L x H *. .! ~  .}.+XoXe.P ! ^ U ^ e.e.X.6.q.v.q.5.f.j.7.j.l.z.g.z.x.z.g.f.d.7.f.k.k.k.k.x.m.M.m.k.m.H.J.J.v.j.M.M.q.8.q.u.q.8.8.8.8.8.O.W z 0 f I 1X@XOX:X-X5X9X=XH.Y.7X7X^.E.E.^.4X5X5X5XQ.&X&XN.Z.&XT.qX6X6XxXxX6X6XxXxXlX6X6X6X(.(./.^.E.E.4X4X^.W.=X=X%X%XOXn.0.X.X.O.| | O.t.O.X.| | | O.e.| o.O.U ! ] ' M 4 > 3 5 p F K V h H @.@.] k B [ %.t.n.v.b.v.k.M.H.z.g.g.k.k.T.%XN.v.9.T 5.e.u.o.Y C ! #.#.N j U | ! !  .o.6.6.6.4.8.b.B.u.q.8.8.9.,.8.J.M.Y.Q.T.Y.E.E.E.J.=X=XJ.J.T.T.M.M.f.5.8.m.v.j.8.b.0.q.b.i.X.! ~ Z q 3 > # # , a W  .#.o. . .| T ^ +.4.X.8.%X;X&X%XOX%XOXN.u.u.u.u.i.n.XXOXOXa.u.u.u.O.U S Z m v M K [ &..XXXXXa.%. ...] U ..y. ...| %.a.a.y.t... .@...] ] ] U W I I ] W A ..s.%.#.#... ...@.} ' A V h 7 8 l v b y z m Z J ' ' W %. .@.y.s.@.! W [ [ ] H A ! ..t.t.e.u.B.N.N.b.v.M.M.H.S.S.H.J.%X@Xy.J w - - # x | ^ p.n.OX:Xn.OXN.N.N.N.N.N.B.u.o.e.t.e.6.r.u.r.o.6.6.u.u.6.6.8.q.8.u.N.u.+.X.+.6.^ ^ X.6.e.o.O.! P S C N N Y 6.e.u.v.B.v.8.8.v.v.u.i.p.e.| T ^ ^ U ^ O.t.6.X.X.",
"9.8.8.8.u.O.W H n 5 < 5 i a x G V V A @.-.&.@.[ ~ ~ ~ W ! $.y.y...t.i.t.t.u.8.4.6.q.v.v.8.8.8.9.8.8.q.q.q.8.8.6.N.v.b.N.N.v.v.N.A.i.t.6.O.X.X.O.O.o.O.O.O.#.t.{.} M 1 7 .X$X#X{.a.i.u.u.q.q.v.M.-X-X=XT.T.%X%XC.b.N.b.6.6.i.n.n.T.=X9X9X4XW.7XuX7XW.7X7X6X5X7XW.N.N.T.%XT.N.N.OX*XOXn.t...! A C B Z A H H H A H Q ' ' Q A Z H ' H } } K a i i i i L L p l K } @.Z Z *.s.s.y.| +.9.N.T.J.k.m.J.E.j.N.C.b.u.i.u.e.}.@.P c c l g f f c Z H Q ' W I I W | O.e.t.u.u.O.o.^ Y U | 6.u.i.b.b.b.b.b.b.b.i.n.n.u.6.X.X.X.+.o.+.o.X.| | | ..t.s.%.#.@.' b p < , & $ @ % 5 Z W [ [ Q H P W ! W U | #.y.y.t.y.s.s.%. .W W ] [ { { ] ] ' ' Q W J H b x a i i s i a K } *.} H b b b b m V b b b H Q ' ' [ Q H H F b l l p l l h l z b b b b b b v V G G G b x 4 > - - > , 3 3 , > > > 4 4 8 w l l v m b l y y u p y y 8 z K @.[ ..@.%.y.y.a.s.i.B.v.v.V.V.r.p.y.} V 2 - # : 2 ~ ^ #.p.|.#X#X X|.|.|.|.r.o.o.^ ! ! !  . . . . .] ~ ~  . . .| ] ] ] ] ] U W ! ! ] ! ! ~ ! A S Z z u 8 7 7 0 k V W P W ~ ! P U ! W W ' ~ W Z v h v v Z Z V v v B ",
"u.i.t.e.t...H G p 5 , 5 s e i p y 9 u b F b z l z b z l l V H Z V H { [ @.&.s.%...#.t.#.O.O.O...#.#.#.O.O.O.....s.y.s.a.t.| I I ] W A S B B B V V v B Z Z A H ' L 9 # 4 ;.$X-.[ B S P I ] ..t.i.OXOX Xn.n.OXOX|.XX{.%.! I W ! ! 6.u.n. XN.n.N.OXB.B.N.OX%XN.v.6.6.e.t.t.t.O.O.#.t.#.[ H V h 0 7 u p p z z x b b x x b z p p z b Z b F K F a d K L d e 4 q x K K K ' -.@.' @.| | p.OX%XN.v.v.B.B.C.A.n.t. .| [ [ } J b n p a a a G K K G m m b z v Z H ' [ .. . .] H V v j B S A ] ] ] ] | ] ] ] ] { { W S C S S B S Z Z Z Z A A A ] { ' ' Q G x < % * * + + % 5 x b M b x l l p z l l z Z H J Z Z Z m b z l l z m M x z y u 9 q n p i 5 5 < & & * * & 3 i p 9 1 2 > > > 2 2 2 - 9 e p p r e 9 1 3 2 , - - - - - # : > , , > > 2 2 2 2 2 9 2 , , # @ + . + + $ * + + + + % % % > - - > 1 > # # # > % % # > 4 i x l l z b Z J [ @.....#.o. .^  ./ H L p : O O O @ b G ~ Q Q / / Q $.$.$./ W C B B Z Z Z V V b b v J Z Z B v v v v Z Z Z Z Z Z Z G m z l l l q 8 8 s , > % % > 4 9 q 9 q y h y h l z l u 8 8 4 4 4 4 4 9 9 9 9 q u ",
"[ [ W ~ Q G z a e 6 6 5 s 5 2 2 , % % , < % % % % > % @ # > 2 > > 3 i p z m G m m m Z m M b M x h l z z m G K ( ( G v z y w 0 y q 8 4 1 1 > > 1 > > > > > > 4 3 > # O > ( -.K b h c v Z A Q [ @.#.#.#.#.#.$.%.$.[ W V h 0 0 q h v B Z H W Q H H W W ' [ [ W S B k k j j k f f h 0 0 w 8 8 8 8 3 > > > , , < 3 5 < < < < 2 2 2 3 a 4 3 x L e 5 L i 5 2 2 2 3 9 q x G } H v A ~ [ y.a.a.s.s.n.i.u.a.%. .W B h f h p e 3 < < 6 6 s x x a i 3 3 3 4 8 p M K H Z B v x p i u u y p p y y h h h h y y y y u 9 8 8 8 7 4 4 4 4 4 4 4 4 p l z l h 0 4 - , % $ * * * & s s 3 , > % % % # % # # % > > > > > > > > > > > > @ # # # # % > , @ @ O O . .       . . O O O O O O O O O O O O O O O @ O O O O O O . . . . . . . . . . . . . . . O O O O O O O . X .         o   o o o X X X X + + + + + + @ + + + + + + + % % > > > 1 1 4 8 p z p l l g g q q e 2 , $ + X X o $ 5 r e 2 2 2 2 2 2 2 2 2 2 2 2 2 2 , , , , , > > i 3 4 4 > - - > , < < < < < < < 3 > % % % % # + * X X * + + + & & % % > % # > > > > % # % % % + + + + + + + % % ",
"h q 0 q q 9 2 2 5 < 5 s a e 3 2 % + + + + X X o X X . . . + @ O X + % + # % % # > > > > > % % % > > > # # % > > # # # % % @ @ # % # @ @ @ + + @ @ + + + . . O X . + O @ s i e 9 q u p p u y p z c l g g h l l l q 7 ; - - - - 4 > > 4 3 9 3 4 4 8 7 4 7 7 4 1 ; 1 1 1 1 1 1 ; 1 1 > > > > > > , % % % % % % % % % % % % % % % % > > > > , , : : # , < , - @ # > 4 4 q q w w c Q H W W ~ [ $.$.[ [ Q J H z 8 1 > # @ @ + + X + $ , > % @ + # % % > < a z z y 0 7 > % % > < 3 3 4 4 > 1 1 1 1 1 1 4 4 > > > > > > , , , , , , , 4 - - 1 1 1 ; - > # + X + + # , 5 s < + + X X X X X X X X X X X + + + + @ + + @ + O O + O X . . . O + + X X . . .       . . . O O + O . O + + O . . . . . O O O . . . . . . . . . . . . . . . . . + O . . . . . . .               o o o o X X X X + + + X X . X + + X X X + + O O + O O O @ @ @ @ @ @ # - - @ @ O O . .       . O & , : @ O O O O O O O O O O O O O X X + + + + + + + + + # % # # + X + + + + + + + + + + X X + + X o X * * * & = = , , , % % % > % # % % , , % + & & & & < 6 5 < ",
"1 - - 1 > - > , , , < e a p r 9 # + + + X X X X X X X . . + + . X X + + + + + + + + + + + + + + + + + + + X X . + + + * + + + $ + + + + + + + + + + + + + + $ $ . + + O + & # : - > > > > # # > ; - - - - - - # - @ @ @ @ @ @ # # + # % $ @ @ # # # @ @ # # % % % > > > > > > > , > > % # $ $ $ & & & & & & & & % % $ & & & % # @ , , - - 2 2 : , 5 5 & O @ > , # @ # - - - 1 r q 0 8 8 p z l q p p p a e > @ @ O @ @ + + . . X % # + @ + + + + @ % < 3 3 4 1 1 > % > > < 3 < 4 u u 9 4 4 4 7 4 4 4 4 1 1 4 4 4 1 4 4 4 u u i i p q q 0 w 1 ; 1 > # # % > 2 9 p a s < % + X X X X X X X X X X X . . X X . . . X . . X X . . . . . . . . . . . . O O O O O O O @ O O O O O O O . + + + + + . . .       .                     . X + . . . . . . . . . . o o . o o o o * $ + + + + + + + . . . . . X + + + + + O O @ O O @ @ # @ O + + @ # # # # @ @ O . .   . + $ & , , $ O O . X X X X X . . . . + + X X X X X X X + + + % & % # % % & & % % % % % % , , % % > < & % % % % > 3 i s i i i i i p p q 8 4 4 3 3 u i 3 i i a a L M a ",
"> @ # - # # : # : , 2 e n n z p > % % + + + X X X . . . . . . . . X X X X + + + + + X X + X X X . . + + * * % * & $ + . . X % & + + $ + + $ $ + + + $ $ + $ $ + + + . $ $ 6 : @ O @ # # @ @ @ + # + # @ @ @ O O O O + $ $ + + + + + $ $ + . + * $ $ & & & & & & + + + @ + $ % $ # @ $ $ & & & 6 $ & & & & & & , , & , , < < , , % & , < 2 2 3 5 e e 5 , , 6 , @ # , $ @ @ @ : @ - # O O # # @ O @ @ @ @ @ @ O O O + @ + + + X + + + + + + X X X + + # % > > > > 4 > 4 4 9 p p p M M x z h h y h h h h h h z z z m M m m G G G m m L b l 0 7 1 1 3 2 , 2 3 q p l x a a 3 > @ @ + + + + X X . O .     . .       .     . . . . X + + + + + @ @ O O @ O O O # # # + + O O O O O O O O . . O O . . . .                 .       . . X + O . . . . . . . . . . X o o o $ $ * $ $ $ $ $ @ $ $ + + + + . + + @ @ + @ @ # # @ O O O @ @ @ . . O O @ @ @ O @ O . . + + & 6 , < < & @ + + . . . . . . + + + X X X X + X + + * $ + @ + % % # > , > > % # # > > 3 3 3 4 3 q i 9 8 7 w q p b K K K J K H H H H W W W J J J J K Z K J H H H Z V ",
"> @ # > @ # , : 5 e p x G G V v p 9 2 > > % # @ @ @ @ @ + # # @ % $ # @ O O O @ @ O O @ @ + . X $ $ # $ # @ @ O O O # # % $ @ O # : , & : , : $ & , & + + + O . $ $ O , , s 6 & @ @ $ @ . . . . . . . . . . . .   X X X X $ $ X + + $ $ $ + + $ O + + + + O + + + * * + $ & & $ , , & & & = = = , 6 6 6 6 6 6 5 5 5 5 5 5 5 5 5 6 < < 5 e 5 5 e e e 5 5 s 5 , + $ 6 + $ + O & O + . . . . X X X X + + O + $ $ $ . O O @ @ @ @ + O O O + + X X X + + + % < 3 9 q 8 0 q g c V J Q } [ { ' ] ] ] ]  . . . . .#.#...[ ! ! ! ! W P V V G G v c v b b p p q q q l c B G G G b p 8 1 1 : - - # # # # O X . . . . . . . $ $ + . . . + + O O @ @ # - - - ; ; ; - 1 2 > : , , , : & # & & @ O O + @ + @ $ + + + + X . . . X + + X X + + @ $ @ @ @ @ + + + + + + + + $ $ $ $ $ $ $ $ + & , + & $ @ O + + + O @ @ @ @ @ # & # # # # @ O O # % # # # - - - - # @ @ : : - ; 1 9 9 3 > : # @ O $ @ + O O O O O O O O @ @ # % , % < 3 < 2 3 q p l l l r q q q g h l h h v Z A A W I I !  . .t.a.{.XX|.a.s.a.n.n. X%X*X*X*X@XOXOX@X<X<X@X|.|.n.u.",
"4 - 1 9 7 8 p r b b H Q / / ~ A c h 0 7 7 7 1 ; 1 1 1 9 9 q r r p u 9 8 1 1 1 4 9 1 1 4 3 4 > > @ @ # # > , 2 2 2 2 4 1 1 1 4 2 2 9 9 9 2 9 9 1 1 9 9 2 2 2 ; - : : : 5 ; r e e 2 2 2 , % # # @ @ O O @ @ @ @ @ $ & & + + $ & + $ $ $ & & $ @ @ & , , , # : , < & & & $ & , , , < < < 6 5 5 e i a a a i i i a a a a a a p r p a a a i a n x x n L n a d i 3 e a 6 & . & & . + + + O . . .   o o . X + . X $ + . # # - - > > > - 4 > > , > % # % % > > 9 b K J Q .. . . .#.y.{.oXXXXXXXXX@X@X*X*X:X*X2X<X*X<X<X<X<X<X<X<X<X*XOX{.s.}.}...! ! ' ~ [ ' Q Q ~ [  . .! ^ [ ! W A B c h g q q q 0 w 2 & $ + + $ $ o . X X + O $ 6 i x F G G K K J ' ' Q J J H V v z z p p q q 8 9 q q p 8 4 2 4 - > > > > > > % # - # > > > > > > > > - - - - - > > > > - # # # % , & & & , , , , 2 3 3 e 9 2 2 3 e e p r r r p n x x p F K K F b L G M x z z v v v v Z Z Z G b h f f c c h q w 8 7 ; - - - 1 8 q p p 7 7 7 1 1 > , , > p G K H K ' } $.$.$..... .#.#.e.#.#.#.a.+X<X<X:X:X:X*X*X:X;X;X;X5X5X;X;XuXMXKXBXKXKXMXMXpXKXKXKXPXPXKXMXMXMXMX",
"] ! ! | O.t.t.s.XXa.|.*X<XOXN.OXs.#.O. .] I I W [ [ @.y..XoXoX{.+XXXy...! A A I W S !  .I W Q b > 5 > % s # 8 q j B j j C B B Q H H H H A S B c B S j B j S j j f V } / Q ..[  .C W ' Z f 0 w 7 8 7 1 1 w q w t 0 1 7 1 3 9 4 < 5 < < 3 3 > - - - 1 8 8 w w 0 q 7 8 8 q q 8 8 8 p p x l 8 p b p z b m z z l v b m z v m Z z v Z Z Z h Z J Z J Z V J K b z Z Z u e 5 5 , : , , : 5 # @ & $ . . * + + $ $ o X + , > m Q ~ ..W A [ W A Q Q B Z H B B A ..s.XXXXOX*X2X:X:X%XN.;XrX;XrXrXrXuXtXuXuXiXSXpXiXtXpXpXpXtXKXKXpXpXpXZXKXZXpXyXrX<X:X:X:X;XOXOXOXOXOX:X;X%X%X%X%X%X%XOX|.|.a.{.#.a.}.$.#.Q l 2 5 # $ . $ $ . 6 @ - r J [ .X1Xa.t.XX+X#X$X1X3X@X.XoXXXXX|.XXt.#.y.XXXXt.t.a.s.y.&.@.W C V A B A { } } ..=.=.=.&.@.} =...{ %.&. .! ! [ [ Q Z Z v l y 9 7 w e < 5 , i e 7 l l f h v Z W [ &.}.y.{.y.y.}.}.}..X}.}..X.Xs.y.{.+X@XXXXX@X*X1X@XXX+X+X1X1X1X*XOXn.n.|.s.O.#.%.#.%. .#. .%.#.XXoXy.{.y. .A b p - i 9 -.$Xa.XX3X1X$X2XrXrX2XsXsXaXdXrXKXpX;X;X%X%XuXuX9XtX5X-X9X9XiXiX9X9XiXuX5X4XuX5XuX5X-XqXMXMX-X5XuXuX9XuXMXMX4X",
";X;X;X%XN.C.;XpXKXSXMXSXSXMXuX;X:X2X3X1XXXn.XX*X*X*X2X>X:X%X%X&X;X;X>X>X@Xa.t.6.u.r.n.OXu.s.t.A u s > > a i K @.y.|.OX2XZXZX3XfXAXAXAXfX<X@XOXOXOX<X1XyX1X3X@XoXoXfXPXZXZXZXyXaXKXZXdX1X#X#X.X&.&.&.%. .] | |  .I [ %.} { } K Z b x l p p q p z G b c B A P P C C W ! Q W A W W [ W ' $.@.$.@.[ { ] { ] } ..{ I ] A A I { [ ] W ] ] S I W P ......] W ] ] I D B b l p q q q 8 9 2 1 1 , > : % > , : $ & * * , i z &.oX@X@X|.t.a.<X@X1X<X|.XX@Xs.6.6.u.b.N.T.5XiXuX-X5XMXuX9XMXiX5XwXnXuXiXiXwX4X5X5X8X9XeXeX9X5X=X-X5X5X9X9X9X9XiXMXuX-X-X9X9X-X4XJ.E.5X=XJ.J.=X5X9XuXMXSXMX9X%X%X;X*Xn.OXyX3X{.}.} K a 6 + $ $ $ , - n } }.u.*XrXrX;X&X&X2XVXVX>X2X>X&X>XpXiX,X>XtXtX;X%X&X9XrXrX;X&X*X3X3X1X+X1X1X1X3X1X1X1X1X3XCX3XCXZXCX1X3X:XOX:X<X<X@X+X3X.X%.J H J J G L 5 < > x Z c C j A @.s.s.{.+X<X*XOX:X:X*X2X<XoXXXXXi.6.+.5.v.&XtX9X>X>X9XtXtX9X,X&X&X&X&X>XtXiXSXuXpXpXpXpXtX;X;X;XN.8.%XOX%X>X2X:XOXXXy.&.( u 9 x -.<X:X9XtX1X2XuXMXMXiXMXSXSXMXMXMXE.z.=X5X5XuXMXuXMXMXKXPXLXLXFXFXMX4X4X4X7XR.J.=X7X5X4X7XuXFXMXnXwX9XwXnXnXnX",
"j.T.uXiXuX9X9XMXiXSXGXiXMXFXMX9XSXKXKXVXyXpXyXtXtXtXrX;X%XN.J.Y.Y.T.T.&X&XOXOXOXN.N.C.b.u.|.XX[ 4 , > 3 F K .X$XAXZX;X:XrXaX3XdXdXZXyX2XOXOX*XaXZXKXyXaX>XyXZXKXPXKXZX2X2XKXKXKX;XrX2X3XZXAXPXKXAXZXAXdXyXyX2X2X3XOX+X1X1X.Xs.$X}.}.}.}.}.{.oX$X#X#X#X<X2X2XaXyXyX3X1X#X+X@X+X<X<X+X3XyX#X|.oX#XXXXXXXXXoX@X@XXX.XXX+X1X3X3X1XXX1X+XXX1X1X+X1X1X3X$X+X1X1X@XXXoXy.t.%.y.t.$.#.#.$.$.Q V c b z l n 9 > & & , 3 z ' #X3XOXOXN.i.n. Xn.:X2X:X1XtX;X;XOXN.T.-X9X9XuXMXiXMXFXMXMXFXFXnXMXnX4X/.8X4XY.Y.Q.=X5X8X8X5X-X5X9X9XuXiXuX9X9X9X9X=XY.Q.=XE.M.R.H.E.4XW.H.J.Y.=XY.M.M.Y.E.T.J.J.T.;X8.N.ZX<Xa.W H K K a 5 6 & 5 3 ; H s.@X%XpXSXLXSX5XN.C.;X>X;XtXtX,XuXKXSX9X;X-X=XT.&X9X9X-X-X;X>X2X>X>XtXyXZXVX2X1X1X2X3XCX3X2X*XOX,X>X>XyXpXrX2XrX*Xn.XX1X$X@X@...A [ Q ' L 2 1 G *.}.#X#X+X1X1X@X@X3XyXrX;XsX;X2X2X*Xn.t.| T T 8.C.&X%XT.eX9X9X9X,X;XQ.T.Z.Z.T.T.Q.-XeXuXMXSXiX9X9X;X;X9X;Xv.,.N.v.b.&XtXtX;XN.6.%.} z i K }.;X9XwX5XOX;X;XMXFXuX9X9X8X4XL.4X4X=X9X9X9XMXFXMXGX9X5XwXMXLXnXmXcX4X4XqX8X=XJ.E.4X9X9X4X7X7XwX8X6XwXcXwXcXmX",
"5X8X8X8X8X4X4X4X4XnXnXnXnXFXFXnXFXLXFXMXiXMXuX-X9X5X-X-X4X4XW.R.W.E.R.=X;X;X9XtX9X5X=XM.8.v.n. .y 4 u F -..XfXAXZXZXuXrXuXrXsX;X:X%XN.v.8.j.N.-X-X9XuXpXtXrX9X>XpX2X;X%X-XuX4XE.9X9X>X&XOXOXOX:X2X;X&X;XtXpXiXuXuXtXrXn.n.1XXXt.O. . .#.y.XX#X3X1X1X<X:X XOX;XrXKX2XOXOX>XdXKXKXrXaXaX2XC.u.b.OX2XZXKXKXVXyXVXKXyXZXKXpXtXaXZXKXVX3X2XZXKXZXZXVXyXyXVXyX2X2XyXVXaXrXaXdXpXrXaXdXaXdXaX<X@X|.y...} L 9 < 3 3 i b &.+X*XN.N.N.N.OX%XN.%X%XC.%X-X%X9X;X;X=X4X4XcXnXMXFXMX=XT.9XMX9XiXiX4XE.R.W.E.H.H.M.H.J.R.W.Q.Y.5X5X5X-X4X5X5X9X8XJ.L.7X7XL.S.H.L.R.7XW.L.R.R.x.x.z.l.x.H.H.x.z.M.j.m.v.N.OXq.o.! W V G 9 e 5 d i r q Q t.OX;XKXFXFXMXwXQ.m.N.;X%XQ.T.-XuXiXuX9X9XT.J.5XwX9X4X5X=X9XuX>XZ.b.&XpX,X>X>X>X>X>X,X&X>XtXtXVXSXVXtXtX9X%XN.%X&XOXOX@X@X1Xt.t.I $.$.-.b 1 y &.$X1X1X1Xn.n.OX<XaXaX;X;X5X5X-X%X&XOXN.b.6.5.9.v.%X5X5X4X4X4X=XQ.J.k.j.j.k.j.k.M.x.M.Y.E.nXMX4XJ.H.M.E.9XT.T.j.J.M.-XiXuX5X;X%XB.XX&.z 7 Q XX;XuXcX4X;XtXGXFXGXnXuXuX8X=X5XFXGX5XR.H.E.nXLXFXGX5XL.Y.=XMXwX4X4XwXnXqX8XwXFXMX4Xk.z.=X5X7X4X^.4X4X4X4XqXcX",
"LXLXHXDXDXcX6XE.4XcXDXDXcXcXcXnXnXHXLXnX0X4X4X4XW.W./.7X0X6X(.!.6X6XwXGXFXSXSXMXMXMXnXiX9X;X;X@Xv 1 y K .X#X3XyXaXKXLXLXSXuX5X%XT.v.7.7.f.H.Q.4XR.=X8XMXMXuX;XT.9XuXMXwXwXnX7X^.qX^.L.J.Y.Q.Q.T.&XJ.k.z.L.^.7X7X6XuXuXM.f.M.9.E Y C N k N I  .#.s.#.| X.6.B.&X;X5XH.d.7.H.-X9X9X4X-XY.M.Y.E.J.k.j.=XGXMX9X=X=X4XeXGXFXMXeX9X9X9X>X%X%X&X,X>X>XtX>X>X>X9XtX9XtXtXuX4X4XuXMXwXqXuXuXuXuXaXsX*X2X3X.X' l 9 9 9 l Z @.i.C.T.=XQ.T.Q.5X=XQ.E.J.E.=X=X-X9XwX4XD.L.0XHXFXKXiXE.E.9XqX4XW.E.W.4X4XW.Y.D.H.x.c.z.H.W.4XQ.R.Y.Y.Y.Q.=X4X5X4XR.E.wXcX4X/.0X7X4X0XW.H.R.R.c.c.x.D.H.H.R.E.W.W.J.k.T.J.8.5.X.Y P W @.b r > , 9 p v #.n.;X4XcXLXHXmXmXqXR.x.M.M.j.j.M.-X9XeX5XnXcXcXcX0X4XxXFXnXwX8X8X8X9X9XiXtXtXeX>X&XQ.-X,XQ.Q.;X9X9X8X9X9X5X=XT.T.-X9X>X&X;XOXO.t.| a.#.&.Z 8 Z .X#X*X*X>X%Xb.v.%X5X5X=XJ.Q.4X=XJ.T.%X&X;X>X>X;X;X-X=X4X0X/././.E.L.x.x.M.H.k.z.x.D.H.E.0X6XqX4XW.E.R.E.4X4XnXqXnX4XGXFX9X5X5XE.v.p.#.h 7 W +X9XxXvXcXGXKXLXuX4X4XnXnXwX8XwXnX8X4XW.L.J.=XMX9X9X9X9X9XQ.Q.=X5XqXnXwX4X7X5XW.8X8XW.K.W.4X7X0X0X0X/./.0XcXcX",
").0XvXmXcX6XR.F.R.^.6XqX/.R.^.0XxXvXcX0X/././.^.K./.0X6X(.!.!.!.(.).xXFXLXLXLXHXFXFXnXmXnXGXSXZXJ 1 7 x @.&.s.n.rXuXMXqXJ.H.J.H.M.f.1.<.c.R.^.^.6XR.K.S.R.K.4X4X/.nXLXFXzX6X).zXzX7X^.K.D.z.x.H.7X6XzX6X).!.!.(.vX^./.7Xc.:.R j.6.o.| U U U U Y D Y X.8.b.C.%X&X4X^.K.L.S.D.L.K.K.^.^.E.6XcX7XR.4X0XcXcXwXwXwXwXnXDXDXDXnXcX0X/.M.N.-X=XT.N.Y.9XiX-X;XSXLXSX9XeX8XJ.S.K.6X6XE.K.7X7X=X=XJ.N.=XrX{.Q l 9 q u z A %.u.m.J.R.R.Y.E.R.L.H.L.L.K.E.4X/.4X4XE.R.R.^./.8X9X5X9XqXW.Y.=XW.E.W.4XW.Y.Y.Y.R.R.D.D.R.4XwX8X8X4X8X9XwXuXqX5XR./.0X6X4X0X0X4XwX/.^./.R.H.R.R.H.H.c.g.d.g.D.E.L.E.h.j.7.R 5.R T U W Q l 9 e a l l B e.%XMXxXzXvXmXvXzX0X0XR.g.z.x.k.h.M.=XW.H.R.0XcX6X(.6XqX0XcX6X/.0XnXiXqX8X9X9XeX-XT.T.-XeX9X=XW.Q.Y.4XnXFX9XuX9X=XQ.&X&XC.>X*Xu.u.| o.^  .' h W XX@X>XVXKXKXSX;XN.T.5X7XJ.L.=XQ.M.N.T.T.&XQ.9XSXFXnX4XR.R./././.E.H.c.x.x.z.h.c.L.E.E.^.7X!./.^.^./.^.^.6X0XnXcXHXwXwXqXW.5X7XL.9.X.I f 0 ! *X4X7XzXzXGXiXwX=XY.R.E.R.4XwX4XW.4X8XwX7XR.x.f.f.H.Y.Y.H.f.z.Y.wXnXwX4X9X8X=X4XR.H.H.H.R.4XnXqXnXDXDXmXnXcX/.",
"(.(.!.F.G.g.l.G.S.D.R.^.^.^.'.wX).^.R.!.(.).(.!.).zXbXzX).~._.kXkX).zXvXFXHXLXLXLXHXcX6XwXMXiXtX@.7 8 h J [ #.s.v.m.R.E.L.E.7XR.0X/.R.H.R.R.R.F.R.D.K.F.^.K.^./.D.6XLXHXvXzX_.).).).).).K.G.H.4XR.6XvXmXzX!.P.!.~.~.(.G.2.g.g.H.f.M.T.T.M.j.5.,.f.T.9XiX0XE.R.E.F.K.^.^.^.^.^.(.G.^.).).zXlX).6XmXvXcXzXcXDXDXDXIXHXxX).^.(.).0Xc.x.4XW.H.c.d.D.W.H.Y.qXnX0XW.W.4XQ.H.L.R.W.E.J.L.4XiXuXQ.v.8.6.t.A q 9 y y z A t.b.Y.R.R.W./.E.^.^.R.E.E.H.S.D.R.R.R.R./.4XK.g.h.z.x.T.E.h.d.Y.qX0X4XR.Y.Y.R.W.H.R.E.R.R./.6X4XnXcXcXnXnXwX7XR.R.4X4XR.H.E.E.Y./.H.D.Y.H.Y.E.R.z.x.H.Y.H.z.h.2.z.l.1.,.,.,.,.R +.X.y.%.Q q 8 8 b l B a.-XnXxXzXG.F.P.!.6XmXcX/.H.R.R.H.k.z.j.h.D.(.0X6XzXcXzX!.zXzXcXcXwX8X/.-XJ.=XwXMXnXqX4XW.4XE.4XwX9XcXnX0X8X9XiXeX9X9XeXtXtX;XA.n.t.O.6.a.W k ..#X*X>X;X;X;X9X9X9XiXnXcX7XL.=XT.k.M.M.j.j.k.T.9XeXqXW.~.W.^.^.E.H.c.l.g.h.d.1.l.R./.E.H.D.^.^.!.R././.).xX0XxX8XmX/.^.^.R.E.W.=XJ.n. .f 0 ! :XE./.zX).6XJ.W.W.E.Y.x.x.W.nXnX8X8X4XW.R.Y.J.:.,.k.j.,.R :.m.J.9X9X4XW.8XqX4XW.L.R.4X0X/.R.R.6X8XcXDXDXbX).R.",
").).).).(.!.F.F.l.l.l.S.R.^.8XqX!.!.~.~.!.!.(.zXkX)._.~._.).hXkXkX).`.cXcXwX0X4XqXcX6X/.nXLXLXyX@.1 7 0 b A [ t.R R :.2.2.S.W.H.H.R.R.R.R.K.K.K.G.G.(.^.zXR.(.^.0X6XxX6X).xXzXbXbX)._.(.(.!.R.!.!.!.^.).(.~.).zXzX~.).6X6X/.D.R.H.E.4X4XW.W.4X8X4X/.^.^.!.(.(.(.!.!.!./.).6X).).).).!.6XHXmXzXvXvXDXHXHXLXLXHXDXHXHXHXDXzXR.D.K./.c.H.c.c.z.1.g.z.R.4X/.E./.4XW.x.Y.W.N.h.z.Y.4XH.=X=Xf.R R 4.X. .V q y z p v I Y 5.J.E.R.4XW.c.D.K.R./.0X/.K.R.S.R.^.R.D.D.H.H.d.H.H.k.x.h.z.4XW.0X0XW.R.W.'./.^.0XcX0X4X6X0X6XnXwX6X8XqX8XW.H./.E.Y.Y.H.H.R.W.H.H.x.h.h.Y.T.j.M.M.M.M.H.H.M.x.J.7.j.7.j.b.1.5.q.O.y.@.J 7 8 8 q h W 1XuX8X^.).!.K.!.6XxXxXqXwX/.E.W.5XY.7.7.Y./.8XcXcX8X).0XcXvXcXcXqX0X/.W.E.8X4XW.W.W.4X8XqX8XH.R.4X0XwXcX4XqX8XqXiXMXuXtXiX>Xu.X.0.OXOX@X+XW f [ XXOX9X>X&XN.M.Y.9X9X4X^.4XQ.-XT.M.N.T.M.M.7.k.W.9XwX4XR.Y.R.K.H.D.c.z.x.x.h.1.d.H.E.E.R.R.R.R.K.!.).^.R./.E.4XR./.S.R.^.R.E.J.J.M.N. .k k [ OXL.6XHXxX0XH.H.z.d.d.H.4X8X4XY.D.R.qXwXwX4XJ.M.m.Q.Y.k.j.j.=XQ.E.Y.J.J.R.W.4X/.wXcX4XR.R.^./.8XR.D.R.~.U.U.~.",
"bXzXbXcXbX0X0XqX/.8X8X8X0XDXDXqX).(.!.!.!.(.(.)._.(._.).kXbXkX].).F.R.qXwXR.c.H.D.0XcXE.W.MXKXyX.Xw y 0 Z Z s.XXn.8.<.g.L.L.l.d.H.D.c.l.F.!.(.~.R.~.(.!.R.R.!.^.R.).).~.(.zXzX~.)._.~.!.~.).(.!.!.R.R.R.~.).).).R.F.R.0XcX0XW.R.R.7XwXwXE.x.D.E.Y./.8X!.D.G.!.).(.!.!.!.!.(.`.0XzX!.R.zXDXDXvXJXHXDXDXHXHXHXHXFXHXHXDXDXcXqX'.^.8XR.c.c.R./.W.D.U.W.8X^.Y.Y.W./.T.-X-Xx.h.k.h.T.N.T.C.b.q.b.n.6. .B q y y z Z S U ) =XW.H.4XW.Y.l.c.R.R.R.R.E.D.H.R.E.R.H.H.H.D.D.Y.E.E.E.R.R.E.D.8X0X~./.JXJX/.(.zX8X~.).8X6XcX0XwXqX4X^.^.E.L.Y.E.8XqX=XY.N.j.M.1.7.k.j.j.k.j.k.M.T.T.M.M.Y.M.k.7.w.Z.T.b.k.b.C.u. .I ' l 8 1 u h W |.>X5X/.6XzX(.(.0XzX).8XcXnXE.z.M.H.k.M.=XQ./.0XqX8X/.0XcXcXqXwXcXwX8XW.4XeXT.J.J.Y.Q.M.,.<.8Xz.qX0X4XR.W.qXeXiX&XuX>X%Xv.Y E R T A.XX1X3X[ f ! XXn.OX&XC.T.&XN.j.Y.Y.S.x.Y.;XT.N.k.>X&XM.T.8XeXeXW.E.Q.Y.R.L.D.k.z.k.k.k.7.7.d.z.L.R.R.R.R.^.R.S.S.E.4X/.R.E.Y.D.H.E.E.D.S.=XW.J.C.O.B h %.*X4XnX).!.x.Y.Y.h.h.W.R.x.W.W.E.x.H.W.4XqXqXQ.Y.Q.5X9X=XY.T.4X=X5Xx.<.7.H.4XK.R.0XnXcX0X0X0X8XcXR.U.R.).~.R.R.",
").zXcXcXvXJXcX0XDXcXwXDXFXcXeX8XcXcXxXzX6X(.~.~.).).).kXzXkX`.).].~.)./.8X0X4XR.^./.6X4X4X8X9X1X}.0 0 0 K Q }.XXOXT.J.x.l.g.j.x.H.Y.D.c.S.R.R.R.U.!.!.R.F.D.D.U.R.R.!.!.(.(.(.~.).~.~.).`.).(./.8X/././.8X8X8X8X8X/.R.W.W.R.W./.6XcXcX4XR.Q.Y.x.E.D.c.l.R.R.R.F.!.R.D.D.D.R.R.R.R.R.^.`.8XqXcXDXDXHXLXHXcXwX8XR.qX0XqXwXcXwX'.W./.8XW.D.R.0XwX/.Y.R.R.D.c.D.Y.Q.W.Y.x.1.w.h.1.h.M.k.Z.-X-X&X%XOXs.H l p p z Z W | 6.;X5XY./.E.Y.H.c.D.W.H.l.c.H.H.H.H.H.Y.H.H.D.Y.W.4X4X/./././.W./.wXJXDXDXJXcXqXvXzX/.6X6X/.qXqXcXcX4XL.z.d.2.H.J.W.W.N.k.j.7.7.7.w.8.,.j.Q.C.n.w.w.j.k.Z.M.w.7.7.w.k.C.&X,X,XC.n.i.@.} l 4 3 4 q S t.%XW./.).!.^./.6X0XqXwXxXqXW.T.T.Y.k.k.T.wXeXW.Y.R./.0X8XqX0X0X8X8XW.W.T.k.k.J.Y.M.M.h.:.1.9XR.nX4XE.4XGXiXiXiX-X;Xq.,.R ) R Y U i.@X@Xa.V 0 I a.n.N.C.C.&X>XC.w.f.f.f.m.&XQ.N.&X-XtXQ.b.Q.Q.Q.T.Z.x.k.x.Y.H.M.k.j.j.k.k.k.j.f.j.k.k.x.H.E.E.R.H.H.E.4X0XE.W.W.-XW.Y.H.M.E.5X5X&XOX .v v ..1X9X6XK.K.Y.N.x.H.H.M.z.Y.qXT.R.x.H.Y.R.4XwX9XQ.5X9X5XQ.Q.5X9XiXQ.7.f.M.L.=XQ.wXcX0XE.H.E.8X0XR.8X8XR.R.).).R.",
"^.8X/.R./.DXHXDXHXwXW.E.Q.Q.R./.^./.6XzXzXzXxXbXbXxXbXbX`.].!.).xXzX0XqXwXeX8X8X^.R.E.4X4XQ.Z.n.@.q l q Z ' .X+Xu.C.=XQ.x.l.z.x.Y.E.E.Y.D.S.D.D.R.!.^.R.H.D.D.D.D.D.K.^.^.R.R.^.!.F.K.^.(.K.R./.R.R.Y.Y.R.R.R.R.R.E.4X4X/.R.Y.T.Q.9X9X5X-X;XW.M.M.j.h.j.x.x.Y.Q./.R.Y.D.R.R.R.Y.D./.8X/.^.8XcXcXcXGXHXGX0XwX8Xc.R.W.0XwXcXwXwX0XW.4X4XR.Y.R.R.Y.0X'.W.H.D.D.D.c.W.Y.D.h.2.1.<.D.R.H.R.9XqX9X9X;X{.H h p p p Z ] t.B.9X5XR.E.Y.Y.E.D.R.R.l.<.h.H.E.D.S.L.W.Y.Y.J.W.4X8X8X/././.4X/.^.8XqXcXqXcXDX0XcX0X/.`.0X8XxXcX0X/./.4X4XR.z.h.j.k.M.j.j.j.w.,.) ) _ ) b.Z.q.b.5.,.,.5.j.w.,.1.j.C.Q.&XQ.k.,.b.v.XXs.=.y 1 9 q b [ t.q.7.l.F.E./.8X6X6X0X6X/.wX0X4XY.j.h.M.Q.9XwXeXR.Y.^./.W.~.'.8XW.W.-XW.Z.T.M.M.j.j.M.T.M.k.iX4XGXiX9X9XnXiX-XT.Y.;XM.q.q.) _ U X.u.OXA.%.k 0 W a.n.b.n.C.n.%X%Xb.w.5.f.M.Q.T.N.%XN.C.C.,XtX-XT.Z.Z.M.M.Y.Y.Y.J.M.j.j.j.M.M.j.w.h.j.h.k.H.E.Y.H.H.H.Y.W.eX-XW.W.W.T.M.Y.5XQ.=XJ.N.u.A f k &.1X&X7X^./.&XQ.T.eX8X-XE.eXGX8XW.T.E.W.E.-XwXiXiXtX9X=Xk.9.7.j.m.f.7.Y.9X9X9X9X5X4XE.D.D.R.W.W.^.8XqX8X~.R.^./.",
"S.R.W./.0XcXcX8XR./.8X^.W./.W.D.6X7X7X6X6XzXzXxXzXzXzXzX`.~.`.bXbX`.(././.Y.R.W./.6X0X6X5X;XQ.n.%.v c 0 Z @..X@X6.N.Q.Q.E.R.Y.k.E.W./.E.D.c.S.S.R.^.^.R.R.H.H.D.D.H.R.^.^.R.R.^.F.G.S.D.F.S.F.^.R.Y.R.Y.R.R.E.E././.E.H.D.D.R.4X4X0XwXwX4XJ.M.Y.Y.M.Y.Y.x.h.Y.0X/.^.W.W.W.^././.R./.8X'.'.0XqX0XwX0X8XW./.cXwXY.c.Y./.4X/./.8X0X0XW.R.R.Y.D./.DXwX0X8XW.W.W.R.D.R.Y.R.D.G.l.l.6X(.^./.E.W.wXnX-Xa.V q p p p Z { s.OX9X4XL.H.M.J.E.Q.W.D.d.l.D.D.E.D.S.R.W.Y.J.Y.W.W./.W.R.R.E./.R././.^.~./.0XqX^.(.(.^./.8X0XcXnX8XR.H.R.R.c.2.f.7.h.j.7.7.j.w.w.) ) ,.5.5.5.) 5.5.5.5.,.w.k.k.T.T.T.T.Q.Q.Z.w.9.9.n.{.&.h 4 9 q b ' %.u.M.R.~.4X0X0X4X/.^.^.R.4XwXqXY.h.h.Z.W.W.-X8XW.W././.R.R./.0X8XW.Q.Y.M.T.M.J.W.5XeX5XY.T.9XW.wXwX9X8X9X9X;X-X9XtX-XM.v.b.N.n.OXu.i.X.` k 0 C #.u.q.8.b.q.b.N.b.v.j.m.N.C.C.C.C.j.8.N.9X,XZ.j.k.k.h.j.M.T.Q.T.Y.k.j.M.N.b.j.j.j.j.h.k.H.H.D.x.x.M.H.E.W.-XW.E.T.H.x.T.;X5X=Xm.j.t.U h k &.XXN.qX0X/.-XiX-X9XeXMXeX4X9XeX8X9X9X8X-X-X5X5X&XM.m.J.k.<.7.M.M.=X5X9X8X=X5X=XR.Y.H.x.H.E.E.H././.'./.W.R.R.'.",
"8X/./.6X8X/.^.R.6X0X/.D.S.E.0XcXxX6X6X6XzXzXzXlXzXbXbX).(.).`.`.).zX6XK.H.4X0XW./.7X7X7XR.M.M.B.oXW j 0 A s.oXXX;X9X8XW.R.W.W.Q.E.E.E.R.R.K.F.K.R.!.!.R.R.R.R.D.D.E./.E.E././.R.l.H.R.F.D.R.^.^.^././././././.4X/.^.R.H.D.H.E.).zXbXzXbXzX6XxXmXxX^.U.!.~.U.].~.!.R.^.~.R.R.~.).(./.8XqX8X/.^.8X0XR.D.F.R.qXcX/.^.!.R.R.^./.8X8X8X^./.8X/.Y.R.8X/./.8X8X/./.W.R.R.S.D.K.).).!.zX/.^.^.L.K.5XcX%Xy.B q l x x K [ a.%X-XW.L.c.x.Y.T.E.E.x.h.D.E.K.K.S.S.K.K.m.x.L.J.K.H.H.D.D.R./.^.8XzX0X`./.).^.R.R.R.^.^./.8X8X8X8X/.D.2.<.d.c.M.j.j.j.7.7.f.7.j.v.M.v.8.) 4.q.4.9.q.j.w.N.;X9X-XY.k.M.Q.Q.Z.M.f.8.N.XX}.Z u p p z Z O.OX9XwX6XqX/./.4X/.R.R.^.K.0XcX8XE.Y.T.T.-Xk.d.x.4X0X/.H.^./.8X8XE.x.x.Y.Y.J.W.eXwXiXqXW.W.8XE.W.Y.W.8XGX8XeX8XW.Q.T.J.&XJ. X%XtXC.u.+.X.B f C O.u.u.8.q.u.q.q.8.8.j.m.M.M.N.T.N.N.N.T.T.Y.k.j.M.k.h.h.k.Q.W.Q.Y.M.k.M.N.N.M.k.j.j.f.h.z.h.x.H.x.x.R.Y.H.J.Q.=XQ.Y.Y.M.k.J.Q.M.8.6.! v v @.XXQ.cX6X^.-XVXeXuX9XGXiXQ.Q.;X9X9X;X&X&XT.J.M.7.7.7.m.J.Y.=X5X5XiX9X5XM.j.J.Y.=XR.x.z.H.R.W.E.Y./.E.c.D././.Y.",
"DX0XE.R.R.R.(.0XK.K.!.).^.F.F.!.K.^.7XlXxXvXbXzXzXbXbX).).`.`.~.zXzX)././.4X0X0X6X^.E.^.H.<.7.b.oX#.W j C @.a.*X>XuXwX4XE.R.W.W.Y.H.H.H.R.!.!.!.R.!.^.!.!.^.^.R.D.E./.R.E.4X/.H.S.^.6X/.(.).).!.^.^./.^.R.R.R.^.K.R.(.).0XzXzXxXNXNXNXNXHXIXIXJXvXhX!.!._.!.I.].!.!.~.!.R.U.U.!.~.).bXvXzX!.(.bX).~.(.0X0XzXJXDXHXzX!.!.0XcXzX).R./.8X^.R.R.U.c.^.8XqX0X8X^.R.H.D.D.R.^./.^.F.R.^.S.S.K.L.H.L.B.#.B f z x b K ] s.&XE.R.K.z.H.R.T.x.x.H.D.D.R.!.L.L.L.P.L.x.S.K.K.L.L.H.D.D.R.7XxX6X0XzX8XR.R.).R.S.R.^.^./.0X8X^.E.R.D.l.l.H./.L.H.H.H.k.m.J.M.j.%XT.8.8.b.M.b.j.8.v.M.M.Q.5X4XR.c.c.D.Y.H.j.d.H.H.%X@X.XJ l u p b ' y.n.T.W.4XcX/.^.(.^.F.F.^.!.6XzX8X4X0X8X/.H.d.1.H.8X4XR.R.R.R.R.R.H.z.H.-XQ.W.9XwX8X8XwXnXqX0X4X0XwXnXFXFXqX8XH.M.J.5X-X;Xm.f.N.rX&X&XZ.t.S f A #.u.b.u.q.5.) 4.w.v.v.m.f.k.J.Q.M.M.J.E.J.H.H.Y.Q.T.x.x.Y.E.E.R.J.x.k.k.M.M.j.k.k.z.h.h.h.g.x.H.x.H.E.R.k.x.J.Y.J.Y.W.E.H.7.J.M.5.X.S k k s.2X5XqXzXDXwX-XVXSXuX9X8XY.T.T.&X&XT.N.T.Y.k.j.7.v.M.j.M.Q.Q.k.J.m.f.k.j.9.j.H.H.x.h.h.k.J.E.W.R.H.z.c.Y././.R.",
"!.^./.).).)./.^.zX^.P.!.P.F.!.6XP.7X6XlX6X(.jXhX_._._.).zXvXvXbXzX_.(.xXxXR.K.7XvX6X(.7X^.S.H.;Xn.e. .C N ! t.>XT.Q.4X/.R.Y.Y.R.H.D.D.K.R.R.R.!.!.^.^.!.^././.^.R.E.E.E././.^.L.E.7X0X6X).).^.!.!.^.^.!.K.K.R.^.^.^.!.K.(.xXHXHXHXHXHXmXHXHXvX!.6X6X).^.F.F.].~.(.(._._._.~.!.P.~.hXxXzXlXlXzXbXzXhXbXNXvXbXNXHXvXhX!.!.).hX).~.).0X(.S.F.6XcXcX6X0X0X8X)./.!.R.M.Y.9X=XR.H.d.l.J.x.S.H.m.j.j.8. .B f l x m J W u.%XJ.K.E.S.L.H.H.z.c.H.D.D.K.L.S.K.^.^.P.L.L.K.L.L.L.E.R.K.^.0XcX0X/./.^.R.!.).D.l.U./././.8X/.4XR.x.D.H.H.x.c.S.z.S.L.L.R.W.R.m.J.j.,.k.Q.N.j.M.m.m.M.H.R.W.L.K.S.l.l.D.E.4X4XK.7XuX*XoXW l 8 7 z [ a.N.M.E.vXzX).!.!.R.F.!._.zX).^.^.6XcXcX0Xx.x.Y././.E.R.E.K.L.D.S.S.D.H.R.c.Y.wXFXDXcXcXwXFXcXnXFXLXLXDX0X/./.R.wXnXuXm.f.=XM.&X%XC.%XC.T j w W a.6.6.8.4.R R 8.N.N.M.m.7.j.J.=Xm.x.z.R.W.x.H.Y.Y.L.H.x.D.R.L.H.H.x.x.x.k.k.j.j.x.x.c.l.l.z.S.L.H.K.J.H.x.D.x.x.k.H.J.W.W.x.R.L.M.i.] j j }.3X4X7X).mXeXk.&X9XT.v.m.8.7.7.j.M.v.b.Q.C.j.j.,.8.j.j.j.M.m.f.7.7.:.9.7.,.7.9.<.9.f.j.x.H.L.Y.W.h.d.H.R.x.D.W.",
"R.6X6X/./.0XzX).^.).(.!.(.lX).P.P.(.6X6X(.(.hXbXzXhXhXzXbXzX).kXhXzXbXmXmXxX0X6X).6X).^.^.7X8X5XOX#.C k S O.6.N.%XH.z.D.D.D.D.R.H.D.H.R.K.D.F.F.K.!.!.K.R.^.^.R./.R.R./.6X/.R.H.qX6X6X/.^.R.!.^.F.K.R.K.D.G.K.^.F.!.!.!.!.).lXbXNXlX^.K.K.R./.0X/.4X4X^.R.R.~.(.hX(.!._.).)._.P.!._._.!.).vXNXlXNXzXzXbXzXzXzX_.hXhXzXhX_._.).zXvXvXvXzX).^.!.R././.(.^.(.).6X/.L.Y.W.E.=X=Xl.g.H.L.J.M.m.J.%Xv.^ B f l z G ' ] e.%Xm.K.^.S.S.D.z.D.R.D.c.K.R.g.S.L.E.R.K.K.L.L.L.L.K.4X4X^./.wX/.xXcX).).qX).K.R.S.R./.^.~.^.D.R.H.H.E./.E.Y.R.g.d.z.S.S.L.L.S.l.m.j.f.J.M.f.m.j.v.J.J.H.L.R.L.d.S.H.S.H.R.R.S.L.5XSX2XXXW l 9 x b ] {.;X=X4XwX!.^.!.F.K.^.).).)._.!.(.cXDXcX/.4XW.L.D.H.E.^.E.E.E.R.D.S.D.l.<.H.H.W.wXcXnXDXDXDXnXHXFXcX0X/.E.E././.wXE.L.m.uXJ.J.5XN.v.N.%XT j f y.1Xi.8.j.8.7.9.b.T.N.M.M.k.x.x.R.J.7XR.R.x.x.H.L.H.H.H.H.x.H.H.D.x.D.H.D.x.R.H.x.H.D.c.l.g.x.z.c.L.R.L.x.x.H.x.x.J.J.k.z.H.W.J.x.J.:X%.j k ] OX=X/.G.g.l.M.M.T.j.j.M.7.9.7.R 7.j.M.%XN.7.7.5.,.7.J.N.5.7.M.<.j.<.:.:.f.J.k.f.f.j.z.k.x.J.E.H.k.z.z.z.l.c.z.",
"^.4X4X/.0X/.F.^.0X0XzX0X0XzXxXcX6X).^.^.6XbXNXJXvXvXxX).(.).zXbXvXvXvXvXDXDXcX`.zX!.F.(.xXqX5X9X:X#.A j S ! @Xb.j.g.k.J.x.g.l.F.D.D.R.E.R.D.D.!.!.(.!.F.F.^.(.R.).R.R.).(.F.F.(.0X6X^.R.R./.E.D.H.c.g.z.L.M.k.H.H.R.K.g.g.F.^.^.6XK.K.^.R.D.H.E.Y.Y./.8X(.~.~.U.`.(.).zXzX(.).zXF.kX)._.bXbXkXvXbXbXbXbXxXxXxXxX).vXvX).U.~.zXbXHXbXzX`.!.F.K.F.K.G.G.^.zX0X6X0XR.R.R.E./.W.Y.x.Y.H.R.W.4X=X=XOXy.c f h z F H W #.XXN.j.L.L.c.H.R.H.x.D.H.Y.H.c.H.H.L.R.D.c.D.R.L.K.R.K./.0X0X/.7X4X4X/././././.E./.4X/.^.R.R.R.D.E./.(.!.(.(.^.R.L.L.K.L.H.S.z.S.d.d.j.v.v.v.8.v.%X&XN.m.J.J.m.J.k.f.z.J.W.E.J.m.N.&X%XO.A l 4 8 m #.:X;X4XcXwX0X^.F.F.).).(.6X).!.!.zXDXHXDXmX0X^./.^.H.R.4X/.H./.qXqXE.z.l.x.g.E.nX7X^.nXwX6X8X8X7XqXnX4XL.8XeXY.9X9XQ.-X9X9XMXE.m.T.T.&X;XO.k k s.3XOXj.M.E.M.h.Y.&Xb.M.Z.h.j.z.M.L.H.z.z.M.H.J.J.H.m.m.H.H.H.k.z.H.L.L.H.L.R.H.D.x.c.z.x.z.z.x.H.J.Y.M.z.j.M.j.h.k.M.Y.T.M.H.W.J.m.v.^ N j W XXj.z.g.2.h.k.Z.C.j.j.7.) 1.,.,.j.N.M.j.j.j.j.J.j.M.j.N.j.j.j.f.j.k.k.k.M.R.4XY.x.g.d.l.x.H.L.E.Y.L.H.x.l.z.H.",
"^./.^.^.8X6X/.xX/.E./.xXxX4X/.wX).6X0XzX0X6X6XzXlXzXzXzXzXxXbXzXxXxXcXcXcXcXbX`.zXkXzXvXHXcX4X4X*Xe.S f v W *X%Xl.z.M.Y.H.c.G.F.R.D.D.R././.^.!.!.K.F.F.K.K.F.P.~.!.^.).(.!.!.0X(.^.R.H.R.R.R.D.x.M.z.j.M.J.M.M.H.j.l.D.H.D.^.xXxX).^.H.g.d.d.1.k.H././.^.!.~.~.!.).0XzX0X).~.].xXJXbXkXNXvXkXzXbXkXzXJXHXcXzXbXbXzXbXvXbX`.zXHXvXvXJXzXF.G.!.zX!.R.K.^.6XzXxXvXzXF.F.4XW.h.x.wXU.W.~.c.g.M.T. X$.c g l z G K [ ..t.N.J.m.x.c.g.l.x.H.D.x.c.D.Y.x.x.c.c.l.g.l.x.L.D.L.R./././.E.E.E.^.E.R.R.R.^.6X6X/./.^.R.K.D.^.^.!.^.).0X).^.4XE.^.7XR.L.L.S.L.z.m.v.5.4.8.8.8.9.4.8.m.m.M.N.J.m.J.=XT.z.z.J.5.4.5.9.^ S z a q m y.C.Q.cX0X0XR.R.K.D.F.F.!.xX6XzXvXJXmXcXxXxXcX8X6X/.E.E.E.R.W.H.x.E.8X8XW.L.R.K.6X6X7X^.E.wX6X7X8XcX7XR.4X9X5XT.N.T.uXeXY.4X7XW.W.5XN.b.OXO.k f ..+X%XQ.E./.eXQ.Q.Q.k.M.T.j.k.k.z.k.z.z.m.J.H.J.M.j.f.j.j.f.M.j.j.k.H.L.R./.E.R.H.x.x.x.h.h.7.7.h.h.h.h.7.7.<.<.h.M.T.&X-XQ.J.J.z.f.8.| B k [ XX8.z.D.D.x.7.j.k.w.M.M.w.j.w.M.Y.N.j.<.,.h.k.T.T.T.j.T.T.Q.j.7.f.k.M.J.H.m.x.h.g.d.d.l.x.Y.E.4XE.H.k.l.z.L.4X",
"6X6X^.R.^.K.D.R.6X^.K.R.R.^.0XnXmXzX(.^.^.(.zXvXHXvXlX!.F.!.~.~.).).)./.'.0X`.).~.kXvXvXxX/.K.M.n.#.A h v ' OXb.k.M.Y.T.Y.H.F.G.K.D.x.D.R.^.^.R.^.F.G.K.R.G.G.!.F.F.!.!.K.K.!.6XR.F.S.D.H.H.D.D.z.J.M.j.k.Y.Y.Y.f.j.c.l.S.K.!.!.!.K.S.g.2.l.x.h.x.Y.W./.^.!.~.~.!.).).~.!.(.).~.U.xXbX).).!.!.bXbXkX).zXxXxXzXxXzX(.).vXJXzXzXvXbXxXcXbX`.(.).(.G.K.^./.6XzXzX6XxX!.G.l.c.x.R.8X8X8X/.R.Y.Q.J.6. .c g l z F K } s.o.6.w.7.l.L.g.g.l.x.x.l.j.x.L.x.z.h.l.l.j.l.M.K.S.L.W.4XE.E./.H.R.R.K.D.D.K.R.4X/.E.E.^.^.R.K.^.R.F.R.(./.(.(.E.D.L.E.L.S.L.L.S.g.d.5.R R 4.4.j.9.,.7.j.m.M.J.J.N.m.m.f.<.f.H.b.8.8.8.| B 8 4 p v {.b.Y.GX/.W.R.R.S.l.F.R.R./.(.zXmXvXxX0X6X6XzXqX8X/./.R.D.D.R.H.D.E.4XwXwXnXwX7XqXqX7XE.R.nXnX4XwX8Xl.g.K.L.Y.j.Y.Q.Q.9XeX=X7X^.R.J.f.v.*X@Xj k ..XXOX;X8XqXGX-XQ.T.j.M.Y.M.k.z.j.h.j.M.J.J.M.m.j.7.f.f.f.8.j.j.l.k.x.H.R.W.W.E.Y.H.k.z.j.h.7.7.7.7.7.7.7.7.j.j.M.Z.M.k.k.j.J.H.z.f.v.O.S k ' +XN.E.^.K.H.k.j.j.j.N.T.M.J.M.j.M.Q.W.Y.z.j.M.T.T.T.j.k.M.M.h.z.j.h.z.x.D.c.l.1.g.l.z.z.x.H.R.z.x.H.J.H.x.x.H.",
"E.^.R././.R.R.R.c.R.R.H.R.0X6XH.).R.K.).zXzX0X0XzXxXbXbXbXzX).!.~.~.!.!.).).`.).zXvXJXxX).^.E.J.u. .Z h m [ i.8.j.M.Y.T.Y.R.F.G.D.H.H.c.l.D.H.H./.F.S.K.R.F.F.~.R.!.^.!.!.^.).6XK.S.S.H.H.S.c.x.d.z.h.1.d.j.k.H.h.L.R.D.K.6X6XK.^.K.D.z.g.z.x.h.x.Y.R.R.^.!.~.~.!.(.~.!.!.).zXzX).(.].].zXxX)._.).zX).!.!.zX).U.G.G.U.~.).zXzX0XzX(.(.cXDXJXzXF.G.F.R.^.).6X/.!.).0XR.2.h.W.8XY.qX^.R.4X8XY.f.X. .c g l l m H ' ..o.i.T.T.Y.Y.h.x.x.z.l.l.l.l.l.x.h.h.z.x.H.H.L.K.L.L.W.4XW.E.E.D.H.K.D.S.S.H.R././.E.E.^.^.^.R.R.!.^.)./.!.(.0XR.x.L.^.J.L.E.7XJ.l.d.f.8.f.v.8.j.N.J.f.9.f.m.m.J.J.f.:.<.z.L.j.q.8.8.u.#.A q 9 9 z y.N.Q.cXW.Y.E.E.D.l.H.W.^.E./.6X0X).).0X0X/./.wX0X4X4XR.c.H.H.H.Y.E.4X8XiXFXwXqXnX7X^.6X4XqX7XE.W.R.l.x.W.E.Y.M.8XQ.k.9XMXR.E.E.J.R.M.v.n.| k B y.XXN.-X9XwXwXQ.Y.x.j.M.Y.M.H.H.M.j.k.M.M.j.j.f.5.9.9.8.f.j.7.j.m.H.H.x.D.D.E.E.Y.H.x.k.k.j.w.w.7.8.8.7.7.7.w.h.k.k.7.7.j.f.k.k.z.m.B.t.A k I +X%X4X^.K.Y.T.N.M.j.M.M.k.k.k.J.J.Y.=X4XW.W.8X5X&XW.T.k.7.j.Y.J.x.j.l.z.x.c.l.d.l.H.H.x.x.x.H.z.z.j.h.g.l.H.Y.",
"0X0X/.0X6XR./.R.c.H.D.S.R.6X^.l.F.F.K.(.6X).(.).(.0XbXbXvXbXzX).kX).).).`.0XzXbXvXJXbX).!.^.4X%Xs.[ l 7 l [ t.v.k.H.Y.T.T.E.!.F.H.Y.Y.x.D.Y.E.R./.R.H.D.F.R.!.^.^.^.!.R.!.(.(.R.R.D.D.R.H.c.c.D.d.d.1.,.<.1.7.H.H.z.D.E./.^.^.)./.K.K.R.H.x.x.h.d.c.c.S.^.(.~.(.!.!.(.zXzX`.`.zXzX).].!.kXzX_.].F.hXxX).(.(.].3.2.3.G.G.R.(.`.`.).(.).zXzXbXxX).6XR.G.K.^.^./.6X!.).zX4XR.Y.Q.8X'.^.^./.Y.j.j.n.#.c h l l m m Z N U X.8.j.j.h.M.H.H.x.z.l.g.g.g.l.g.g.l.H.H.m.H.H.L.R.L.R.W.E.R.L.H.R.H.D.D.K.R.E./././.E.R.R.R.R.R.R./.R.D.D.R.E.D.H.E.K.L.K.E.J.z.j.m.m.M.M.v.f.J.J.j.9.9.f.z.H.J.m.f.m.W.E.j.8.6.4.5. .V u a 3 v #.:X9X4X/.Y.D./.4XR.Y.R.E.4X8X0X0X/./.6X/.!.R.wXcXwXwX/.R./.W.H.x.E.qXnXnXwX4X7X6XE.W.wX6X7XE.4XL.H.E.4XW.=X4X8XW.N.eXiXY.x.K.4X4X8X9X;XOXO.k S y.n.N.=X4X4X4XY.M.k.k.J.Y.H.R.E.Y.k.k.k.j.7.9.9.9.4.4.4.8.j.8.j.M.J.H.S.x.c.R.H.H.x.k.k.j.j.w.8.8.8.5.5.7.7.9.5.j.j.7.7.j.j.f.f.V.m.v.O.A f W @XN.7X^.E.E.J.J.M.k.k.M.k.k.x.4XE.R.=X8X4X4X4X8XW.Y.Y.z.d.z.E.x.x.H.H.H.D.z.h.f.l.x.H.H.H.x.x.c.c.z.l.l.x.L.R.",
"cXcX^.6XE.D./.R.0XR.S.D.K.R.E./.!.).6X(.K.F.^.0X6X6X).~.!.(.zXzXxXzX`.0X0X0XbXvXzXkX).!.R.R.R.b. .Z 8 1 y ' | q.=X=X=XQ.T.H.F.F.R.H.x.D.E.4X4XE.R.R.K.S.F.(.).^.^.!.F.F.K.R.K.S.R.R.R.R.H.D.c.x.H.x.l.z.x.z.x.W.Y.R.E.^.^.!.!.K.F.G.D.^./.E.R.H.,.1.<.3.!.).~.).zX).).zX0X(.).zX!.~.).).!.F.!.).).).zXxXzX~.F.F.R.F.F.U.R.F.R.).!.(.0XzX).).0X).zX!.G.K.^.!.!./.~.).cXDXwXQ.R.8XR.R.R.D.M.T.T. X$.V c z z m m Z N D N N ) 7.7.M.z.m.H.x.g.d.f.x.l.l.z.x.H.S.x.x.x.L.R.L.L.E.W.L.E.E././.^.^.^.E.H.R.E.E.R.R.R.E.R.H.D.K.R.D.l.g.K.S.D.R.L.K.R.L.x.z.m.J.j.f.v.j.f.7.7.j.j.7.f.m.H.z.j.m.m.z.x.J.u.n.u.6.O.V 4 2 3 m #.2X9XE./.E.H.E.E.R.W.W.E./.R./.0X4X/.E.E.E.R.4XwXwXqX4X/.4XW.H.H.4XDXGXnXqX/.J.^.^.4X8X7X7X4X5XJ.H.5X4XJ.Q.4XD.Q.9XiX8XM.H.W.cXcXMXMXpXtX@Xk C #.n.%X5XW.R.W.R.H.M.M.Y.J.H.L.J.M.j.j.m.m.j.8.9.4.9.6.6.8.q.j.k.M.m.x.H.L.H.D.x.c.x.k.k.k.j.w.q.8.5.9.9.9.5.8.j.M.M.j.7.f.7.m.j.z.f.9.X.A h A +X%X4XK.K.E.Q.M.k.E.E.E.Q.Y.W.8XW.W.4X0X0X/.R.E.Q.z.h.g.H.H.x.x.D.H.D.c.c.c.D.x.x.H.H.H.x.h.d.d.z.H.L.L.L.L.H.",
"E.E.D./.R.R.cX0X4X^./.wX0XR.H.R.F.).cXzX).(.!.R.F.~.6XzXzXxXbXbXzXkX`.`.`.`.`.bXzXkXkX).)./.L.v.A y 1 3 p Q I v.5X7X4X=XY.x.F.K.E.H.z.H.W.4XW.R.H.Y.H.D.K./.4X^.6X(.!.^.(.^.R.R.H.R.E.Y.H.D.D.D.E./.E./.4X/./.4X4XnXnX^.K.^.!.S.F.F.R./././.R.l.<.l.3.l.~.).!.).zX0X(.~.!.~.).zXxX~.]._.kXbXkX_.bX)._.kXzX(.).xXbXzX(.!.!.U.R.!.(.(.`.0X).).(.F.^.K.D.K.R.K.D.D.!.(.).8XwX0XW.Y.c.c.l.z.Y.Q.b.6. .V v c z Z Z A W P E X.N.T.j.7.j.l.z.z.g.g.z.H.x.z.z.m.S.x.z.m.H.L.L.L.L.R.E.E.W././.4X4X/.E.R.c.c.x.x.H.Y.E./././.E.R.E.E.R.S.R.H.R.E.^.4X4XE.H.m.J.E.M.m.M.M.j.9.<.j.m.j.z.H.H.f.d.z.f.<.d.M.4.i.u.6.y.Q q < 3 m {.2X5X/.W./.4XE.x.H.-X-XY.H.H.D.H.R.E.E.R.E.E.E./.4X/.W.E.Y.z.Y.8XcXcXwXwXnX0XE.7X8XqX4XR.4XJ.L.L.R.4X5X=X4XY.1.4XGX=XW.=XE.L.wXnXGXSX>XB.U f C t.|.;X5XR.E.R.R.x.k.M.M.M.J.M.k.M.N.N.M.N.T.j.9.4.6.u.u.8.6.j.j.z.z.k.H.H.x.x.x.x.x.x.x.k.j.v.q.8.6.6.8.8.q.8.5.j.M.m.M.J.M.J.m.m.j.4.o.W h B #X>X5XL.S.Y.=XY.H.4XW.E.W.Y.4XwX4XR.x.D.E./.4XR.R.c.D.c.W.Y.Y.D.D.S.c.l.S.Y.R.R.L.H.H.H.c.g.2.c.D.c.l.l.H.E.4X",
"/./.R.xX8X^.DX0X/.0XwX6XR.K.K.R.!.(.R.F.!.0X0X^.^.6XzX).!.!.(.(.zXkX).).).).`.`.zXkX).`.).E.x.q.A p > < i J ! ;XE.J.Y.Q.Y.D.R.)./.Y.Y.E.E.H.H.Y.D.H.D.H.R././.(.(.!.!.(./.E.R.E.D.R.E.H.D.H.H.D.H././.E.4X4X^.E.4X/.^.E.D.g.g.G.G.D.R.^./.0X4Xc.c.R.D.F.).(.U.).R.(.).~.~.).).(.zX~.!._.).hXhX_.).)._.).zXbXbXxXzXbX`.F.U.0XzX!.zX0X0X~.F.U.!.!.^.!.D.l.g.S.D.D.F.F.R./.W.Q.Y.R.R.c.S.E.W.M.v.i.! c v c z m Z J %. .i.C.v.v.Z.k.k.g.7.7.f.z.z.l.l.f.f.l.z.z.z.S.H.x.x.H.H.x.H.E.R.R.R.E./.W.K.D.D.c.h.h.c.H.R.E.D.R.E.H.D.H.R.H.R.K.K.K.R./.W.x.H.f.l.M.H.M.M.j.j.z.z.f.f.k.m.m.z.l.z.m.m.z.d.9.6.i.4.U  .J 9 > 3 b #X:XY.4XY.W.4XW.T.T.E.M.k.Y.W.k.d.j.T.W.Y.H.W.H.E.W.R.E.E.z.<.x.4XwX8XW.4XqX4X7XqXqX4X7XR.4X4XR.4X8XY.J.Q.L.H.E.W.Y.5XeXE.L.H.7XW.5XiXtX&XO.f P {.:X;X=XK.6XH.H.z.h.j.z.k.Y.Y.T.Q.;X%XM.j.b.q.) R 4.u.u.6.X.5.f.z.k.m.M.z.g.H.H.H.H.J.H.M.M.v.q.6.5.9.8.q.v.M.j.j.j.j.M.J.M.J.m.m.m.6.O.A 0 A #XC.Q.K.L.H.k.W.Y.4XH.z.x.z.E.H.R.R.L.D.H.D.l.c.c.c.R.c.h.3.R.l.c.D.R.R.R.Y.D.H.H.H.H.H.D.x.c.g.c.H.H.L.E.W.E.",
"6X/./././.cXDXcXqX).^.8X0XR.S.R.F.R.(.(./.6X).(.).zX).^.zXzX^.~.vXzXzX0X~.~.).).kX].zX).bXE.5XT h p @ , p v {.%X5X7XW.E.Y.Y.^./.R.x.k.M.H.x.l.g.2.H.4X4X^.^./.0X(.K.K.!.E././.R.x.Y.Y.z.h.g.c./.D.D.L.E.4X0X6X/.H.K.K.D.g.2.l.F.K.K.R.^.6X6X^.R.R.F.F.!.~.F.F.].~.~.(.).).!.!.~._.xXvXbXvXbX).).hX_.!.!.).kX`.).kX_.!.~.).`.`.`.zXU.(.).!.!.R.!.(.).4XE.D.z.S.F.F.G.G.l.c.h.D.R.D.R.8XH.j.8.R t.[ c h m H H J Q #.{.OXb.v.N.Z.j.M.g.d.l.x.l.g.l.l.z.x.x.x.x.x.D.L.m.l.g.l.x.x.H.L.R.E.R.R.R.R.D.x.z.z.l.l.x.H.R.H.E.E.H.D.R.R.R.H.K.H.S.l.l.x.L.l.k.k.z.l.k.M.J.M.g.g.m.x.l.x.l.z.g.l.J.Y.H.f.<.4.T X.T ~ H 9 - 3 z {.N.Y.E.W.W.Y.-XQ.Y.M.j.J.k.k.k.7.j.W.=XT.-X4XE.L.Y.W.W.l.:.<.x.E.E.W.R.L.Y.E.4XwXqX7X4XE.L.W.R.=X9X4XJ.J.W.E.4X4XW.8XeX8XwX4XK.E.9X9X%Xi.o.j 0 XXOX%X9XH.S.H.x.z.k.M.k.k.k.k.J.Q.T.M.j.8.w.9.E E 6.n.6.X.B.j.f.f.m.m.z.l.l.g.L.Y.J.M.M.k.M.q.q.q.8.8.8.q.b.j.j.j.j.M.=XT.M.H.T.M.N.8.#.Z f A oX%XW.R.E.M.j.H.4XE.R.4X/.S.D.l.D.D.l.d.g.z.l.l.3.h.c.c.c.l.Y.R.R.l.S.W.D.D.R.R.E.E.R.H.H.D.l.c.D.H.L.E.4X4XW.",
"D.D./.wX8X8XxXcXDXHXDXcXcX0XK.l.F.R.^.(./.).).(.F.!.!.(.vXvXzXlX).kXzX).R.).`.U._.!.bX).xXW.eXX.f 9 @ < a Z XX;X7XE.J.J.Y.Y.!./.E.H.M.M.c.d.1.<.h.H.E./././.6X6X(.R.!./.wXwXW.d.7.x.j.1.x.W.E.c.H.R.E.7X6X7X^.R.K.K.K.K.S.G.D.R.F.!.6X6X/.^.(.).0X).!.U.F.F.F.G.R.!.~.`.0X).~.~.].).kX)._._.).zX).kXkXhX_._.`.zX`.zXxXxX0X).).).!.F.!.!.F.!.R.F.^.).6X^.L.z.l.l.G.F.F.H.c.h.D.~.G.c.c.,.,.5.) t...V c v m H ' @.s.XXC.u.9.8.b.N.H.x.x.H.x.g.g.z.g.g.l.l.l.x.x.x.m.k.l.g.l.x.H.H.R.E.E.Y.R.R.R.Y.c.c.x.H.H.H.H.H.E.E.H.H.R./.R.l.3.g.l.c.D.H.H.x.x.z.f.j.k.m.m.x.L.l.l.H.H.H.H.l.x.l.f.f.j.z.j.7.9.X.X.T U H 9 > 9 z }.C.=XW./.E.FXiXY.x.k.j.J.J.M.M.j.7.j.M.M.k.j.Y.5X8X4XW.E.L.4XqX4XR.R.R.L.Y.W.7X4X4XW.W.4X8X4XR.H.L.L.H.J.Q.qX4XE.=X9X9X8XwXwX8XwX9X-XC.t.! k t  .|.%XJ.L.R.H.x.j.M.M.j.f.f.7.j.N.M.N.C.b.8.) 9.9.5.8.8.8.8.f.f.j.M.H.m.x.z.x.J.M.k.M.k.7.7.b.v.v.q.8.8.8.q.v.v.j.j.m.J.Y.T.J.J.m.M.r.t.S 0 S .XC.W.E.^.J.M.Y.R.E.E.R.L.H.S.z.z.S.D.K.K.K.R.H.D.c.c.c.S.D.R.R./.Y.R.W.D.H.R.H.R.R.H.H.H.D.c.D.c.D.R./.W.E./.",
"6XR.^.8X/.^.qXDXcXnXxX0X0X^.c.g.K.D.F.R.^.^.!.!.6XxXzXzXvXbX).^.(.).0X0X/.0X8XR.!.~.bX/.4XY.=XT 0 4 @ < a K oX;XJ.L.m.m.M.H.K.K.l.l.z.c.c.l.l.z.c.D.H.R.(.)./.!.F.l.G.D.E.4XY.1.<.<.<.d.x.z.g.l.R.^././.^.K.D.G.R.R.!.!.R.K.R.^.K.^.0X6X/.^.).zXzXzX`.(.).bXbX).(.(.(.).0XzXzX(.!.(._.]._._.).zXhXbXbXkX)._.kXbX`.).).(.(.(.).`.0X0XzX!.F.R.F.2.g.S.R.^./.^.E./.!.K.H.R.W.R.U.D.l.c.c.7.j.q._ | ~ v v V Z H ' ' %.6.q.j.j.8.j.k.z.k.H.Y.L.x.z.H.h.l.l.l.h.l.z.z.z.z.z.l.z.k.H.H.Y.R.R.H.D.H.R.E.R.Y.H.D.x.H.R.E.R.E.E.K.K.R.H.S.c.D.H.E.E.R.H.z.j.j.l.k.H.L.L.R.E.L.L.L.S.L.S.d.z.l.l.l.l.l.f.7.4.8.N. XXX$.p - 9 v a.OX5X4XW.Y.Y.J.M.W.-XH.k.j.,.,.1.f.7.7.j.j.Y.=X-XY.z.k.W.iXnXwXR.z.x.H.M.H.z.L.4X8X4XL.H.L.Y.E.E.Y.J.J.J.Y.E.W.5XMXGX8XY.E.7X8X8XY.j.u.6.P f w P i.C.m.W.R.H.x.k.N.N.v.j.f.1.j.j.j.M.Q.N.4.9.N.N.9.4.8.9.) 8.f.m.H.J.M.x.x.j.x.z.j.M.M.j.8.q.v.v.v.v.j.v.v.j.j.j.f.7.7.j.M.M.M.d.v.r.t.Z 0 S .X%X5X7X7XT.Q.4XH./.wXW./.wX4XqXE.K.E.R.S.l.l.l.D.D.D.H.E.R.D./.wXE.H.D.z.H.E.D.H.K.H.H.H.H.D.H.c.D./.4XE.E.7X",
"R.S.K.6X0X/.R.D.R./.R.S.D.K.D.c.R.D.F.R.!.R.R.R.^.).(.^.).6X).(.(.F.!.8XW.S.l.S.F.~.xX6X4XT.=X| q - O < p J |.%XL.D.x.x.M.H.H.L.D.x.x.x.c.l.l.l.D.D.D.R.(./.^.K.).^./.6XE.Y.H.j.M.j.j.T.W.D.D.8XxXxX0X).^.!.!.!.^.^.^./././././.).)./.).6X6X6X).zXzX0X`.zXbXzX).zX`.!.F.F.(.).(.).(.].].hXzX)._.kXhX).).).).).).zX(.!.!.(.zX`.~.).).zX!.R.).R.G.H.K.E./././.^./.6X!.R.E./.^.U.c.l.S.Y.J.C.n.+.^ A c c G G Z H [ %.T R j.N.j.7.7.j.z.H.E.R.H.D.H.x.x.x.z.h.g.h.h.z.k.x.k.z.k.x.H.H.L.Y.D.c.x.H.R./.E.Y.D.x.D.R.R.R.R.R.D.S.D.R.R./.0XwXwX4XR.H.H.d.z.H.H.H.H.R.^.R.J.E.K.H.L.L.l.z.l.x.L.H.l.g.f.v.B.N.B.|.$.y 1 4 v {.&X5XW.W.Y.Y.Q.Y.E.M.d.f.7.7.,.j.Q.j.,.,.1.j.M.Y.T.Q.4XqXnX8X8XW.Y.E.E.R.W.E.E.W.W.R.L.L.E.H.=X5XW.J.J.Y.R.Y./.5X;XT.k.M.4X4XqX9XT.q.i.t.U 0 k  .6.B.J.4XH.M.k.k.N.N.m.j.f.7.j.j.j.j.v.8.R ) 8.j.q.v.v.v.B.8.j.m.H.H.m.z.z.7.k.M.k.k.k.j.M.j.v.b.M.M.M.N.N.v.j.M.M.m.f.f.k.z.j.7.j.6.#.V 7 Z XX;XuX6X^.Y.W.E.c.H.4XE.E./.4X6XE.K.H.H.S.c.S.D.Y.R.R.E.E.D.2.R.qX4X/.E.H.Y.c.H.K.R.R.R.R.R.K.R.H.R.7X4X/./.7X",
"0XR.D.D.D.(.qX0XD.8X/.l.S.^./.R./.R.H.R.(.^.!.(.R.R.!.!.!.(.).(.6X^./.0XR.g.2.g.<.c.R.R.Q.J.T.o.l - @ < p H a.M.K.L.L.m.M.J.K.H.H.H.D.D.D.D.D.D.R.R.R.^.).).(.^.F.F.!.0X/.x.j.j.Y.T.Y.Y.4XwX0X4XxX0X/.^.!.!.!.!.!.^.^.^.^.).7X/.zX6X^.).zXzX6X).).(.).zXzX).).zX).(.F.3.3.G.!.~.kX).].!.kXzX).).)._._._._._.!.!.kXhX).).zXxX(.F.!.!.^.R.!.(.F.R./.^.R.E.E.R.R.E.R.R./.^.Y.c.c.U.D.D.D.M.M.b.i.#.' c c G H V W %.i.X.R j.J.j.1.1.x.D.Y.R.Q.H.x.c.Y.H.H.x.z.z.c.z.k.k.m.k.j.j.z.x.H.H.H.H.x.c.x.H.D.H.R.E.R.K.D.D.R.F.S.S.K.(.(.!.8XqXwXwX0X/.E.Y.k.x.H.H.L.L.H.S.D.K.^.E.H.R.^.R.E.x.l.L.H.l.z.Y.H.J.J.m. X#.0 1 1 Z {.;X5XR.8XE.=X9X=XL.x.k.J.k.j.j.Q.5XN.j.v.j.j.j.k.J.Y.Q.E.E.m.Q.4X8XwX4XE.E.R.L.L.L.R.R.Y.E.R.=XT.m.j.N.Y.E.x.W.W.M.j.k.T.8XMX9X5XQ.b.u.O.I f c %.O.v.%XJ.k.M.j.j.j.j.8.5.8.j.j.b.j.7.9.,.9.j.v.j.v.M.j.f.m.f.v.M.M.m.j.l.f.f.x.M.j.j.j.j.M.C.Z.Z.Z.Z.N.M.M.M.j.j.N.N.j.j.k.f.j.d.j.6.O.B 7 B .X;XuX^.L.k.J.Y.Y.x.H./.H.l.D.H.R.R.H.D.H.L.S.K.H.L.K.R.E.R.H.0XqXW.E.Y.Y.4XR.R.R.R.E.E.E.R.R.E./.4X7X4X0X6X/.",
"^.8XcXcX6X0XwX8X8X/./.4X6XR.K.4X^.R.R.R.^.^.^.^.)./.0X6X!.^.(.K.(.zXcX0XE.W.E.c.:.g.z.L.Y.M.N.e.G 1 > 3 p J B.m.S.F.D.x.k.m.S.S.c.x.c.x.H.E.^.R.F.F.!.^.^.^.^.).R.G.F./.W.H.J.Z.7.j.h.h.k.z.l.c.R.K.K.F.K.K.F.G.P.P.K.K.K.E.^.^.6X6X6X6XlXzXzX6X(.~.~.).).(.zXJX).~.U.G.F.U.~._.).zXhX).kX).kXvX_.hXhX_.P.F.F.!.!.).)._.~.~._.~.).!.!.R.^.R.G.!.R.S.l.D.R.E.^.6XS.F.H.H.D.l.D.R.R.R.R.Y.k.u.i...W c z J J A W #.O.5.j.T.Y.l.d.l.D.D.Y.Q.Q.D.c.c.H.H.H.D.x.x.D.D.k.k.z.j.h.h.h.l.H.H.H.H.D.c.c.D.c.D.H.R.R.K.K.K.F.F.R.!.^.(.).).0X)./.8XwX8XR.z.H.k.l.x.E.^.K.z.D.H.^.^.H.H.R.H.R.c.x.Q.W.H.x.L.J.=X=X=X2Xy.q ; 1 Z {.:X-XL.eXW.M.=XY.Y.W.4XQ.7.f.Y.5XT.M.&X5XT.T.J.M.M.j.f.j.k.k.Q.8XnXMX4XL.L.H.L.L.R.W.W.J.k.=XE.M.k.N.Q.T.m.z.E.Y.M.T.-X;X-XiX=XT.T.N.t.| C f c y.e.n.N.f.k.T.M.j.w.8.8.5.8.j.w.j.b.8.9.7.M.T.=XJ.z.m.m.f.8.m.M.J.m.f.f.f.z.j.j.7.7.k.M.k.j.T.Y.J.N.J.N.N.M.j.j.7.j.j.k.k.M.j.m.z.M.6.O.V 0 v XX;X5XK.L.k.M.E.4XL.L.4XH.g.x.L./.6X/.K.H.S.g.c.c.S.K.E.E.R.R.8XW.k.k.k.Y.8XW.R.R.R.E.E.R.R.R.E.0XqX7X4X0X0X/.",
"/./.6X/.K.K./.8XwXR.K.0XcXK.c./.K.R.R.K.K.R.!.R.R.K.^.(.K.~.6X^.K.7X0X4XW.9X4Xc.c.L.x.J.T.M.N.a.J 4 , 5 p Q n.m.g.S.S.l.j.j.z.z.R.R.R.D.S.D.D.F.F.F.K.!.!.F.F.!.!.K.R.S.2.1.7.7.k.k.k.k.j.1.2.H.K.R.!.!.!.!.!.!.!.!.K.G.S.D.K.K.^.).6X6X6X6XlXzXzX)._.!.].P.!.~.).(.~.).`.`.).).~.zXzXkXhX_._.bXhXkXkXhX_.!.!._.]._._.F.F.!.zXbX!.R.R.R.8X8XE.cX/.D.c.D.R.R.K.R.D.S.c.D.R.R.R.R./.'.8X8XC.i.u.P V c V J Q Q W ~ U 8.T.4X4XH.c.z.c.D.Y.Y.Y.Y.x.x.x.D.Y.Y.Y.Y.Y.Y.M.k.l.f.h.h.h.h.x.x.x.D.H.x.x.D.D.D.D.S.F.D.R.!.G.R.6X).R.F.!.0XqX0X)./.W.Y.x.h.k.j.h.D.E.4X^.K.E.K.^./.E.R.R.H.l.x.L.4X8X4XL.x.J.E.L.m.%X#.0 7 1 Z t.OXQ.H.eXW.4X4XL.x.M.H.M.7.Q.9X9XT.N.Q.Q.J.J.Y.4X9X9X=XT.Y.4X4X4XwXnXwX^.E.8X8X=XH.H.=X4X=XQ.R.J.Y.Q.Q.J.j.E.W.M.j.Z.;X9XuX9X=X=X-XOXa.O.A f H &.e.n.u.M.M.Y.M.j.8.w.q.q.j.q.q.w.q.q.j.M.N.j.M.m.f.m.J.J.H.m.N.M.j.7.9.l.x.g.f.9.<.j.N.M.M.N.M.k.k.k.M.M.M.M.M.k.j.k.N.N.M.j.M.m.N.r.O.B 0 v {.OXT.L.W.T.N.M.L.L.H.H.l.g.l.l.H.E./.E.R.R.R.L.R.E.K.L.H.l.<.g.d.f.Y.Y.J.Y.j.R.H.H.R.E.R.R.E./.4X6X/./.7X7X/.",
"D.z.K.0X4XE.R.E.K.7XE.D.E.xX4XD.H.R.E.H.K.E.^.R.6X^./.(.K.(.xX0XqX6XqXwXqXqXW.l.2.d.:.d.f.4.8.t.Q 1 2 e p [ |.m.d.S.D.z.l.z.x.x.c.H.H.D.l.S.F.R.!.!.!.!.!.F.F.F.3.!.cX4Xx.H.W.T.,XeXW.j.H.4X4X^.R.E.!.K.F.F.!.(.(.(.!.G.g.g.c.c.R.R.!./.6X0X6X(.(.).).(.).zXzX).).!.R.).zX`.~.!.P.~._.hXkX!.I.F.bXkX_.).zXzXkX(.`.zX).~.(.zXbXzX0X`.).!.).).R.0X/.H.D.R./.E.R.R.D.R.~./.W.~./.0X/.8X4XeX%XN.n.I A G G Z H ' @.! o.v.T.E.L.L.D.l.D.R.W.R.x.c.c.x.x.D.Y.Y.D.D.D.D.H.m.l.l.z.z.z.z.c.l.l.c.D.c.S.D.D.D.K.K.H.D.D.D.R.R.!.R.K.F.R.^./.0X8XR.l.7.h.M.7.j.x.H.H.K.R.^.4XR.^.qXxXqX0X4Xc.L.R.R./.0X4XD.z.L.J.J.2Xy.7 - 1 b O.n.T.k.8XE.Q.=XJ.L.L.H.R.L.4X4X=X5X9X=XY.9X9X-X=X=X=XQ.E.E.4XJ.l.H.4X8X4XW.x.Y.Y.m.M.=X=XJ.Q.Q.Q.T.M.j.M.Q.k.T.Q.-X;X&XQ.-X=XE.%X%XN.t.] N 0 } %.O.i.v.9XN.M.j.8.8.8.q.j.b.q.q.5.9.q.N.N.v.J.J.k.f.z.f.f.m.B.N.M.8.,.9.f.m.j.M.j.7.h.j.j.M.Y.M.z.j.h.j.j.j.j.k.M.j.j.j.w.1.k.N.m.N.t.#.B 7 k s.i.j.k.=XW.N.Y.H.W.R.d.d.c.d.D.D.H.R.R.H.R./.D.E.R.z.l.J.W.J.M.7.,.f.7.f.=XT.Y.H.H.R.R.R.R.E.7X/./././.E.^./.",
"L.R.J.L.L.m.m.J.H.E.W.W.E././.E.R.R.E.R.W.7X6X7XE.7X^.^.xXmXwX/.nX4XW.Q.W.4X4XR.Y.z.h.j.7.,.4.s.Q 7 7 l h A a.n.m.S.S.z.l.j.j.M.x.L.R.D.D.R.(.(.!.!.!.P.!.)._.F.G.R.6XR.E.W.c.R.L.W.4X4XcXDXcX/.K.K.K.L.K.^.7X6XlX7X/./.R.z.g.d.l.S.D.R.8XwXwX0X^.).zXzX).!.!.(.!.U.).zX!.P._.).zX].I._.hXhX_.!._.!.).kX).).`.`.bX`.R.(.vXzX(.0XxX6X^.!.!.^.).).D.R.^./.E.R.H.Y.U.0X/.S.R.R.D.R.R.K.Y.N.C.n.| ] K z z G K } @.] ] OXb.j.m.H.E.H.c.Y.R.H.c.l.c.c.Y.H.D.D.D.D.D.D.H.D.D.S.S.S.D.D.c.c.S.H.H.D.D.H.L.R.H.c.l.x.H.x.L.R.H.K.R.^.)./.E.Y.H.x.k.j.j.f.7.k.H.x.D.R.^.!.R.^././.4X0X0X0X^.R.R././.E./.0X7X6X4X&X1Xs.g 7 w c s.n.N.=XR.qXW.T.T.E.R.H.R.).).6XqX6XR.D.E.9XiX=X5XiXW.k.J.4X=XR.R.H.z.T.-XM.j.h.7.j.M.N.M.j.j.T.Z.w.j.n.N.b.&XC.w.C.W.wXE.x.H.J.J.q.+.O.| N w Z $.#.u.B.j.m.M.j.w.5.5.5.8.q.w.,.8.q.b.M.7.T.N.j.j.M.M.k.j.k.8.v.q.X.) 8.j.8.j.M.M.k.h.f.z.M.m.M.M.M.m.j.7.<.f.k.M.j.7.j.j.j.D.H.Y.q.+...B 0 0 %..X6.u.%X%XT.M.j.k.M.k.l.l.2.3.g.c.Y.R.Y.Y.Y.E.4XD.H.H.M.4XY.j.9.R ,.5.8.v.N.m.H.L.H.L.R.R.K.E./././.(.^./.6X",
"S.^.4XE.J.H.H.E.H.J.R.R.E.R.D.l.E.E.R.L.K.^.^.^.K.^.^.).6X/.^.qX8Xx.D./.W.D.R.4X4X4XW.Y.M.N.N.n.@.q 7 0 0 H y.e.f.f.z.L.E.Q.N.j.x.R.E.R.R.R.R.D.!.R.U.R.!.].F.G.R.8XwXE.E.R.L.7XqXxXqXqXnXDXcX6XR.R.K.K.^.7X6X(.^.zXxX6X6XqX4XL.2.1.2.h.Y.W.W.Q.8X8X^.R.`.zX~.3.R.G.R.(.!.R.].F.).!.]._.).(.(.(._.].~.).~.).`.`.).qX^.D.R.R.H.R.!.).xXxX0X(.R.K.^.R.E.4X/.H.H.E.Y.8XR.S.~.R.F.R.D.R.4XN.b.i.| ] z x K ' ( [ @.{ ] XXC.b.N.x.S.l.g.z.x.k.h.h.h.x.x.x.x.x.x.x.x.x.D.D.D.D.S.c.c.c.c.c.D.H.H.D.c.x.D.D.D.z.l.k.M.H.D.L.E.E././.^.K.L.M.k.j.j.j.7.7.j.k.k.g.l.H.E.E./.4X/.R.H.R.4XqX0X4X/.E.R.R.R.^.6X7XR.b.XX@.q q 7 y @.%.u.C.H.8X&XC.N.T.W././.6XvX6XR.K.R.4XwXnX9X&X=X5XY.R.5X4X8X9X5X=XQ.9X9Xm.7.7.j.j.b.j.7.5.j.q.5.5.q.q.q.n.u.A.k.Z.Y.9X4XQ.H.M.b.6.U S B h 7 V @. .X.6.) 9.9.,.) ) ) ) 5.9.5.R ) 5.j.b.8.M.j.w.j.k.M.k.j.j.b.q.6.6.5.) ) 5.q.b.M.M.M.x.D.H.H.J.Y.J.H.m.k.k.f.f.j.j.j.j.j.x.Y.Y.Y.q.+.] N 0 h Q [ ..i.OXN.j.7.7.z.k.g.d.l.l.l.l.l.g.2.l.Y.W.Y.Y.l.d.7.7.j.f.7.9.R R 6.B.N.N.M.Y.Y.J.J.R.E.R.R.E././.^.^.^./.",
"D.R.R.K.L.S.L.E.S.L.R.^./.^.^./.K.K.R.K.P./.).).!.!.~.).).!.!.0X/.0X0XK.S./.zX(.!.^.E.L.H.J.J.B.} q 7 7 q Q y.o.v.L.K.K.L.L.L.Y.L.R.R.L.R.E.E.H.Y.D.D.R.Y.l.l.l.D.).^.F.S.l.R.6XxX6X/.6XxXcXxX6X^.^.R.R.!.!.F.G.G.F.G.g.l.R.^.H.h.,.R E ) k.T.&XM.Z.k.7.h.H.Y.c.l.g.D.E.^./.).^.R.!.(.6X/.R.R./.F.F.~.).~.(.(.R.R./.^.W./.E.D.D.z.S.G.D.D.F.K.E.^.H.H./.^.L.H./.Y.E.D.l.R.R.G.D.L.J.J.8.b.n.| C k m ( ' J } %.#.| n.A.N.M.g.g.g.j.j.j.M.k.h.j.k.k.k.j.j.j.j.j.j.k.k.k.k.k.j.j.h.h.j.M.J.J.k.j.h.x.x.x.x.x.k.M.J.E.W.E.R.R.^.!.K.D.x.h.f.h.h.7.<.f.j.k.x.D.K.K.S.H.Q.4XW.Y.Y.W.4X9XqX4XY.M.M.J.L.K.H.M.i.}.} 8 1 3 9 F b C | 6.OXA.b.b.C.%X=X=X8X4XR.x.k.Y.9X9X9X9X-X&XY.Y.8XeXQ.=X=XW.T.W.9X-X7.j.M.Q.-X&XT.M.v.9.) E T 5.6.5.q.0.i.i.q.q.%XT.M.q.n.+XoX} v 8 1 ; h ' W U X.T ) _ ) ) _ ) +.X.X.) ) 5.5.8.q.9.q.j.v.b.b.M.b.8.,.v.6.6.i.u.X.X.q.6.8.j.M.N.J.M.k.z.M.M.M.j.j.j.M.M.j.j.k.M.j.j.M.H.x.M.9.+...C h 7 h C  .a.n.8.8.9.9.d.d.7.d.z.z.H.R.L.l.d.z.E.8XY.H.L.j.f.j.j.M.9X-Xb.9.9.q.8.) M.Y.Y.M.k.x.M.H.H.R.R.R.R.R.R.E.",
"F.D.l.g.F.F.D.L.K.R.^.^.D.l.D./.D.L.K.^.^.).).hX!.(.P.F.~.(.~.F.R.L.R./.).6X^.F.7X^.E.^.P.S.S.N.[ p 7 8 l J @. .v.J.E.K.S.S.K.^.E.E.K.L.R.E.E.Y.c.c.x.Y.M.k.j.x.K.6XR.K.G.G.6XxX).R.K./.0XqX0X0X/./.).^.!.!.F.G.G.[.G.K.!.F.G.l.7.5.,.) ) ,.5.5.w.w.j.w.1.1.z.W.D.Y./.4XW.R.E.W.R./.4X4XE.x.x.R.R.!.).`.^.^.^.R./.Y.Y.4XY.:.R ,.l.l.z.L.E.4X^.E.K.S.x.L.L.z.S.R.x.x.l.l.D.G.g.z.S.z.f.5.i.p.Y f v Z J J { &.s.%.O.t.u.v.j.f.j.m.Y.b.k.Z.N.w.w.k.k.j.j.j.k.k.k.j.j.j.j.j.j.j.j.j.j.j.M.N.N.M.j.j.M.x.x.H.M.k.k.Y.J.J.H.x.D.L.D.S.D.c.l.h.l.j.f.7.f.z.H.Y.E.E.K.c.x.Y.4XW.Y.Y.W.=X-X5XW.M.k.M.J.H.c.z.M.i.s.' 2 # 5 , i 4 8 j S O.O.0.u.n.N.N.Q.9X=X-X=X=X;X9X9X>X9X9X8X&X4XqX8XY.Q.Y.Y.T.-X8X&XM.Y.=X9X5XQ.M.M.b.9.8.5.4.b.OXN.q.i.i.6.5.8.N.B.u.u.y.}.@.b 4 1 > - q Q ' ] X.X.X.+.+.+.+.+.+.+.5.+.i.n.q.5.5.5.q.X.5.q.j.M.N.v.9.4.6.8.u.q.8.6.6.5.5.w.M.Q.Q.T.k.M.J.M.M.k.k.M.Y.W.Y.M.M.N.k.j.k.x.j.j.8.6.#.S h 0 k W @.#.^ T R 8.>.R ,.9.f.z.d.S.=X4XR.M.J.Q.T.j.f.N.j.j.M.j.C.rX&XN.q.q.b.u.6.n.C.T.N.k.k.k.M.Y.T.T.T.Y.Y.Y.Y.",
"c.S.l.l.F.K.L.K.F.F.D.D.c.h.z.H.H.L.R.E.^.R.K.P.!.!.G.G.!.(.!.F.R.L.L.E./.7X6X/.7X7X7X7XP.S.D.gX$.z 8 p l b W  .+.5.j.L.^.^.!.K.K.P.^././.E.S.l.l.H.Y.M.k.M.M.M.R.).F.K.F.F.zX6X/.!.E.6X0X7X^.^.R./.`.8X8X0XzXzX).(.).zXzX~.F.D.Y.C.N.q.,.) _ R 9.,.9.j.k.j.d.d.H.E././.E.R.E./.R.E.W.Q.J.j.j.M.R.Y.H.D.c.H.R.J.7.,.7.v.5.R 8.%XT.T.T.T.J.N.J.M.m.m.z.f.d.g.f.f.z.z.l.z.c.g.d.z.g.d.v.8.6.^ N f k Z ' } &.}.s.#.s.6.6.8.q.m.M.J.T.b.M.Z.N.j.h.j.j.j.j.j.k.b.b.k.j.j.j.j.j.j.j.j.j.k.M.N.J.J.M.M.M.z.z.M.M.z.j.M.k.J.Y.E.E.R.H.c.D.S.z.z.c.z.l.h.x.H.x.H.R.E.E.E.^.W.E.H.S.J.W.=XY.W.Q.J.M.J.T.J.L.S.m.r.@.J 8 > , , 5 i y z v B ] U | 6.u.v.N.-X-X5X5X-X-X9XuXuX9XeX8X8XwXwX8X/.W.D.c.Y.E.Y.Y.W.5XqXnX9XE.m.j.j.7.v.v.M.;X>XC.q.u.5.X.4.8.u.B.|.t.%.@.H 9 > > % 1 q ' $.O.6.6.5.5.6.5.+.+.5.9.9.q.C.b.8.6.8.8.8.9.8.q.8.q.q.9.R 9.8.8.8.4.4.) ) 4.4.9.j.T.T.J.k.E.Y.D.x.x.x.Y.x.Q.Q.Y.x.Y.Q.Y.k.M.j.b.u.t.@.V q 0 h A W W ~ ^ X.r.X.^ ^ 4.8.8.4.f.N.T.M.v.B.u.9.5.4.b.v.q.b.q.n.n.t.O.6.t.t.t.i.u.i.Z.Z.b.i.b.Z.Z.C.C.C.Z.N.n.b.",
",.h.x.Y.Y.H.L.E.K.H.M.Q.;X&XC.b.8.j.M.J.Y.L.L.L.R.K.L.E.^.D.D.4X5XMXMXE.m.E.7XL.z.J.E.L.m.J.=X X$.n 4 q u y Z @.U X.9.f.k.H.R.^.L.K.K.K.K.L.S.z.S.R.E.M.j.M.T.Y.H.F.G.K.K.^.qX/./.W./.W.R.x.d.d.1.x.Y.Y.R.^.8XzXxXzX).R.F.R.~.R.Q.;X>X;XC.b.w.8.) 9.8.7.M.T.J.d.c.L.D.L.4X6X6X7XK.L.H.M.j.j.j.M.k.M.J.N.v.M.M.j.C.N.b.u.q.i.u.X.6.u.u.6.T Y T 4.4.8.8.4.,.9.f.f.j.k.M.m.l.z.j.j.f.9.8.e.e.! f f k Q =.=.&.=.%.}.s.o.6.t.u.N.M.N.N.M.M.T.T.M.k.M.j.j.j.k.M.M.M.M.k.k.j.j.h.j.j.j.k.M.M.M.J.J.Y.Y.x.z.j.j.k.j.j.j.M.M.J.Y.Y.R.Y.L.D.S.S.c.c.z.l.j.z.k.x.M.L.Y.R.R.E.R.L.H.L.E.W.E.L.J.R.J.J.J.J.H.L.z.m.u. .H 8 - # , 5 a x b Z S ! Y D T q.n.N.N.N.J.T.-X9X;X&X%XQ.E.Y.E.6X4X/.0X/.K.c.D.H.z.x.4XcXmXFXmXcX4XE.R.M.M.N.;XtX&Xv.b.6.+.5.X.6.^ r.|.#.$.} F i s < # 1 7 Q y.e.u.u.u.q.q.6.5.5.8.8.q.v.v.X.X.q.v.v.9.q.q.q.8.9.4.,.R M.8.8.v.8.) R 6.9.9.8.v.J.=XQ.Y.E.H.x.c.x.x.x.z.z.x.x.x.H.E.T.M.M.u.p.s.%.} b p 1 1 w q c H [  . . .o.o.^ ^ O.O.6.6.o.^ ^ | | U X.| 0.t.O.O.| ..#.] I U I C C A I ` ] .. .|  ...O.O.O.O.+.| | _ ",
"Y _ 5.q.n.b.v.M.;X;X&XOX@Xa...Y Y T o.u.B.N.T.&X=X%XQ.&XT.8.f.%XN.v.%XrX%X^ E R 8.v.B.V.B.%X%Xa.' p 1 4 9 i M ( Z W | | T ) j.Y.D.F.F.S.S.S.L.K.K.J.L.m.k.m.J.Q.W.H.E.R.J.4X5X=XJ.Y.Q.T.j.9.) ) ) ,.1.1.7.j.Y.Y.Y.W.8X4XW.E.R.H.j.Q.uXSXSX9XN.5.7.M.J.m.H.=X4X^./.7X^.P.7X7XL.D.H.S.l.f.7.f.v.M.v.B.OXC.b.i.u.X.o.| |  .#.s...k f B ! ! P C N C U | o.X.X.X.6.u.u.v.m.v.f.j.j.9.8.5.o.| O.! j h S { } } @.} ..}.%.! o.o.o.p.u.u.m.H.L.J.J.H.H.H.z.z.k.m.J.L.Y.Y.H.H.x.x.l.l.l.l.l.x.D.x.x.H.H.H.z.j.j.f.j.k.j.f.j.j.f.7.f.z.m.x.z.S.S.z.l.l.j.j.f.f.j.k.M.m.M.M.x.S.S.D.K.E.E.L.H.m.H.H.M.m.k.m.z.g.m.v. .A 0 ; 2 2 2 l F J [ [ | Y Y T 6.i.b.N.N.N.%XrXuX%XN.N.M.Y.x.H././.E./././.R.H.E.W.=XnX0XxXxXnXxXqX5X5X4X=X=X5XrXT.v.N.6.+.6.| X.U X.o.@.W c 8 1 , 3 4 ; t W t.e.v.b.b.v.u.q.q.q.q.j.v.q.u.R ) u.u.q.X.) T ) 4.9.q.B.%X%XB.v.v.V.8.8.B.b.b.b.N.%X;X9XuXW.E.Y.H.L.L.H.M.j.z.k.x.M.J.M.v.u.o.#...Q G p a i > > 2 1 8 l l V V H H V V H H W A B c B B V V B B v V V h k h h h h y q 0 q y 0 0 y h h y h h k k v v k h h h ",
"` ` Y ] s.{.s.t.e.a.s.@.W Z h 0 j B P [ #.y.{.@X@X<X@Xn.u.O.X.o.o.! ^ ^ ^ ^ | U #. .| O.e.O.| ~ H p 4 4 9 i p z z z V A U | +.6.m.L.J.J.H.m.z.z.T.M.m.m.v.j.N.-X;XM.&XN.j.N.v.8.v.N.OXC.u.6.5.5.) X.X.) 5.v.N.C.T.N.T.;X&XN.J.;X;X;X%X%X%X&XC.b.v.v.v.N.N.m.j.z.J.0X6X^.7XJ.x.S.m.z.f.5.9.8.v.n.O. .| P N C P B B V J Q v h h 0 0 0 0 q h v v B W ]  . .! P ! O.e.r.u.6.9.r.r.^ ^ 6.t.| P A v V Z ' ' } &.} W { [ C ! I P ..O.6.8.m.M.M.m.m.m.j.k.m.m.M.J.T.T.T.J.J.J.M.M.k.j.f.7.j.k.j.j.z.z.f.j.k.j.f.j.m.m.j.j.m.M.M.J.J.J.m.k.x.M.k.j.f.j.j.j.j.8.9.9.8.v.N.J.L.z.f.f.m.J.J.v.f.j.v.j.8.8.V.N.8.8.X.P V q w 1 9 r G } } *.$... . ...o.o.u.|.OXn.N.OXn.5.6.B.N.%XN.M.-X5XH.m.j.J.M.j.T.;X9XtXuXuX5X7X4X5X5X5XC.%XC.u.u.r.6.6.#...O.U  .^  .P S f 0 p i 3 , > w 7 ~ y.O.e.u.q.u.q.0.0.6.8.8.8.6.u.| O.t.o.6.X.X.^ T ^ X.o.i.@X|. XB.5.X.6.e.O.6.6.6.6.6.B.OX;XM.M.M.v.v.j.j.j.v.j.v.B.N.q.8.6.#.Q Q G n e > , % O # 5 , > 3 e 2 1 2 2 9 9 e 2 2 1 1 9 8 7 1 1 1 8 - 7 3 - 4 > - 4 4 > # > > > , > > > > % - > > > > 1 1 > > - ",
"( G m m m b c c c g q q 9 4 > - 2 9 l n v v G Q } } Q H H Z v h h l l z l z V Z ' H A Q Q A V H b p 4 8 p a i < > 3 i y h Z } s.a.u.p.u.6.o.6.6.u.6.+.6.v.n.B.i.u.u.i.i.i.t.O.| o.] U ] ...... .|  . .O.#.a.{.{.e.e.e.u.u.r.B.OX<XOXi.t.t.t.t.6.6.e.i.OX:XOXn.N.%X%X;XrX-XB.8.v.8.4.R Y U ^ |  .S v h f h h h 0 y y y 9 9 u 8 1 > > > 1 8 p l h K } *.} H B B A P C T o.O.t.a.t.e.! P W Z h h m ' @.*.-.&.[ A v Z Z Z V Z W [ %.u.B.N.B.u.r.u.i.v.u.u.B.OX:XOXB.N.C.N.b.v.v.u.8.9.4.9.q.v.v.u.v.v.M.N.M.M.N.T.-X-X%X%X%X%X%XN.M.M.v.v.v.v.v.q.8.8.6.6.6.6.6.6.6.u.8.6.r.r.6.X.^ T T T T X.e.i.a.u.e. .P B l q 9 9 p F K / } -.}.&.' ' [ @.&.%.! !  . . .! U ! | o.a.a.a.|.|.u.B.u.B.n.a.s.|.@X<X@X@X Xu.i.p.i.s.t.t.#. .! ! I S Z Z H H H Z v z w l p 9 a a , # 1 q Z @.y.t.e.t.O.......o.O.e.e.$.%.&.@.W A I W W A S I W ' @.&.$.$. .P S W W A A S S P W W [ O.t.e.e.e.e.e.e.e.#.#.#.o.! P Y C b p 2 2 > # + + & . . $ 6 6 , $ , & + O + $ + @ @ @ @ @ @ @ @ O @ @ @ O @ @ O $ + + + + + + + + X X + + X X + $ + + + + . . + + ",
"s 3 < , > - - - - @ @ O @ O + $ + @ # : 2 2 2 e 2 2 9 2 9 9 2 1 4 4 3 4 4 4 4 8 1 8 9 q p x b l l q 8 p x x i < @ % % > > 4 y M Z B Z S V S A S S A ! @.y.#. .! ! ] ..%.s.@.W B N j h k v v V Z A H A Z A W W W A C C C C C P ! P C C B B S A A W W ] @.#. . ...|  .e.s.u.e.e.t.%.#.@.[ I v f t f 0 7 w 8 q q q 9 q 9 3 9 9 3 < < 3 3 3 i a M x p x F b l 0 0 f k N P ! P ~ O.#. . .W V v Z K K -..X.X.X&.[ J Z v k h h z Z ' @.@.#.#.#...#.%.y.#.#.#.y.a.{.s.t...O.O. . .....| |  .%.y.t.#...O.i.n.OXOXC.N.b.B.v.B.n.n.b.i.i.B.i.i.i.i.u.u.t.6.t.O.| |  ..... .@.! W W W W W ~ ! ~ S B B W &.}.-.} H z q 8 3 2 x L F L b V H Q ( K ( } } } K v y h h h h h h v H } } Q } [ / } $.$.} Q Q } -.}.[ [ ~ A C S Z V Z Z m v h h y 9 9 9 i a a a i 9 9 i 3 3 s < # # > p F ' [ [ ..@.[ { { J H A I H Z G G m x z z z x z z x M x M M b b x q 7 4 4 1 q 9 9 q y q y l V V v c l l h h l l l q w 7 7 7 ; : @ @ @ + + X   . X + * $ $ & & $ X X X + X X . . . . X + + + . + O . . . . . . . X X X o o o o o o o o o o   o o o o .       ",
"X X + X . . O O + O . . . . X $ $ O + O $ + @ @ O @ @ @ @ @ $ @ # # # % % % % % # > 4 > > 4 4 - 0 q l b G F p 3 > % % % % > > 4 4 > 1 4 4 9 i 8 y q 9 y l z z z l q 0 0 h l h 0 7 1 7 1 1 7 q x b b l r r r r q w q w t t t w w 1 1 1 1 1 4 9 8 9 4 4 9 q w w q w 0 h l v Z K K K Z z q 8 8 u p q r p p p x x x x M M a a a a a i a i i i i i i 8 q u p u q q q f f f j j C A C j C C f h Z } @.&.-..X}.&.@.} ' v h w 1 7 u z b m m m b m G K K G G G K K K K K m m m b m m Z m Z G K G m z m J  .O.t.p.a.p.u.t.t.o.^  .#.e...! P ~ |  . . .....[ P B j V A S Z x p 9 7 7 7 q p u p x l p p x x a i 3 3 5 5 3 3 i a L b z y f q 3 > < 3 < > > @ > > > > > > 4 3 > 3 3 1 2 1 2 e ; 2 9 9 9 3 2 > q q 8 4 1 > 1 > > 4 , > # # # # + + * % % & % & , % + % & + + & 5 a M x l y h h z p p i 9 8 8 8 > > > > % % % % % % % % % % # + + @ + + + + + * + + + + + @ @ # > : : # # # # # @ @ @ @ O O @ @ O O O O . . . X . X + * $ + + $ + . . . . . . . o + X X X X + + + $ + + $ $ + $ + + X . . . .   X . . . X X .         . X $ $ o ",
"    X     . .   . . . X X . . . + + O + + O O O O @ @ O O . O + @ @ @ # % % % # % % > < 3 4 4 8 l c V H Q Q Z l p s < > , , 4 4 > % # # @ # # @ > # > > > # # # - - - - 1 1 - @ > > > > > > 3 a p p e 9 2 2 2 2 2 2 ; - - ; ; - > > > > % % % % % # # # # # # > @ # # # > 4 9 9 4 4 4 4 > < 3 i p l n x x x b L F F F M x x x x x L x p i 9 8 4 8 8 9 q q u p y c f f f j N j f k j j B Z Q *..X.X.X.X-.&.=.} ' K v q 1 - > 1 > > > - - > > 4 4 > > > > 4 4 4 4 > > > > > 4 < < 3 3 3 4 > > 3 x h j j B A P W ~ A c f f B V h 0 0 f j c c v V Z v f 7 ; 7 w 8 1 < , > # # # % > > , , > # # > > > % % , , , % # 3 a L G F z h 9 < % % % @ # % % # + + + + + + % + + @ O O @ @ # # # @ O @ $ $ @ # # # # # # # % # % % # + + + + + * * + + + + * * + + % # + + , < s i i 9 9 9 8 1 > , > > - - - # + + + + + + + + + + + + + + + * X X o X     X X X X X + + + + . . . . . . . . . . . . X . . . + O O O O + + + % + # % , < , : & & $ $ $ $ $ $ & $ % + + # % % @ # @ @ : # @ # @ @ # # , , < , & & & & & & & & , & & & & & $ $ ",
". X . .   .         . + + O O @ O O + + + # # # O @ @ @ @ + $ & % > > , < < , > 3 3 9 i p u y z H W ~ ^ #.%.$.[ J G a i i i y y 9 3 9 4 # > > # % % % , % # @ @ @ # # # # # @ @ # @ # # % # > < < , : : : : , , : , : @ # : : - # % , , % % % % % % % % % % % % % % + + # % > # # > < 3 3 3 3 i x V G G V V G H H K J K J K J J K J K G b b v z z z b b b b b V V A A S C C C A A P W [ ..&.}.oX#XoXoX.X.X.Xs.*.[ K y 1 1 > - # % # @ @ # # # @ # # # # # # # % % # # + # # % % # # % , , % % > 1 7 7 7 7 0 q q t 7 7 1 ; ; 1 1 - ; 1 1 ; - 1 1 7 1 - - # # @ @ @ # # @ @ @ @ # O @ @ @ @ - - # > # # # @ # > 9 M F K K K Z Z Z 9 > > > @ # # O # # + + # # # + & $ # # # : # # # @ O O O $ $ @ @ @ + # # # # % # # # # # + # % > > > % # # % % > > < , > > < 3 a a p p y q 7 1 - - > - # # - - # @ @ @ O O O O @ @ @ + + + + + X     . .       . . + + @ @ @ O + + + . . . . . + + + + + X X . O O @ @ @ # > > > > 1 4 9 r r 9 9 2 2 2 2 > > 2 > 1 2 3 9 q p l l n l r z l q p p p u y p p p p q q u p i 8 8 q 9 q q q 8 3 3 3 ",
"O @ @ . . X X . . X + $ # # > 4 @ # - - # - > > # @ @ @ @ + % % - > 2 3 i i i i a x x l z Z J J } ..o.O.u. X@X|.%.} Q G m v v v h h l q 1 7 9 3 9 , % # $ $ & & $ + O . . . @ & + O O + $ + O O @ @ O O + + + $ $ $ + O @ & , # > > < < > % % % % % % % % % % % & % * % % % % % > > - > 3 i F K H Q / [ [ [ ..$.$.$.$.@.@.@.%.@.[ ..[ / Q ~ ~ W W Q Q Q W W Q ' ' } } [ @.....%.O.y.s.s..X$X1X+X$X#X#X$X1X$X$X#X@.J z 9 1 > - @ # # @ @ # # @ @ # # # # # # # # % @ @ @ # @ @ @ # @ @ @ # @ @ @ # # - - - - - - @ - - - - # > , # # # # # @ - - - - > # # @ + + @ @ # # > , 2 > - - 1 1 2 9 1 - - - ; 1 4 7 q z Z J ' [ [ ' ] ] J b l q 7 8 8 4 > > > > < < < , > # > 2 1 > - - - 1 2 9 9 e < > 4 4 > > 4 4 > 4 3 4 4 3 3 4 3 8 q q y q 8 8 8 9 8 9 y u 8 y b M ( J J Q W S k 0 h h q q 8 8 8 8 8 7 1 1 1 1 4 4 > 4 8 4 > - - # O @ + O O O @ $ # # > - - - - @ # @ @ @ @ @ @ # % % @ @ @ + % % # : : : ; ; 1 7 7 0 h l l c B V c n c c l l z z G G J Q Q ' } @.$.%.$.$.%.&.%.&.&.&.&.%.@...} [ @.@.@.@.} W W ' H H H H H A A Z ",
"> 3 3 @ . . . . . + < a x x b Z x x p q q p p q 9 1 > > > > , < 8 q l x x b F F b b Z J ' @.}.oX.X{.{.B.gXsXuXsXOX|.}.s.&.$.#. .^ ! ~ P B Z H b l p 9 3 < # @ @ O + $ & & $ + . $ + + $ $ $ + O $ @ @ $ & $ + $ + + + $ & & , < e i i e 9 3 3 3 i i i i e e e 3 < & & < 3 > 4 9 9 8 9 r x F K Q ..$.%.t.y.{.{.|.oXoXoX|.{.{.a.t.a.a.t.e.#.e.#.o.#.#.#.$.@.@.$.$.}.}.&.&..X#XoX#X1X1X1X1XZXAXAX3XZXZXdXyX3X1X1X$X.X&.' Z x p 9 9 3 2 1 > > > - > 4 1 > 1 4 4 1 > > : > 2 2 2 > 2 i 3 - # # # - : O O @ @ @ @ @ @ # @ @ + & & * + & $ % # % , , < # # % $ $ + + $ < r x F K / K G H H H G G H Q Q H G H Q Q W W ~  .#.s.XXXXXXa.s.y.$.~ W V V H V V b v b G G F b G b K Q G V H V V V v c c b V Z G v b V H K J J ' Q J Q ' ' Q [  .#.#.#. .! ' ' W S A A B A @.&... .e.@X*X@X|.|.}.&.*.*.*.$.$.$.$.$.......$.$.&.@.&.&.@.Q H J J / / K e : @ 1 e F K G V V V V v w 7 7 1 1 4 7 8 q 8 7 8 9 p p p L L L G H H H C W ' .... .#.#.#.e.e.#.$.#.$.%.y.{.oX#X#X+X+X<X<X*X*X:X@X2X2X2X2X1X3XCXVXVXVXVXZX3X2X2X3X3X1X+X*X1X@XXXXXXXa.t.o.",
"Q } ( a # . O + @ 3 K -..X#X#X$X$XoX}.&.&.&.*.} ] A B Z K K ( ( *.&.-.-.*.*.*.*.-.[ [ s.a.y.XXdXdXaXsX;XuXLXLXBXKXKXKXKXKXKXZXZXKXdXaX<X@X<X+X}.&.Q c 7 ; - 2 5 < > - - : - - - , - > 2 2 > 1 2 > - - > 2 , > , , > , 3 3 3 9 p l c l c z b b b b b z z l l l l z p p x z h l V v c c B W [ &.s.oX+X*X<X2XaXyXdXyXyXyX3X2X3X2X*X@X@X|.|.|.OXXX|.XXXXXXoXoXoXoXoXoX3X$X+X$X1XyXPXKX3X*XyXZXZX2X2X3XyXZXZXyXdXAXZXfX$X.X-.*.} } } } ' K K H H H G K G G K K K K G G G G / ' / K K G G b b z l h l r p a p i p p x l x n a 5 < & = 6 = & , < < , , < , , & & & , < q V Q *.}.}.&.[ ..}.$X3X3X3X1X#X|.{.{.|.#X<X3XZXyXyXyXyXyXyXVXVXyXaXdXdX3X<X#XoXoX.X.X.XoXoX.X}.{.}.#X$X{.y..X{.oX#X1X$X$X$X#X.X$.....&..X#X#X#X<X@XoX#X3X3X<X<XyXpXdXyX3X2X<X<X<Xp.e.e.| | a.+Xo.X.B.sXpXrX2XyX3X1X+X+X1X3X3X2X<X<X<X<X<X<XaXdXfXdXfX+X{.a.|.oX$X$X-.b ; 7 V } {..X.X{.{.|.|.a...[ ! W A A A W ' ' ' } @.&.&.&.-.-.}.#X$X1X#XoX1X1X<X<X3XdX<X*X X X X|.|.OX@X<X2XyXZXZXKXKXKXKXPXPXKXpXKXKXSXSXiXSXKXSXiX9X9X9X>X-X;X9XrX;X&X:XC.v.q.b.%X&XC.v.",
"B.u.@.G 5 $ + + 2 w }.AXyX;Xb.C.*XsXaXdXyXaXyXdX*X@XOXOXOX|.i.t.a.i.i.i.a.oXoXs. .U Y n.2X>XrX;X-XuXuXuXFX5XE.FXwXMXGXMXSXKXSX9XuX9X5XMXSXMXKXKXKXyX+X .k f b V W W W W W ~ ~ W W P A A A A A B B H V B W A B S S W ....[  .#.#.O.O.t.y.%.t.a.a.t.{.s.t.a.i.e.e.e.#.#.t.a.a.i.a.OXt.@X2X@X*X1X2X2X2XyXKXKXZXKXPXKXKXKXKXZXZXyX*XyX1X3X3X2XyX2X1X3X+X1X$X#X#X1X3X3X2X3XyXyXyXZXPX1Xu.6.OX>X;X;X2XZXyXyXyX3X2X2XyX1X1X1X+XXX|.{..X#XoX}.&.y..X#X#X#X$X#X{.}.&.[ W [ t.{.oX#XoX|.a.a.a.a.u.n.:X*XOXOX<X3X3X1X1X1X+X@X+XoX&.l 9 < 5 & 5 5 < 9 i 9 8 3 4 4 3 3 2 8 l j W  . .#.@X@Xu.u.r.n.:X*X;X2XsX<X:X:XOX XOX*XyX>X>X,XZ.q.b.>XKXZXZX*XOX2XyX1Xs.t.t.#.#.#.#...| t.%.oX<Xs.o.p.@XrX:X2X@Xn.|.o.^ Y D N | n.@X2X:X2X:X%XOX%X;XrXaXKXpX;X:X;XrXrXrX;Xn.B.B.v.N.%XC.C.N.%X;X9X;X&X&X&XrXVX2X>XpXpX%X;X:X:X:X%XOX%X2X*XyXyX:XOXOX@X@X#X}.J 9 1 8 ..t. XB.B.OX:X;XuXtX;X;X;XOXn.u.0.t.u.u.A.:X;X>X2X2X2XKXZXrXKXKX2X;XrX;XyXyXOXu.B.N.N.=X;X%X%X;X9X9XtX;X&XuXiXSXPXKXLXKXKXSXSXSXiXtX9X>XiX9Xk.Z.9X-X9XT.&X;XQ.T.%Xn.q.4.q.&X9X;X&X&X",
"x.j.O.J e $ $ # > v +XVX9XW.R.4X=X9XMXMXFXLXFXtXuX5X;X;X>X;X;X&XB.C.;X;XOXOXn.O.D E T %XpXiX9X=XE.7X7XE.J.z.z.qXnXcXcXnXHXFX7Xl.L.J.W.qXnXmXFXLXMXuXZXyXt.P ] y.aXpXdXpXrXrXpXZXdXpXpXpXyXyX2X2X<X3X<X1XZXZX*X@X@X2XyXyXyX2X;X*XpXaXKXZXyXaXVXpXtXKXKXKXPXKXtXtXuXuXMXKXKXKXKXKXtXpXPXPXtX9XiXVX;XpXPXPXKXKXKXKXpXKXPXKXKXPXPXPX3X3XZXZX2X3XZXKX3X3XCX3XfXAXAXAXZXZXyX1Xn.i.;XZX>Xv.4.q.C.&X;XrX%XpXPXPXKXyX:Xn.OXOXOXOXN.N.N.n.OXa.6.O.6.n.XXn.i.XXi.6. .U N k N Y o.i. X:X:X%X%X>XtXiXuXiXiXiX9XMXKXKXKXKXPXKXKXPXKXdX$.l 4 > 6 s i e u y q h y x z w w l z j S ! O.e.n.%X&X%X&XJ.%X-X%X%X%X%X;X%XN.B.v.v.b.N.C.Z.b.w.6.i.C.rXyXpXOX8.9.6.v.u.6.6.6.X.T U X.t.t.U U T Y Y 4.q.%Xv.N.%XOXC.u.6._ +._ 6.v.Z.9XtX9XiXiX5X5X9X9X-X%X%XT.N.N.T.N.v.5.5.M.-X-X;X;XT.&XuXpX9X>XuXtXrX&XC.T.;X%XQ.;X9X%X&X;X-XT.b.q.q.q.C.&XC.n.&XtXZX+X@.K y 4 1 ] C.J.L.J.=X-X4X7X6XiX9X9X=XQ.T.-X>X>X;X9XuX9X9X5X=X4XMXnXuXMX5X=X9XT.v.v.8.R R 8.N.9X=XY.Y.Q.9XeXeX&XT.M.T.Y.Y.9XeX9XiXMX9X8X;X&XT.W.Q.9X-XM.T.eX-XE.H.E.8X&X-X;XT.T.N.N.C.Z.M.J.=X",
"x.j.e.Q e $ $ % 4 Z XX&XT.4XwXnXnX6XE.J.4XwXiXuXuX5X-X=X=XT.T.T.-X%XC.u.5.6.i.u.u.u.q.T.5X5X8X7XE.J.E.7X6XW.K.R.K.R.E./.4X/.R.H.7X4X4XqX6X7X7XqXLXMXKXKX+X#.y.1XyXpXpXKXKXKXSXtXSXKXKXPXPXKXKXKXKXPXKXKXPXKXZXKXKXZXVXpXtXrXrXtXuXrXiXtX;X;X9X9XuXuX9XuXiX9X9XuXuXMXFXSXuX-X=X=XQ.Q.VXSXeXVXVXiX&X>XaXrX&X>XiXtX>XtXyX2X2XKXPXKXPXZXVX3XtXVXVXVXZXAXAXfXAXUXUXAX*X>X>XOXq.X.q.OX;XN.4.) b.C.N.%XVXKXKXVXrX2X>X>X;X;X&X%XN.b.v.8.X.T E Y 4.b.C.N.i.N.N.u.6.O.| U 6.v.N.%X:X;X;X-X-X-X4XuXiX9X4X=X=X-X5XtXVXSXKXLX9XiXuXyX}.f q i < 5 a x V Z H ' ' A Z Q *.&.&.#.y.u.n.XXN.v.b.N.N.v.M.N.N.T.&X-X;X%XJ.N.N.N.C.T.T.C.b.w.q.0.q.q.b.%X%X;XrX;X%XB.6.X.| X.O.| | | U U T T T +.B.&XOXv.8.C.C.u.i.6.T 0.i.OX%XC.&X%X&X9X5XM.M.5X9X=XJ.T.M.j.f.j.m.v.j.v.T.;X;X;X;X%X;X9X9X;X;XuX>XC.;Xb.b.N.j.5.v.Q.T.%XT.N.v.j.q.q.8.q.q.q.b.&X,X@Xo.A v y 4 1 ] n.J.J.Q.=X=XW.E.E.E.4XwXMXiX9X9X5XY.T.=X5X4X8XwXqXnXnX7X5XqXE.m.E.H.j.f.9.:.9.M.%XJ.W.qXiX9XY.k.j.M.j.h.J.Y.Y.Q.k.j.J.Y.k.j.j.k.j.j.f.j.h.<.7.k.7.x.d.f.j.j.N.&X&XM.b.k.j.7.1.7.f.",
"L.M.s.' e @ $ , 1 W XX9XwXFXmXcXxXE.K.qXnX0X7X6XFXMXnX8XQ.M.k.m.Q.M.8.R R 9.OX;Xq.N.N.-X5X7X7XK.J.S.^.cXnXwX/.S.z.l.l.c.D.D.R.0X8X6X6X0XlX6X6XxXmXMXPXPX2Xt.#.n.;X-X=X5XuXiX9X-XuXuXMXMXGXMXGXFXSXPXPXSXSXiXSXKXKXSXuX9X9X9XeXVX8X9X9X9X=X=X5X9XiX5X=X4X4X4X4XwXnXmXHXHXnX9X4X5XY.M.Q.Q.-XSXiX-XiX%XC.;X>X9XuXtXtX;XC.b.B.*XtX:XOXOXVXZXCXVXVXZXZX3Xs.y.#XfX#Xe.i.v.b.N.b.q.9.9.8.;X>XN.v.8.v.uXKX9X&XuXpX;X&X9XpXrX5X&XJ.v.8.5.R 4.q.N.%XT.j.,.q.N.N.v.i.u.u.n.N.%X%X;X5X5X5X4X5XE.J.=X7XW.K.K.H.z.m.N.T.T.W.4X8X9XuXpX#Xf 9 i 9 r G } $.%.{.oX#X}.{.$X3X#X|.|.n.n.n.OXC.N.N.=XN.m.m.N.M.T.Q.T.%XJ.J.J.J.T.%X%XC.C.Z.n.n.b.q.q.b.%XC.;XtX;X%XN.4.u.OXOXu.X.+.u.+.6.6.6.X.6.b.C.%XN.q.N.b.6.b.q.0.b.b.C.C.T.-X%XJ.T.H.f.k.5X9X5XY.M.j.7.7.7.j.m.;X-X&X%X%X-X=XT.J.M.M.T.%XN.q.9.T ) 9.,.R 8.M.M.T.T.T.v.w.j.v.q.v.v.q.q.i.N.q.X.N B m u 4 7 ] u.J.E.4X4X=XR.E.^.7X6X8X6X6X4X4X5X=XE.W.7XW.7X0X6XnX5X^.7X0XE.L.E.E.J.S.g.f.J.4X4X4X;X8X5XY.j.h.k.z.k.k.J.M.j.k.1.d.d.7.,.,.<.f.j.z.f.d.7.1.f.h.1.l.2.1.7.7.h.k.N.,.7.h.j.h.h.7.1.",
"R.N.s.Q 2 @ $ , 8 [ OX9X0X6XxXmX6X!.!.vXDXzX6XcXDXFXHXFX8XR.R.R.z.j.m.M.M.T.-X&XT.;X9XwXwX8X6XE./.^.xXcX/./.6X/.!.D.S.R./.^.R.R.0X).).6XzXxXvXmX6XnXKXKXC.U U n.-X5X5X7X=X7XnXFXFXFXDXmXnXcXDXFXHXHXHXHXHXHXDXDXFXDXGXGXGXGXGXcXcXcXnXnX0XwXnXDXnX8XwXmXmX0X0X0XmXmXmXmXcXqX6X/.W.5XiX4XT.8X8X-XeXC.T.9XiXiXuX9XSX9X-X%XC.C.OXOX;XN.%X;XiXKXKXVXZX1XY C | O.#.^ B.v.q.v.v.j.8.9.N.;X&X%XtXuXQ.T.9XJ.v.Q.4XT.M.T.5X-XQ.J.M.m.k.j.T.M.j.8.7.j.M.J.m.J.M.q.q.q.u.N.N.Y.=X-X5X5X4X4X4X7X0X6X!.S.F.6X7XJ.M.J.T.J.Y.W.4X7X9XKXyXC 7 1 8 0 H &.a.|.@X:XOX2XyX3X<X*X%XN.N.C.OXC.N.N.T.Q.T.N.Y.W.W.-X;XT.E.=X=X=XT.J.T.T.&X%XC.b.q.8.5.9.8.J.N.T.N.8.b.%X>X%XC.OX:XOXn.v.C.N.q.6.v.N.N.N.B.C.N.C.v.6.B.8.q.C.OX&X&X&X9X-X=XE.Y.E.4X9X9X=XQ.m.j.M.M.j.j.M.=X-X=X%X;X5X=XJ.j.m.T.T.v.9.5.8.R 9.q.9.9.M.Q.N.N.T.Q.N.b.v.8.4.8.b.Z.b.6.5.5.X.P Q ( a 4 7  .i.T.W.^.E.E.E./.6X0XzXxX6X6X4X4X/.^.K.H.D.S.G.K.K.^./.7X/.^.^.7XcXxX6XK.z.K.4XqX6XnXW.H.H.R.E.E.W.R.=XW.Y.d.,.z.x.H.f.d.d.d.d.h.M.H.z.l.j.z.H.H.z.l.c.H.Y.L.z.1.1.7.k.T.Y.Y.E.=X=X",
"H.m.e.H 4 O # 2 z @.N.5XwX6XxXvXlXzXzX6X6XzXzXxX0XxXDXHXnXqX0XcX4XQ.=XQ.M.M.J.M.uXMXiXnXcXqXcX6X6X).zXxX).0XcX0XR.R.R./.0X).)./.cXqX0X6XzXzXzX6X7XL.M.N.4.N D OXJ.^.6X6X6X6XwXcXmXxXzXzXzX6XxXJXvXJXJXJXvXJXHXHXHXHXFXDXJXJXcXbX0X0XcXcXzXxXmXmXvX0XzXvXxXzXzXzXHXHXHXmXvXcX0X/.6XnXFXqXQ.Y.k.k.N.C.Q.Q.Q.5X9X=X9X-X9XtX:XN.N.OX%X%X9X&XM.T.tXPXCX1XY N P U a.:Xv.v.b.v.j.7.7.7.7.-XiX9XQ.m.k.Q.T.J.m.d.d.z.H.J.J.H.M.m.k.m.M.M.f.f.j.m.m.m.m.M.J.T.M.j.8.8.j.N.=XW.4X9XwXwXqXwXqX6X0X0X).K.!.).qX/.Y.J.Y.J.Y.R.K.L.J.;X1XI 7 7 7 f W y.i.N.;X-X;X%XT.;XrX5X-XJ.%X-X-XN.M.M.J.M.J.J.T.-X;X9X9XQ.=X5X9X5X=X=X=X=X;XT.b.8.4.X.5.8.,.v.M.T.%XN.T.T.b.%X;X;XN.v.v.N.C.-X;X;X9X9X;X9XN.&X;X&Xv.4.9.R q.&XtXpXuX;X9X5X9XQ.J.4X9X8X5X5X9XY.M.J.T.J.T.=X=X5X=XT.;X9X-X=XM.Q.Q.v.w.v.b.q.%XC.T.N.m.N.Q.T.T.T.C.M.v.v.q.q.q.b.b.q.5.6.0.0.t.} } F u - ! OXY.E.R.K.R.^.6X0X).zXxXzX0X0X/.K.D.l.l.l.g.S.K.K.L.^.^.K.K.7X6X6X6X6X^.!.6XxX6X^.E.R.E.4X4X4XE.E.4XW.L.L.D.H.E.D.H.l.l.H.L.D.D.L.H.D.c.c.D.H.H.D.R.^.E.E.E.z.<.1.z.W.iXnX9X4XqXnX",
"c.j.6.A 1 @ # 4 v s.;XFXIXHXmXlXlXvXHXNXbXxX0X(.qXxXDXHXHXDXDXGXGXuX5XJ.7.7.m.J.k.T.Q.8XqX7X7X^.R.K.!.).0XzX`.F.G.U.~.(.~.~.0XJX).`.8X0XzX0X6X6XS.f.9.u.6.N N 0.Y.E.^.qXnXcX6X!.).~.~.).kXhXzXbXvXJXJXbX_.`.JXHXHXIXHXJXbXcXbX0X/./.cXDXHXHXHXHXHXvXDXJXvXmXHXJXbXbXbXbXmXHXDXnXHXHXFX0X4XQ.w.1.j.M.Q.T.J.=X9X9X=XQ.5X9X&XN.N.N.8.9.M.T.-XiX9X>X+X$XI k D Y p.%Xj.M.J.M.j.f.7.f.f.M.T.Y.M.j.f.f.j.m.m.j.f.z.m.f.j.k.k.j.j.j.m.M.=XT.J.M.M.m.m.M.j.m.f.9.7.5.8.M.m.S.R.8XcXcXcXcXcX8X(.).zXzX`.).(.R.H.z.c.Y.R.R.0X!.J.Y.OX#.7 0 k S t.OXB.T.9X9XKX=XJ.9XnX5XJ.J.J.Y.Y.J.J.Q.W.Q.W.T.W.W.T.W.T.j.Y.W.4X4X=X=XQ.T.j.8.9.4.4.8.b.C.N.Q.M.N.=XT.M.j.j.M.N.C.C.T.M.8.T.uXSXMXuXT.M.-X;X&X9X%Xq.4.T ) &XtX9X5X=X=XuXwX4XL.H.E.7X4X5X9X5X=XY.H.J.T.=X5X5X9X4XJ.R.Q.Q.4XQ.Y.j.7.j.T.N.8.b.w.j.b.M.J.=X&XT.M.j.w.w.j.b.N.N.b.q.6.q.q.q.+.#.[ ( M 4 - ] OXJ.E.E.K.E./.6X).zXzX).K.K.^.6X6X/.!.^.!.K.K.!.K.E.L.S.S.K././.L.S.^.^.(.xX6XP.K.^.4X0XR.c.c.R.4XR.H.l.H.E./.4Xc.z.L.K.E.E./.7X^././.E.R.E.E.E.4XwXxX7XE.E.H.c.R.E.4XwXnXwX0X0X8X",
"c.f.6.A 7 @ # 1 Z oX;X5X6X^.zXbXxXzX0X).(.!.(.0XcXqXcXcXDXcX8X/.wX9XwX5XM.k.T.Q.9X=XM.H.x.l.K.E.!.).0X).).).~.R.R.!.!.~.`.`.`.~.0XbXcXcXqX/.R.L.H.T.v.4.E f N i.-X4X4X6X8X0X0XzX).~.~.zXbXkXhXkXNXbXbXkX).kXzX).bXHXLXDXbXbX).D.l.S.(.cXDXHXHXvXcXxXJXHXJXHXHXbXvXNXNXvXmXHXDXcXwX0X8XW.-X9XY.Q.7.7.M.8X8X4X4X9XnX5X-X-X-X;X=Xb.T.w.h.f.H.5X9X;X+X3XI k D D ^ R =XQ.Y.M.k.j.z.j.z.j.M.Y.E.Y.J.j.m.7.9.7.j.j.f.8.5.8.f.j.f.f.j.M.j.f.j.M.N.M.j.j.f.j.7.9.7.7.8.M.Y.R.W.qXnXwX0X8XE.R.H.F.R.R.!.(.!.!.H.x.H./.8X).~.F.K.Y.&X@Xf h B W {.OX9.f.Y.L.L.W.qXwXqX6X6XqX4X=XE.Y.Y.L.J.J.M.k.M.H.Y.&X-XY.W.4X4X5X5X-XQ.N.m.j.8.5.8.8.8.8.v.-X;X9X9XT.M.f.v.=X5XT.M.T.;X9XQ.5X5X5X5XT.M.&X;Xv.T.N.q.q.8.C.&X9X;X;X5X4X4XH.K.K.W.4X8X4X5X4X=XuXMX9X5XiXiX9XL.9X4XJ.H.H.x.J.J.j.f.j.v.j.j.j.v.j.v.M.N.Q.=XN.j.8.5.w.w.8.5.q.v.b.b.u.6.5.5.+.P W K a 4 7 ..OXJ.E.E.E.^.6X).(.).6X).!.!././.E.F.F.K.!.K.R.!.K.D.x.K.K.S.L.E.E.K.7X7X7XxX6X).xX0X8X7XD.l.S.R.E./.6X4X/.H.R.wX0XK.6XxX^.^.qXcX6X/.6X/./.8X0XxXDXmXFXcXqXcX6X7XcXFXwX/.4X0XwXwXwX",
"l.M.6.W q @ - 4 Q a.b.W.).bXlX!.!.!.).zXcXcXqXqXDX8XR.8XcXwX/.R.Q.T.T.&X9XuXiXuXeX8X&XW.Y.L.R.4X0XzX`.(.~.(.(.!.~.F.G.R.`.`.`.`.'.0XqXcX8XQ.x.j.T.9.4.0.Y f C t.&XE.4X8XwXDXcXvXvX`._.kXkX_._.kXzXzXzXlXlXlXzXzXmXmXmXmXHXDXxX^./.DXHXDXvXHXHXcXvXvXDXHXHXHXDXzXzX).xXHXHXcX/.^.W.Y.Y.Y.x.Z.Z.w.E E ,.z.4X4XW.W.wX9XW.H.k.m.M.T.&X;X4XR.K.R.=XOX@X3X@.f N | 6.v.9X9X4X4X4XQ.L.k.H.H.W.8XW.M.x.J.8.j.M.C.N.v.j.8.7.j.w.7.7.8.j.8.j.,.,.8.w.9.9.w.5.8.8.5.9.,.8.j.k.W.9XiXGXcX8X0XR.H.D.U.F.R.R./.!.!.D.R.0XwX8X).(.(.!.5X:Xs.k h h [ .Xn.8.j.Y./.E.4X4XW.R.E.^.7XW.=XQ.H.m.L.T.Y.Y.N.M.M.Q.8X8X-X4XW.W.W.Q.Y.Y.=XT.:.,.N.B.4.R E 8.j.m.T.9X&XM.M.Q.-X&XJ.Y.9X9X5X9XT.5X9XJ.T.5X-XM.j.8.8.q.j.M.;X&XuX5XJ.W.wX4XH.L.J.H.R.E.j.k.J.5X8XeXeXiXMX9X4XW.E.4X8XR.R.4XW.H.M.m.M.b.j.5.9.8.j.M.N.T.Q.Y.J.M.w.8.v.j.9.9.q.b.8.q.q.) 5.u.6...Q ( M > 1 ] %XY.K.K.R.R.R.~.).0X6X^.R.E././.^.K.l.^./.R.E.K.l.R.L.H.H.x.x.c.c.K.l.^.L.K.6XD.^.xX4XR.H.K.R.E.R.^.K./.6XR.7XmXcXmXHXmX6X7X0XzX/.0X0X0XzXcXDXDXvXcXmXDXmXvXxX6XE.R.D.D.c././.6X7X",
"l.H.u.[ p - 1 7 ] XXT.W.R.0XbXvX0X0XqXcXcX0X/./.^.8XwXwXR.h.c.x.j.j.j.j.k.N.Q.&XQ.9XW.7.1.Y.8XW.4X(.~.~.!.!.).0X~.~.).`.zX`.`.`.'.'.8X'.Y.h.1.7.9.6.i.t.N w B t.&XW.8X8X/./.0XDXDXvX0X_.).bXbXbXvXNXNXbX).(.zXmXHXmXmXmXcX6XwXDXcXcXcXDXHXHXDXcXcXcXDXHXDXvXDXHXDXvXcXqX(.R.Y.R.Q.j.h.w.w.k.k.) 1.-XqXE.x.H.H.H.L.H.7.R E <.m.M.C.Y.H.D.S.z.M.N.i.%.B k W O.i.;XQ.E.R.W.4X4X4XW.x.M.Y.W.R.x.l.j.v.v.b.v.8.4.9.w.9.5.8.9.4.9.9.9.9.,.,.9.8.8.8.8.8.8.8.8.5.5.8.j.N.Y.Q.8XGXnX4XW.Y.H.D.U.Y.D.Y.R.F.!.!./.wX8X!.!.~.(.^.5X:Xa.j h V ] %.u.b.T.4XwXcX0X4X4XW.R.E.7XL.H.m.j.f.z.k.M.T.Q.T.T.Y.T.W.&X-XW.T.J.k.j.j.j.f.f.M.M.4.4.8.v.8.j.M.%XQ.k.j.Y.=X5X9X5XQ.T.=X4X=XM.J.Q.T.9X9XM.N.N.j.8.8.8.M.-X5X9X5XW.4X4X^.R.E.4XR.R.E.J.J.H.M.M.J.T.W.-X4X4XL.H.W.8X/.E.E.L.L.J.J.Y.T.b.j.j.M.b.j.j.k.M.H.N.T.M.j.j.j.v.b.N.v.v.q.4.5.q.u.+. .A m a > 8 ] N.Y.K.R.R.R.R.~.).4X4X4X4X0X0X/.R.R.D.^.R.c.H.Y.Y.z.Y.J.d.,.<.z.H.z.D.0X4X6XxX^./.4XE.L.D.R.^.^.E.0X/.0X0X^.0XDXwXmXmXmXxXxXxXxX6X/.^.(.6X0X6X).6X0X6X/.^.^.).6X)./.^./.E.4X4XwXqX",
"G.Y.B.$.b ; 2 q A @X>XqX(.6X0X6XzX0X0XqXqX8X/./.R.E.Q.Y.h.1.h.k.h.k.Y.W.Q.Y.J.J.M.M.T.9XMXGXeXW.R.^.).).`.0X0X`.DXJXzXR.G.G.U.R.~.~.R.Y.h.1.1.9.5.i.oX#.f 7 B %.C.Q.W.4XW.Y.W.qXDXJXzX).).bXvXzXzXlXhX(.(.(.6X6XxXmXmX7XK.7XcXwXGXDXDXHXHXJXcXDXDXDXDXDXcXcXDXcX`.bXqX~.D.c.D.D.x.h.h.j.b.T.Q.Z.8XwXqX4XE.H.c.H.l.x.d.R R 9.j.7.j.h.g.l.2.<.<.8.a.[ k k [ t.n.5XnXwX6X4X4X/.E.R.l.l.x.H.L.H.x.j.,.4.8.j.8.,.) R 5.5.8.8.9.,.4.9.) 9.5.9.8.u.q.5.q.q.8.w.j.j.j.j.N.Y.Y.=X9X9X4XW.R.Y.Y.W./.W.E.!.F.!.(.4X0X/.U.F.!.(.R.Q.OXs.h y v A %.XX&X5X9X8XcXqX9X9X9X5X=X=XR.M.m.m.M.M.M.N.M.T.Q.Q.T.Q.&X-XW.W.T.k.j.j.j.7.j.j.v.j.8.N.%X%XT.M.N.T.j.:.:.j.7.j.J.Q.Q.J.E.5X=X=X8X=XN.T.J.,.v.N.j.7.5.j.N.;X9X9X4X4X4XE.L.^.W.cX^.L.Q.=X=XM.T.W.-X&XM.j.Y.9X8XY.R.W.R.H.L.L.Y.J.Y.=XQ.M.v.M.C.N.M.M.M.m.k.j.v.M.M.b.M.C.C.b.b.b.5.5.u.N.u.O.o.~ K x 1 y ..N.J.K.R.E.R.R.~.(.E./.4X0XwXwX8X/.E.H./.E.H.Y.H.H.<.j.Y.J.j.7.d.d.x.W.wX8X0XwXcXwX4X^.R.E./.6X6X7XqX7X0X0X7XcXmX6XlXxXvXvXxXlX6X6X^.!.^.zXzX^.!.).0X0X6X).6XzX0X)././.6XE./.H.W./.",
"K.H.b.}.J 1 4 p } @XN.H.S./.0X0X8X/./.'./.^.R.R./.Q.c.h.x.Y.Y.x.Y.L.H.M.M.H.E.-XeXT.W.nXiXE.J.4XR.).6X(.).vXcX).~.0X0X!.F.F.U.U.U.R.W.Q.x.k.M.C.&Xn.%.A 0 0 Z ..n.W.W.4X8X^.W.D.zX~.!.`.bXkXkXzXzXlX(.6XlXxX6X(.(.lX6XL.E.cXnX7XcXDXHXHXFXFXHXHXHXHXmXzXbXDXDX(.D.R.~.R.D.D.D.Y.H.Y.Q.T.Y.Q.,X9X5XE.H.E.0X4XR.R.H.R.Y.M.m.M.m.f.9.7.l.S.G.G.z.v.O.' k 0 W oXrXuX4X7XE.R.R.R.R.L.c.c.k.x.Y.E.L.j.f.,.R R ,.8.8.5.j.j.j.j.8.9.5.j.8.q.j.q.q.u.q.8.q.q.q.w.j.j.k.k.j.J.E.Q.W.W.E.4Xx.x.D.Y.R.R.R.R.!.~.!.R.^.^.R.!.!.!.S.N.i. .0 0 k S y.*X2X;X5XqXqX9XeX;X5X9X=XM.M.j.f.j.v.v.j.b.b.M.N.C.Q.;XW.Y.N.Q.C.j.w.j.v.w.N.5.,.j.T.-X%XC.C.j.j.N.M.j.m.J.M.k.k.H.J.L.L.J.M.T.=XQ.N.N.N.8.4.w.8.,.f.N.&X9X5X9X4X4X7XH.x.E.K.8XW.L.T.=X&XM.T.j.7.j.M.N.Y.W.nX4XE.W.E.H.R.W.R.M.J.Q.Q.M.j.M.C.N.M.M.M.k.j.j.7.j.j.j.v.b.b.v.q.R Y ) 5.6.5.T N c Z p - y %.&XM.L.R.R.R.R.!.!.R.E.W.4X0XwXwX0X8XR.W.R.R.E.H.x.&XY.M.M.M.x.x.H.M.4X8X4X/.4XwX4X4X/.^.^./.6X6X6X6XE.E.4X6XwXxX4X/./.6X6X).K.K.^.^.^.6XxXzX).).6X6X/././.6X6X).!.zXzXcX6X6XR././.",
"^.D.q.{.} 4 ; p ' XX&XnXDXDXcX/.0X).(./.(.R.K.K././.E.E.W.W.W.Y.W.H.x.D.R.E./.4X/.nXFX4Xx.x.R./.4X^.K.K.!.0XqX0X^.8X0X`./.`.`.~.R.^.`.8X8X8XeXtX>Xe.Y f t 7 z ! b.0X0X8X0X0XqXD.F.G.F.).zXkXkXzX).zXbXzX).^.^.(.zXK.K.6XvXcXcXDXnXxX0XnXLXIXLXHXHXcXzXzXxXvXcX^.R.U.D.R.Y.Y.R.W.E.4XW.J.j.f.f.j.h.W.4XQ.W.8X/.R.E.Y.H.Y.J.J.N.T.T.;X4X^.P.^.L.v. .' h ; B oXyXuX4X4X^.E.E.E.E.E.R.L.H.H.Y.T.H.h.M.7.,.,.j.M.M.j.M.j.j.k.j.7.j.M.k.j.j.b.j.5.9.5.8.q.w.7.7.h.k.H.l.H.L.L.J.L.L.^.H.H.H.R.E.E.E.^.).).!.K.^./.(.).).R.L.%Xa.W 1 7 v A %.@X2X9XeXGXMX9X&XT.T.M.v.v.v.9.4.8.8.8.8.q.b.b.N.N.T.T.M.f.j.b.b.8.5.w.w.5.q.5.9.8.M.M.M.N.C.C.T.T.N.W.8X&X8X-XE.J.R.W.4XW.T.k.j.k.N.N.k.5.) 8.7.7.M.=X5X8X4X9X8X7XJ.S.z.L.H.4XE.Y.Y.N.N.b.w.9.9.j.j.j.M.W.-XW.W.5X4XE.R.4XW.M.m.J.T.M.j.v.N.v.8.7.f.f.j.m.j.8.8.7.4.9.q.N.8.E R 5.X.q.q.U C C G l ; q ..N.m.L.R.E.R.R.!.!.R.R.E./.4X0XqXxXxX4X^.D.D.R.E.8XGX9XY.l.k.E.4XE.z.W.4X4X4X4X/.D.E.E.E.E.R.E./.4X4XH.H.4X0X4X4X6XK.K.K.^.F.l.l.F.R.6XzX0X).).).(./.E.K.R.^./.).).!.K.^.K.R.x.H.x.",
").K.v.{.} 9 1 l &.1X&XeX0X0X0XwX(.~.~.(.).(.^.^.4X/.E.E./././.4XcX0X0XnXDXnX6X^.^.FXLXcX4X6XE.l.^.G.l.^.).R.F.(.bXqX/.~.).`.`.).R.).0X8X0X8X9X>XB.U N f t t z  .v.xX6X/.!.(.xX!.F.!.!.!._.kXkX).hXlX).).~.~.^.).^.!.!.6XzX0XcXHXvX6X6XmXHXmXcXHXDX6X6XvXzX!.!.).R.R.R./.'.W.R.R.D.H.z.g.l.j.<.1.k.W.eX4X4XW.R.R.Y.c.j.k.M.k.v.N.;XeX0XK.K.^.J.r.#.' l 7 B y.2X9XnXcXwX0X4X/.E.R.R.L.H.H.Y.Y.M.z.<.7.M.Q.Q.J.k.k.J.M.M.M.k.k.k.J.M.j.j.j.7.,.,.9.7.8.7.7.7.f.z.x.L.J.L.K.^.^.K.K.4X7X4X4X/././.6X).hX^.^.8X0X4X6X).^.J.:X{.W - 4 h S #.@XtXtXiXnXeXW.Q.;X&Xj.8.B.v.8.5.8.8.6.q.u.u.N.C.Z.b.v.M.M.q.u.q.4.,.5.9.9.5.v.8.,.9.j.j.j.Z.C.;XC.7.b.Q.N.k.Y.Y.M.H.W.8X9X8XT.k.w.8.) ) ) w.j.j.k.W.5X=XW.4XwX5XR.L.H.S.H.H.Q.J.Y.T.w.j.j.j.k.M.Z.N.k.N.&X=X-XQ.E.W.Y.R.4X=XJ.m.M.T.J.M.v.j.7.7.j.j.f.j.k.j.j.w.w.8.9.q.N.q.9.q.q.u.&XOXX.e.~ V l 7 h  .q.x.L.R.E.Q.W.^.!.R.R.W./.6X6X).6X6XzXcX/.E./.4XFXwXFXcXl.g.4XwXW././.4X4X6X0X/.R.R.E.^.^.E./.4X0X0XE.E.4X0X7X/.6X^.K.K.K.D.l.l.D.R.6X0X(.!././.!.7X/././.)./.^.^.!.K.^.R.7XE.W.Y.",
"~./.C.a.J 8 9 p W t.n.eX4XD.d.l.K.F.P.^.).).).6X6XR.F.R./.4X6XwXLXvX0XzXvXvXbXcXIXHXvXzX(.K.G.g.R.D.K./.4XK.S.K.c.l.S.E.0XqX8X).(.).`./.E.E.N.v.6.Y N g t 7 G s.T.zXR.!.R.F.zX^._.).)._.!._._.!.zXkX).).zXzXzX).F.).zX~.~.zXcX0X0XzXvXmXzX^.6XmXmXzXzXxX(.F.P.~.U.!.).0X0X/.D.g.2.g.d.g.E.^.J.L.-XQ.Q.W.8XY.z.D.l.g.f.j.M.M.M.M.k.M.H.K.^.6X=XB.] Z y 0 V y.;X5XH.R.R.^./././.E.H.x.x.H.H.x.M.Y.g.z.D.H.x.z.D.R.x.H.x.x.H.H.H.x.z.k.j.h.7.7.7.w.j.j.h.j.l.l.z.z.K.P.K.K./.^.K.K.^.^.^.^.R.K.K.!.(.lX).7X0X4X^.^.!.^.H.b.O.H 1 1 0 S #.@X>X;XW.R.J.Y.%X%XN.v.v.b.8.8.6.4.4.6.6.6.u.n.N.v.8.q.M.N.u.8.5.X.) 4.8.q.b.N.w.,.8.j.j.j.5.5.q.j.,.j.W.T.k.k.H.J.H.H.H.R.M.Z.b.5.) ) q.Z.n.n.M.C.5X-XQ.Q.4X5XW.H.H.H.x.H.x.J.k.k.M.8.w.w.q.) R 8.-XtX;XM.4X8XY.h.x.x.x.Y.Y.N.k.j.M.J.N.b.8.8.j.N.J.M.z.k.j.v.M.M.b.b.u.q.9.8.5.q.;X&Xu.6.e.C g 8 1 v O.N.z.L.R.R.R.W.^.!.R.R.^.).).(.(.(.(.xXJXcXcXxX6XDXmXHXcXl.g.4XDXDXDX0XxX/./.0XE.4XK.R.^.7X6X0X6X4X/.4X7X/./././.4X/.^.^.^.R.K.K.R.^./.(.R.R.!.(.^.E.E./.6X/.K.S.S.F.D.K.D.E.H.R.H.",
"F.6X%Xe.v 7 9 q [ t.q.,X8XT.x.H.F.F.K.!.^.^.^.^.^.^.).xX0X/.4XxXcX).(.zXDXJXmXDXHXHXHXxX!.F.(.vX0XcX0XK.S.R.^.^.^.D.l.S.R.^.).zXxXxX0X^.K.x.f.,.X.Y B f ; 7 Q {.9XzXS.^.).R.6X!._.!.!.).).].].).!.).xXzX~.U.U.!.).`.zXbXcXbX0X(.!.zXvX6X(.6XxXzXvXvXzX!.P.6XlXK.).zX0XR.D.D.l.<.:.z.S.L.6X6X7XqXE.8X/.D.H.H.z.2.2.d.2.7.z.E.5X-X9X8X0XzXxX/.f.^ ' J z 7 h  .u.9.f.z.H.E.W./.E.E.R.D.D.H.H.c.z.L.H.H.H.R.H.c.g.g.g.l.l.l.x.H.x.g.l.M.M.f.7.m.N.M.M.k.k.H.H.L.S.g.g.L.K.L.L.G.G.F.K.R.^./.R.D.K.!.^.6X7X/./.E.K.E.L.R.j.T S Z 1 1 q H y.n.q.7.j.m.M.5X%X,.E 8.N.v.u.v.u.6.5.6.u.u.n.i.6.X.) 9.8.8.6.X.T T T 4.v.C.C.C.M.M.N.7.7.T.n.,.5.q.8.M.W.N.Y.k.M.5XqXW.L.J.N.T.j.,.5.b.C.%XN.N.N.Q.5XW.E.=X4X=XL.x.H.S.x.H.j.M.7.7.j.j.j.w.) 5.w.j.k.M.Y.Y.M.E.x.f.M.J.z.j.k.M.k.f.j.M.N.b.v.j.j.M.M.m.m.J.N.J.M.j.v.C.N.q.8.5.R n.KX&XT n.OX .V h 1 f  .C.g.S.H.H.Y.R.!.!.!.R.!.^.(.~.(.).zXxXzX).xXcX/.wXcXcXvXcXcXcXnXnXDX/.cX8X/./.l.R.x.x.L.E.4X4XE.H.H.0X6XR.R././././.).)././././.^.E.K.K.K.K.K.^././.^.^.^.R.K.!.).^.R./.R./.R.W.R.",
"!.S.m.u.B 1 8 9 ..n.w.T.T.Y.H.L.K.D.K./.!.K.^.).^.R.!.!.R./.6X/.6X(.).zXzX0XzXcX(.0X6XR.R./.).!.^.^.).0X/.R.R.0X4X8X6X/.(.).0XzXcXvX0XW.=XH.7.5.T P z 1 - q [ @XY.cXR.R.).R.R.^.F.D.G.U.).).~.R.~.).).R.F.R.~.^.R.`.cXcXcXcX/.R.G.F.F.!.`.zXzXzXxXxXbXvXbX)._.!.zX0X6XK.c.c.z.l.z.H.K.^./.K.^.K.G.K.!.K.K.R.K.D.2.S.D.c.H.E.W.=XeXMXnXxXcXJ.^ ~ A K p ; c  .6.6.5.v.M.k.D.E.^.R.`.^.S.S.E.H.z.H.L.L.E.E.K.S.l.g.x.z.z.x.H.S.z.z.S.H.H.x.m.M.H.M.f.j.H.7X7XL.G.S.S.z.d.g.D.^./.E.K.^.S.g.S.K.K./.^.!.^.D.R.K.^.H.S.<.E E C v 1 > 0 v %.a.N.j.Y.Y.9XQ.b.v.q.8.j.N.u.6.6.e.6.X.6.i.t.T +.+.6.q.X.6.X.R E ) 9.8.u.N.8.T.M.8.v.f.9.v.N.f.j.N.-X5XT.Q.Q.T.Y.5X5XQ.J.J.J.z.d.j.Y.-X-X&XT.M.&X5XN.Y.4X=XR.E.x.l.H.k.f.J.J.M.M.j.7.7.7.,.R ) b.9.9.N.M.Y.Y.Q.=X5X4X=XT.Y.J.k.7.f.M.m.j.j.j.f.j.M.Y.J.J.J.x.J.Y.Y.J.T.T.C.v.5.4.9.8.8.j.N.%X X .J h k O.b.J.L.H.L.R.R.!.(.!.!.!.!.R.R.^.zXmXmX6X6XDXDXqX0X).).0XcXvXzX6X).^.^././.E.R.H.H.H.j.j.x.M.x.H.Y.E.R.R.L.L.L.R.R.K.!./.7X/./.^.E.H.D.l.l.D.R.W./.E.E.E.R.H.H.R.R./.K.^.4XR.4X0XD.",
"F.g.7.8.S 7 9 8 ] N.8.,.R j.S.z.K.H.^./.!.K.K.K.).K.G.g.g.H.7X/.R.6X6X^.(.0X6XK.D.S.F.).0X^.R.(.R.!.!.^.R.R.R.^./.R.R.6X).K.!.zX).'.Y.k.M.j.f.j.X.W x 4 - 0 ! n.iXnXS.l.R.R.R.R.~.U.R.).`.'.~.~.).^.R.R.~.)./.^././././././.R.D.l.l.D.R.(.).).(.zX).).).(.(.).lXxX/.E.^.R.H.L.4X0X/.c.c.D.K.6X6X^.).^.!.!.6XzX0X).0X4X/.4XE.D.l.H.W.^.^.7Xv.^ ! V x 4 - c ~ O.8.v.j.j.j.H.R.R.R.).zX).!.R.S.c.E.K.L.S.S.L.R.W.^.L.L.L.L.S.x.z.z.S.L.L.L.m.M.H.H.m.T.Y.l.d.S.K.L.S.K.E.R.K.K.L.H.L.K.z.g.L.E.K.E.K.G.D.^.zX^.K.K.R.j.) Y S z > 4 p Z $.a.T.=XnXnX5XT.b.N.C.N.8.4.6.6.X.^ o.e.e.X.U Y X.+.O.0.O.u.b.8.R R 9.N.N.q.b.b.9.4.v.j.5.M.j.J.9X9X5X5XQ.-X5X=X=X5X-XT.T.Y.l.g.l.H.Q.-X5X-X;XQ.9XMX5X=X9X4XM.4XR.f.M.=X=XQ.Q.Q.&XT.M.k.j.7.b.q.) X.j.T.;X=XH.J.J.R.Q.Q.Q.Q.Y.J.j.k.M.j.7.8.j.7.f.M.Y.Q.7X7X4XW.H.k.M.J.J.M.M.8.4.v.N.v.f.f.v.B.#.H 0 0 | v.z.S.H.D.H.R.(.^.!.!.!.^.^.^.).0XxXxX6X4XcXxX6X0X).^.~.(.).(./.4XK.H.D.D.D.x.z.h.k.j.h.j.z.h.z.H.Y.L.x.k.c.x.D.H.L.K.R.E.R.R.K.H.H.c.h.g.l.x.M.H.H.R.R.H.D.S.D.R.D.D./.4XD.H.4XE.",
"P.G.z.r.A 7 3 8  .N.j.M.w.j.S.P.z.x.K.K.G.F.K.F.G.G.G.l.G.R./.H./.R.R.R.^.R.D.S.H.R.R.R.E././.R.R.!.R.K.R././.R./.R.E.6X(.F.F.!.cXcX/.J.M.M.J.%X0.[ M 4 - 0 P u.E.0XK.D.^.E.^./.).~.^.0X0X).~.).~.U.D.R./.).)./.R.D.S.S.D.c.l.c.l.G.D.U.!.!.!.R.!.R.K.K.K.!.).zX0X^.K.E.R.D.Y.4XwX0XR.R.!.^.zX0X).6X6X)./.6X6X^.6XwXqXqXqX^.L.H.L.Y.S.S.E.J.6. .H a 4 1 l P ^ 5.u.5.9.j.H.R.R.R.!.(.!.R.(././.4X7X7XE.K.K.L.S.x.z.S.S.x.l.z.l.x.f.z.m.j.f.f.j.z.-XY.M.k.l.z.c.S.L.J.J.L.z.z.z.S.S.K.L.L.R.E.K.^.^.K.D./.^.K.D.R.4XQ.%Xn.&.K 8 3 w V #.OX%X5X4XE.T.N.u.6.6.u.B.N.r.e.o.^ X.6.X.U T X.6.+.T | _ 5.8.q.q.8.j.M.v.8.8.j.j.v.M.7.7.T.J.J.Q.Y.-XiX9X=X4X=X=X=XQ.J.M.J.z.S.R.=X=XQ.Y.T.;XQ.9XSX9XQ.Q.J.M.J.M.M.Q.5X9XiX&XQ.=XT.M.M.M.j.v.v.,.j.M.j.Q.Q.W.Q.E.R.Y.E.=X&XY.Y.M.M.N.j.7.7.f.f.j.M.J.J.R.W.4XW.Y.J.T.Q.T.M.b.q.q.N.N.f.7.8.8.u.@.J 0 h ..b.f.L.L.D.H.^.(.!.!.K.K.!.^.^./.6X6X0X6X/.6X7X/.6X^.^.(././.^.R.R.R.Y.D.c.D.H.x.h.j.j.h.j.h.7.h.k.H.x.l.g.g.l.c.D.K.R.R.R.K.H.K.L.D.c.l.l.k.M.H.H.H.R.E.R.c.l.D.R.H.l.H.E.H.R./.E.",
"P.!.J.N.W 1 4 y ] i.k.-XC.M.x.K.^.7X4XE.S.K.!.F.R.K.F.l.l.E.4XE.4XR.K.^.^.H.D.R./.0X/.K.R.6X6XR.R.R.R.R./.4X/.E.^.4X6X/.^.^.!.R.F.E.8X9X-XY.k.j.n...m 4 - 0 W u.J.0X4X^.^.R.^./.0X).).0X`.R.R.).U.F.D.R.!.R.!./.~.R.D.R.R.D.U.R.R.R.R.R.R.R.F.F.R.R.!.!.^.^.^.).E.E.R.D.x.H.J.H.D.W.7X6X^.K.^.^.^./.7X/.^.^.R.H.6XxXqX6XE.c.c.R.H.M.z.g.z.v.6.[ K x 3 4 l S ! X.,.,.9.j.L.E.E.!.(.).~.K.R.^.E.D.S.S.S.S.S.x.l.g.z.l.l.j.g.f.l.k.x.m.m.m.f.f.j.m.Q.M.k.M.z.<.2.c.E.R.L.L.K.E.E.R.g.L.R.K.S.z.z.L.K.6X/./.l.D.S.K.W.Q.;XOXs.J 1 1 1 V #.@XC.=Xf.:.) 6.u.0.6.u.v.v.e.o.X.o.X.T T X.t.u.u.X.U T _ X.6.8.v.N.N.q.5.8.5.v.N.J.N.j.j.T.=XM.k.M.5XMX5XY.Q.Q.=X=XY.k.j.z.x.E.9X5XT.M.M.M.j.8.T.tX9X;X-X-X5XQ.Y.Y.Y.M.J.=XT.M.M.M.j.M.J.M.q.b.v.T.N.j.J.J.Y.L.H.M.m.M.M.N.M.J.N.M.N.v.8.f.f.j.m.M.H.M.x.x.g.x.H.M.m.m.M.M.8.v.N.b.8.9.f.v.B.t.' v 0 v %.b.M.J.R.R.R.E.!.K.!.K.K.R.^.^./.).6X6X7X/./.^./.6X/./.).4X/.R.D.c.H.H.D.h.j.x.z.7.j.j.j.j.f.1.d.z.x.k.h.g.g.l.x.D.R.R.R.R.H.H.R.R.H.H.D.D.H.L.Y.L.Y.E./.R.c.l.c.H.R.c.S.H.H.H.R.H.",
"F.K.L.N.W 1 > p I A.N.M.j.T.R.L.H.R./.R.K./.6X^.6X)./.R.H.E.E.c.D.E./.R.H.E.^.R./.R.R./.4XE.R.^.F.F.F.^./.R.R.E.R.E.^.E.^.6XzX6XK.D.z.7.<.7.H.%Xn...v 1 - f ! n.5X4XE.R./.xXqXqXqX`.`.0X).!.~.0X!.U.R.!.!.R.R.^.^.R.R.R.R.D.Y./.(.(.~.R.R.R.K.R.!.(./.)./.^.^.E.L.L.R.H.H.L.L.x.d.H.H.H.S.g.K.!./.^.E.R.R.E./.7XE.E.R.R.K.S.D./.x.Y.E.H.g.8.6. .z p < 4 q A  .+.R d.m.H.R.^.^.R.F.).0XR.c.S.H.x.H.H.H.S.S.H.L.E.L.H.x.j.z.j.l.j.m.m.z.f.9.9.5.8.,.M.N.7.:.1.j.x.x.S.H.E././.E.K.c.D.R.E.H.S.D.D.g.E.^.4XD.Y.D.K.R.J.N.t. .Z 7 1 0 Z ..OXB.T.j.,.w.q.6.+.t.i.6.T ^ U T X.o.X.6.i.6.0.5.X.X.5.6.5.N.j.8.j.M.v.j.8.N.M.j.f.N.=XQ.Y.M.m.=X8X8X4XJ.Q.4X4X=XQ.H.k.k.m.M.=X9X5XJ.v.v.b.b.b.%XtXuX;X-X;XJ.=XQ.k.j.J.Q.M.N.j.j.b.v.N.&X%X9X%X=XJ.J.=XY.Y.M.m.m.m.m.M.M.J.k.J.M.M.M.v.f.j.7.j.j.k.k.x.S.S.x.H.H.k.j.j.m.M.,.v.N.j.9.j.M.B.e. .J y 7 v ..v.E.J.R.W.W.R.F.K.^.K.K.!././.).6X6X/.^.^.E.^./.^.4X/.R.D.D.D.c.c.H.Y.Y.x.z.k.k.h.j.j.j.j.d.d.d.z.k.z.z.z.z.x.x.H.Y.Y.H.H.D.D.H.H.E.R.R.H.H.D.D.c.H.E.W.R.c.l.c.H.H.H.R.Y.z.g.c.H.",
"!.!.S.B...8 > 8 ] A.N.Q.Z.T.R.K.2.l.R.E.E.6XxX).R.E.6X0X4XW.H.d.2.c.R.R.R.H.H.D.R.R.R.R.H.R.R.R.K.F.F.(./.K.H.E.R.H.D.E.^.!.^.0XS.c.H.M.h.f.m.v.n. .z 1 ; h  . X9X0XcX8X8XcXqXcX8X8X0X`.).(.).zX`.~.R.!././.!.R.^.R.R.D.c.l.S.R.!.~.~.R.R.R.R.E.^.^./.E.R.R.H.H.E.D.D.R.R.x.z.H.H.H.c.D.D.D.^.^.E.E.E.E.E.E.E.E.D.S.c.D.^./.^./.Q.Q.7XW.R.=Xn.W q 4 4 > 7 Z #.e.v.=X4X7XE./.(.K.F.R.^.R.D.H.R.x.L.R.R.R.L.H.H.H.J.M.k.j.k.m.k.z.j.8.9.9.R R R R ,.7.7.j.k.H.H.x.l.c.H.K.H.D.D.K.E.S.D.R.R.E.R.D.L.z.z.E.R.H.D.R.K.H.m.6.O.' h w q V  .|.B.M.j.7.C.n.0.o.o.6.6.+.^ ^ T T 6.|.n.i.6.0.6.6.6.6.6.T 9.j.m.j.k.T.Q.M.j.m.k.j.M.=X4XJ.k.z.=X8X5XY.L.9X5X=XY.m.j.j.x.H.Y.-X5XQ.m.j.w.w.N.C.%X-X-XT.N.N.j.j.M.M.j.J.&XQ.j.7.j.N.N.T.%XT.;X=X9XJ.M.=XJ.Q.Y.Y.Y.Y.J.J.J.J.M.Y.J.m.M.v.j.j.j.j.f.7.f.z.S.H.4XW.Y.J.J.M.f.,.R 5.8.9.8.N.N.8.^ P K y 1 h ] n.Q.L.H.W.W.H.F.K.^.R.K.!.^././././.R.R.E.R.E.^.K.R.Y.H.D.D.x.x.z.Y.T.T.Y.M.x.k.M.j.j.j.h.f.d.h.z.z.z.z.x.x.x.x.x.H.H.H.H.D.x.D.H.R.R.R.L.H.H.D.D.Y.R.E.E.Y.H.H.Y.R.E.R.H.D.D.D.D.",
"(.).L.N.*.q - 7 P u.C.iX9XQ.L.^.W.4X8X0X^.^.^.K.^.K.K.E.R.R.W.E.D.c.H././.D.c.R.Y.4X/.c.l.H.R.D.R.R.R.^.^.R.R.E.^.R.H.R.R.D.D.R.!.D.x.j.<.7.z.j.u.! h > 1 c  .N.9XwXHXwXR.H.S.D.R./.).).(.(.).).`.).^.!.(.).(.R././.^.R.R.^.^.R.U.R.!.(.^.!.R.R.D.R.R.L.H.H.D.c.E.x.l.x.x.l.z.H.R.W.R././.E./.R.H.H.Y.Q.Q.Y.H.c.R.^.R.H.K.K.D.D.R.M.x.z.H.=Xu.C l 4 4 4 7 B %.OX9XuXwX4X4X7X/.^.0X!.R.R.H.R.H.<.<.7.d.k.H.M.k.f.j.j.j.j.j.k.m.m.8.5.5.8.q.8.5.8.v.,.,.M.;X&XY.H.E.R.K.R.H.H.R./.K.g.g.c.c.D.L.z.4Xx.l.D.E.R.E./.c.z.j.4.t.&.V 8 0 c @.|.N.7.d.7.6.6.t.s.t.O.o.+.O.O.X.X.e.n.i.6.u.n.u.n.q.R ) R R j.T.J.M.Q.-XQ.7.k.L.L.m.H.R.J.J.z.H.L.Y.E.R.8X=XJ.x.g.f.g.l.k.Y.=XQ.M.j.w.8.5.) 8.w.j.M.N.N.N.J.j.M.T.m.f.m.N.j.7.j.b.M.N.N.M.j.M.Q.W.J.M.m.J.Q.E.Y.J.M.M.m.k.Y.Q.J.M.M.M.j.j.M.M.j.f.l.M.H.H.J.J.H.M.M.j.,.E ,.9.5.8.v.N.v.9.^ B m i 1 y ! n.T.L.H.Y.E.H.F.F.R.K.K.R.^.E.^./.E.H.K.E.H.R.E.D.c.x.H.H.H.H.x.j.k.j.j.k.k.h.h.j.k.z.z.j.j.z.z.k.z.z.k.k.k.z.z.j.M.M.M.M.M.x.x.x.x.H.H.H.K.K.R.R.H.H.H.Y.E.R.H.D.E.E.H.z.R.4XR.z.",
"F.^.K. X$.8 > p A OXtXSXuXiXnXcXE.Y.R.Y.D.D.R.K.E.D.K.7X/.E.E.Y.4X0X8X/.W.4X4XE.H.R./.4X/.H.D.H.E.^.R.R.R.^.^.R.K.E.R.D.D.R.R.S.R.D.M.M.7.f.M.j.6.I y - 1 c  .n.J.c.H.l.3.D.S.D.S.R.~.!.!.(.~.!.!.).).^.K.!.^.^.F.R.R.^.6XxX8XR.F.R.(.).(.!.R.R.c.K.E.E.E.R.H.x.x.z.g.1.g.H.E.W.H./.W./.R.D.K.H.z.j.k.M.H.H.L.L.z.^./.L.G.G.D.E.l.k.H.z.:.9.6.P v 4 > 9 8 V {.yXKXMX8X4X7X7X6X0XR.D.E.W.H.L.R.H.m.g.7.d.m.J.H.k.j.j.k.j.j.f.j.j.9.,.9.j.M.b.v.j.j.b.b.w.7.M.Q.=XL.S.c.R././.R.L.E.D.K.R.l.l.K.R.D.H.E.H.4X/.qX/.R.H.j.) u..X{ v f j O.p.N.9.j.m.b.X.Y | %.t.O.o.O.| X.6.e.o.X.6.6.n.i.n.q.R X.9.M.m.m.J.Y.Q.Q.=XR.x.z.k.l.x.L.L.L.J.Q.Y.J.J.M.L.L.H.z.j.f.j.g.d.k.M.M.j.j.j.j.9.4.q.j.8.j.j.w.8.9.7.M.M.j.T.;XN.N.j.w.v.j.v.b.b.M.x.7.Y.4XH.Y.H.W.=XE.T.Y.T.T.J.Q.=XJ.M.N.T.M.M.M.N.J.T.Q.4XW.L.J.Y.Y.M.j.j.j.j.M.j.v.M.M.v.j.u.o.j q > > y U n.T.R.Y.H.Y.R.F.G.^.E.E.^.^.^.^./.R.D.R.E.D.H.R.x.x.x.z.h.h.k.M.k.k.f.7.M.N.k.j.k.M.x.k.z.x.M.H.M.x.x.k.z.z.j.h.h.k.k.M.M.k.k.z.z.x.x.D.H.L.D.L.H.x.c.z.x.H.H.z.d.h.Y.H.h.x.E.R.H.",
"!.!.E.8./ 8 > 8 P OXuX;X;X9Xg.R.z.M.R.R.L.S.H.^.6X/.E.H.g.<.1.h./.W.W././.E.H.H.H.R.E.4X0X0X/.R.E.c.c.R.D.2.l./.6X^.S.K.c.<.c.R.H.E.M.&X9Xj.7.v.6.! q 1 1 h  .B.m.l.l.c.c.z.D./.K.K.R.(.`.`.(.~.6X).^.R.F.K.R.!.l.D.R.^.!.R.R.R.F.R.(.).).^.R.R.E.c.g.l.D.D.L.W.h.D.H.x.c.H.E.E.E.7X4X/./.H.S.H.h.7.f.h.7.1.x.4XD.D.H.K.D.G.F.R.x.M.L.z.7.9.6.#.b q @ 9 u v $XZXMXMXuX8X8X8X0X4Xg.l.H.H.l.l.L.Q.Y.M.j.f.7.7.7.f.f.k.k.f.j.m.j.7.,.) R R 5.N.;X;XQ.j.1.R E ) M.Y.R.D.D.H.Y.D.D.H.E.4X0X/.R.D.H.E.E.E.R.Y.R.R.^.(.R.H.f.b.n.#.' h 0 c | @XB.m.k.T.C.t.|  ...O.O.O.o.| O.t.u.u.u.6.n.i.B.N.8.R R v.=XY.M.M.E.Q.E.Y.W.H.d.1.g.x.H.H.5X=XE.L.H.H.J.J.H.x.f.f.z.z.g.7.M.M.M.v.j.w.8.8.q.q.q.j.j.j.j.j.7.M.7.j.N.j.M.j.8.w.v.M.N.N.N.M.J.H.J.Q.Q.T.Q.=XY.m.M.Q.Y.k.k.T.Y.J.J.M.m.j.j.j.j.N.Y.J.J.E.R.L.Q.Y.T.W.Q.5X9X9XT.M.v.8.j.N.8.4.! c 8 1 > y [ n.-XR.Y.R.E.R.K.F.K.L.L.K.E.7X7X/.D.E.E.H.H.E.L.g.z.k.j.h.h.j.j.7.j.M.M.j.j.j.j.j.x.x.M.J.Y.Y.H.x.M.x.z.j.j.j.l.h.j.j.j.k.M.M.k.j.z.x.H.H.D.D.x.z.l.x.g.g.x.z.g.H.H.l.H.Y.W.x.L.E.",
"F.R.^.u./ 9 - 8 ~ OX&XQ.-X,Xh.D.z.x.L.E.E.E.^.4X^.^././.R.z.g.h.R.E.R.H.Y.E.E.R.Y.E.E.E.H.H.E.8X/.4X/.E./.0X6XE.4X0XD.l.l.D.^.S.D.8XY.M.T.j.f.q.e.! q - ; f ^ r.=X/.E.R.R.7XcXDXvX0X!.!.).).~.F.K.F.F.F.F.K.!.!.K.R.K.K.F.R.^./.`.).(.~.^.^././.S.l.<.:.<.x.R.H.L.R.W.W.E.E.K.D.H.^.^.E.E.R.D.D.x.f.1.<.,.1.z.E./.R.K.E.7X6X/.E.Q.W.E.D.S.M.v.#.V q > 3 l } #X*X5X5X9XuXMX9XE.z.H.1.1.H.R.L.J.J.T.Y.Y.Y.J.M.j.j.j.f.j.k.m.f.7.7.8.8.8.8.j.j.j.7.j.j.M.f.E E h.T.H.H.D.D.H.R.E.E.R./.4X4XE.H.H.R.R.R.Y.Y.R.R.R.R.R.R.z.M.i.] V 7 7 j ! n.v.j.d.8.8.X.` U ! ! | o.o.O.p.n.e.6.u.n.u.i.8.R R 4.v.N.Y.J.M.H.Y.Y.Y.Y.x.H.H.H.c.x.L.E.=XT.Y.J.H.M.M.m.z.j.f.f.g.f.g.f.m.m.k.k.j.j.w.q.q.q.q.j.j.j.j.j.j.N.j.M.N.j.j.7.9.5.j.j.j.j.j.j.J.J.E.=X=XY.J.J.k.j.j.M.T.Q.T.M.J.m.j.f.7.7.j.N.N.Q.Q.J.M.H.H.k.H.j.j.M.J.=X-XQ.=XT.T.v.8.8.8.n. .v 8 > > z ..n.=XJ.H.L.Y.H.H.K.R.R.K.R.E././.W.E.D.c.x.Y.R.x.7.h.k.M.M.k.j.f.1.k.N.J.k.j.j.j.j.M.H.M.J.Y.Y.J.M.H.x.k.z.j.z.z.j.j.j.j.k.M.M.k.j.x.k.j.d.d.h.l.z.x.x.g.d.z.z.z.R.Y.x.L.H.R.x.H.H.",
"G.R.^.v.[ 7 - 8 P %XT.N.b.M.z.H.c.l.x.R./.4X6X6X^.^.^./.E.L.H.L.D.R.H.l.c.R.E.R.l.c.R./.E.H.H.R.E.0X0XE.^.cXxXR.D.cXcX/.H.Y.R.g.c.5XT.j.v.j.j.v.e.W q - ; q ~ 6.J.7X7XW.E.4X4X^.F.S.F.R.(.).~.!.F.G.F.F.K.!.K.K.F.F.K.R.R.!.!.!.).).)./.).).^.R.R.R.S.d.l.E./.^.R.Y.E.4X6X/.R.K.R./.^.E.^.^.D.z.,.1.7.j.x.D.D.D./.K.D.R.).).!.D.x.W.qXxX0X7Xv.! V 1 2 3 l } %.t.N.T.5X5XT.M.j.j.W.x.x.J.m.f.f.d.f.d.7.d.f.j.M.Y.J.m.j.f.f.j.j.v.,.9.j.N.T.T.Y.Y.7.<.j.T.Y.M.T.W.R.E.R.S.D.R.E.R.D.R.E./.E.R.D.D.H.R.R.R.R.R.R.U.F.K.H.J.u.U B 7 0 B  .|.N.J.j.5.) T Y P Y P U X.O.6.p.a.e.o.t.i.6.u.8.T 4.N.&XT.Y.Y.J.J.Y.Y.W.4XL.H.H.H.Y.E.E.E.Y.J.J.J.M.M.k.j.f.f.j.f.7.7.j.m.k.z.j.j.j.j.q.8.q.q.j.j.j.j.j.j.j.M.j.M.Y.v.j.7.M.N.T.N.b.j.j.j.J.J.T.Q.Y.N.m.m.m.N.M.v.J.=XQ.m.T.J.J.J.J.M.N.T.T.&X&XJ.H.J.L.H.z.1.<.f.k.J.J.k.7.9.j.M.M.q.) X. .V 9 > > M %.n.=XJ.H.H.Y.Y.R.E.E.E.R.E./././.E.H.c.z.H.H.h.f.k.M.J.J.M.j.j.j.j.7.j.j.j.j.k.k.j.x.x.x.x.H.H.M.x.M.x.z.j.h.h.h.h.j.j.k.k.M.M.k.j.j.k.k.z.j.j.h.d.1.f.f.h.z.h.1.f.d.7.j.f.H.M.E.Y.",
"G.F.W.v.} w - 7 P %XM.M.w.j.D.R.c.l.c.H.^.^.!.R.K.K.K.R.R.H.H.H.R.R.R.D.D.E.E.R.R.l.2.l.H.R.R./.R.E.E.R.H.R.^./.qXxX8XE.c.g.l.x.1.k.8.8.8.4.8.v.#.Q w - ; q ~ e.M.E.4X7X/.^.R.D.G.R.).0X).!.~.~.(.!.!.!.!.!.K.F.D.F.K.R.^.^.!.R.!.~.^./.).).!.R.).^.^.^.^.R.R.^.R.H.H.R.H.D.K.^.^.6X7X/.6X6XK.l.d.g.h.l.H.E././.7X7X6X0X6X^.!.R.H.W.7X7XK.V.8.e.Q w 1 q y v ! O.9.v.M.v.7.9.h.M.h.M.T.M.g.M.J.x.f.j.m.J.H.j.7.<.f.m.j.:.,.k.M.f.j.j.m.Y.Q.Y.E.4XW.H.H.4XwXeXE.z.R.R.H.D.D.H.R.D.S.D.R.E.E.R.H.D.H.Y.R.E.R.R.!.R.F.R.R.Q.N.o.C 0 7 c  .p.b.N.j.,.R T Y P P P U o.t.O.6.t.e.6.6.+.6.6.u.N.&X&X%XT.T.Y.M.M.J.E.5XqX4XR.H.H.Y.W.E.E.J.J.M.M.M.M.j.j.f.f.j.f.7.f.k.N.m.k.j.j.j.j.j.8.j.j.j.j.j.j.j.z.j.k.j.M.Q.Q.Y.J.;X9X9X;XT.N.N.T.T.T.Y.T.N.M.M.b.b.T.N.f.9.f.k.j.J.M.J.J.J.M.M.M.Q.=XQ.J.H.Y.R.J.M.d.7.j.M.J.J.k.H.f.f.8.j.v.9.o.P v 9 > > m y.N.Y.L.H.H.Y.Y.E.E.R.E.E./.4X4XW.E.x.z.D.Y.x.7.f.J.N.M.M.k.j.j.j.k.,.7.7.7.h.j.k.z.x.x.x.x.x.x.x.x.M.x.k.k.k.j.j.h.j.j.k.M.M.M.k.j.j.k.M.x.k.k.j.7.f.z.x.H.J.x.h.g.z.z.x.f.M.x.J.k.",
"F.F.R.B.$.q - ; ~ OXN.T.M.Z.R.K.H.D.L.K.R.K.F.F.l.S.K.E.E.H.c.g.D.c.c.D.D.S.S.D.^.c.2.l.D.R.R.R.R.H.H.R.R.D.K.(.R.D.H.4XqXR.1.,.:.,.R T T R 4.r.#.H 8 - > q ~ e.M.m.x.L.K.R.^.4XR./.0X).~.!.).zXlX).(.^.^.!.K.F.^.K.F.D.K.!./.6X)./.^.R.R.!.^.).).).zXzX).!.!./.E.E.R.D.d.<.g.!.K.).6X6XxXxX^.K.E.E.E.R.R.^./.^./.6XzXzX).!.!.^.K.D.L.K.S.9.9.p.&.G 1 p y h @.#.^ R 9.8.b.v.j.w.M.T.Q.M.k.=X5XL.R.R.R.Q.Y.x.f.d.7.M.J.j.k.J.M.9.k.j.k.H.L.L.R.4X/.0X0X4X4XW.Y.x.D.c.c.D.H.D.H.R.H.H.H.R.E.E.R.R.H.Y.R.R.R.R.!.!.!.^./.=XC.t.C 0 7 c  .u.v.m.m.5.) _ Y U U | o.6.s.O.O.t.t.e.6._ q.6.v.%X&XT.N.T.T.J.M.M.J.Y.Q.W.Y.Q.W.Y.H.L.W.5XY.N.M.m.M.M.v.j.j.j.f.8.8.j.m.M.H.H.x.k.k.v.j.j.j.j.j.j.j.k.k.k.k.k.z.m.=X9X9XiX;X9X9X;XT.J.T.-XT.T.T.T.C.C.C.C.C.%XQ.M.j.j.m.H.M.k.f.j.j.m.N.T.=X=XT.M.H.Y.R.H.Q.M.J.E.R.R.E.J.J.J.J.5.4.8.4.+.N c u > > m t.N.M.L.H.H.H.Y.R.R.R.R./.4X4XW.R.H.x.z.j.x.H.H.k.j.7.f.j.M.J.M.j.7.f.j.j.j.j.k.k.k.x.D.D.c.x.x.x.x.x.M.M.M.M.M.j.j.h.j.M.J.J.M.k.j.k.k.j.7.7.j.j.j.k.k.k.l.j.k.H.J.J.J.Q.k.J.J.T.M.",
"U.D.R.B.$.q - ; C OXuXuXZ.M.R././.^.^.^.R.F.F.F.F.!.^.^.^.R.L.c.S.g.l.K.R.D.S.H.K.R.R.R.K.D.D.D.H.H.D.H.R.R.D.g.R.D.D.D.E.8XE.J.,.5.R E E T q.6.#.H 1 - - 0 W 6.j.d.g.H.R.K.E.4XS.G.F.!.(.).).).(.^.!.!.!.!.!.!.!.R.K.K.R.^./.6X8X0X8X).!.!.!.(.^.xXvX).^.zXbXzXE.^.^.K.2.2.g.K.G.!.(.6XxXxX6X6X4X4X0X0X0X4X^.K.^.!.R.^.^.!.K.K.L.l.l.P.^.S.9.5.}.} 1 9 l H {.o.T R ^ 8.v.v.b.b.,XQ.Q.T.j.f.z.m.=XL.x.l.l.k.J.=XJ.H.J.E.Q.M.k.j.7.7.f.x.R.E./.4XR.8X6XR.R.R.Y.Y.D.c.c.R.R.D.S.H.H.D.D.D.H.R.R.R.H.H.Y.R.R.R.!.!.~.R.W.T.N.t.B 7 0 B #.p.M.m.M.f.9.) T | o.6.t.u.t.O.e.e.o.| +.+.4.u.N.N.N.N.M.v.J.J.J.Y.T.Y.H.k.Y.Q.=X=X4XW.W.W.Y.N.v.j.v.M.m.j.j.f.7.7.8.j.j.k.H.S.x.z.j.f.f.f.j.j.j.j.k.k.M.M.k.j.j.f.J.=X-XiX9X9X9X5XQ.N.T.&XT.%X&X%XC.C.Z.N.T.Z.C.-X5X=XQ.E.J.M.k.M.M.M.M.N.T.T.J.M.J.Q.E.L.T.J.Y.W.J.H.J.J.f.j.m.9.9.u.4.Y D B z 4 4 m %.N.H.K.R.Y.Y.E.E.E.R.E./.4XW.R.H.z.f.z.x.z.x.M.k.j.7.7.7.z.H.M.j.7.k.k.z.z.k.m.m.m.z.c.x.c.z.l.j.z.z.z.z.k.k.k.j.j.h.j.M.Y.Y.M.M.k.j.j.j.7.7.j.j.j.7.7.j.j.f.k.J.H.M.J.Y.k.J.J.Q.Y.",
"U.F.E.N.$.q - 1 N u.9X9Xj.Z.D./.6X4X/./.^.!.P.!.).6X6X^.R.R.E.E.!.R.^.0XzX0X).6X).0X6XF.l.G.R.^.E.Y.Y.H.R.R.F.2.l.D.0X/./.qXR.M.j.8.) T ) 6.b.6.#.A 1 # - w ~ e.v.M.L.W.4X7X/.^.R.R.!.).zXzX_.P.P.!.!.!.!.P.!.^.F.K.!.^.!.!.^.^./.).).).).~.!.!.~.zXlXP.F.).zX6X^././.R.F.F.K.!.P.!.(.6XzX/./.xXFX0XE.E./.6X0XxX6X/.^.).).).^.^.6XK.g.g.F.L.J.n.&.H 1 8 l J y.| T ^ 6.u.8.6.b.Q.N.j.j.j.9.<.z.J.R.K.K.L.L.H.H.L.L.l.g.x.k.d.7.j.m.M.H.H.H.R.K.D.^.).!.D.R.D.c.c.H.D.D.D.D.D.D.S.D.D.c.S.D.H.H.H.R.R.R.R.R.R.R.R.!.F.E.M.i.t.V 0 7 j  .u.M.f.m.f.w.5.+.+.t.t.u.u.e.O.O.X.Y Y ) 5.4.b.OXB.b.N.M.7.k.M.Y.Y.Y.Y.M.k.W.W.W.4XeX8XW.J.N.b.j.j.j.v.j.j.w.7.7.7.8.w.j.j.x.x.x.l.f.7.f.j.j.j.j.j.k.m.H.H.m.z.M.f.k.J.M.=X9X9X9X5XQ.Y.T.=X%X%XN.q.6.6.q.q.4.5.w.N.Q.Y.H.H.m.k.k.M.M.j.7.5.m.N.J.M.M.J.R.J.M.j.M.Y.m.j.z.k.M.f.7.,.8.N.b.e. .W x u 4 m %.N.J.J.R.J.Y.T.W.E.E.E.W.W.R.H.x.l.f.x.J.x.h.j.k.k.x.f.d.f.k.k.k.m.m.k.z.k.x.m.m.m.l.c.S.S.x.l.h.l.j.h.f.f.h.j.j.j.j.k.H.H.J.M.N.J.j.j.j.j.w.j.j.7.j.j.J.Y.k.M.Y.M.Y.J.J.f.f.<.j.j.",
"U.U.W.n.@.8 - 4 W | q.8.5.W.c.S.6X/.^.^.(.^.^.^.K./.6X7X^.K.H.D.R.E././.8X0X8X(.^.zXcX^.D.K.R.H.qX8X4X8X/.R.K.!.).R.^.R.R./.z.h.b.,.R q.v.8.u.e.@.Z > @ > q ~ p.v.J.L.H.R.4X4X/.E.E.!.!.~.(.(.(.K.^.).^.!.K.!.^.K.K.K.D.F.D.R./.8X(.R.R.R.!.^.^.zX0X).^.(.(.).).0X0X/.R.!.(.(.!.).).6X6X).F.K.zXDX6XR.).xXxX0X0X6X6X6X6X/.^.^.6XE.^.!.F.K.^.&X|.[ q 4 i l Z W X.6.5.6.B.N.b.b.Z.b.,.R R 9.L.W.x.x.l.l.x.H.L.W.7Xx.x.D.D.M.m.z.f.m.H.D.c.D.R.K.G.3.l.l.c.Y.l.c.W.c.D.S.l.c.H.R.D.Y.H.D.D.U.H.R.R.R.R.~.~.!.R.R.R.!.K.Q.b.u.%.C 0 0 k #.n.%XM.J.m.k.j.q.q.u.0.q.u.p.O.| U E E X.9.B.N.N.j.8.q.q.q.7.j.j.k.j.j.M.J.T.-XqXqX4XE.R.Y.M.j.8.8.j.j.w.8.7.8.5.5.8.8.j.j.m.H.H.m.j.f.j.m.j.j.j.j.k.M.H.J.J.J.E.m.m.M.j.Y.Y.Q.&XQ.T.T.=X;X&XXX0.U Y Y _ X.R 4.j.M.m.M.M.J.J.k.j.j.j.j.j.v.j.N.J.k.f.f.j.h.M.j.k.Y.k.f.j.j.,.9.M.M.b.M.q.i.|...Z y 8 B %.C.M.L.L.k.k.N.T.Y.Y.T.E.Y.H.x.k.z.L.x.j.l.x.M.k.z.M.x.m.J.J.M.x.x.R.L.H.x.x.x.l.l.D.H.R.L.H.x.x.z.x.j.f.d.f.j.k.M.z.x.M.M.M.M.T.T.M.k.q.,.,.5.q.q.N.m.J.m.7.j.M.k.j.f.j.,.<.:.f.M.",
"R.W.T.O.} 8 @ 4 z &. .+.w.Z.l.U.c.x.Y.Y.Y.R.Y.D.R.R.R.H.D.x.H.Y.Y.Q.R.Y.R.E.^.R.^./.R.^.R.8XR.D.Q.eXW.Y././.R.!.U.R.)./.Y.W.8Xx.9.) 7.T.5XT.u.%.=.z % @ - q ~ e.q.T.M.k.-XeX=XE.W.R.H.R.R.K.!.(.(.(.^.R.^.^.R.D.R.D.D.Y.Y.D.x.D.R.R.U.F.R.!.!.!.(.).0XzXxX6X!.R.^.W.^.W.^.^./.`.).(.).).!.!.~.!./.7X6XxXxX6X6X6XqX6X4X^.7X4X7X4X^.`.!.~.7XE.N.e.H 1 3 3 p Z S u.:XC.b.b.u.6.6.0.q.q.j.m.Y.W.K.c.f.j.M.x.h.2.l.L.R.x.c.H.L.z.h.z.d.S.L.H.D.L.R.R.c.z.z.c.x.M.H.H.x.x.c.c.c.D.R.R.D.Y.R.R.W.W.~.R.R.Y.Y.R.^.!.R.K.S.W.=XB.t. .B 7 7 j %.n.v.m.S.L.K.S.f.7.q.q.0.0.t.| U U X.6.6.4.M.v.j.j.q.q.0.q.w.j.j.j.j.M.N.J.J.H.Y.E.R.D.D.H.j.q.q.q.q.q.q.v.q.q.w.w.j.j.v.v.k.M.M.z.j.k.k.j.M.k.j.j.x.J.R.T.N.N.Y.Y.N.M.k.k.N.N.J.T.T.C.C.Z..X=.A B B P | 6.u.v.M.N.Y.Z.b.k.f.k.N.M.j.M.N.N.j.j.b.k.j.w.h.j.j.j.j.k.Z.T.Z.N.j.b.T.C.j.v.N.N.OXO.I k h k %.OXN.H.K.J.J.C.C.b.C.N.k.M.Y.T.E.T.=X4XM.x.L.x.H.H.H.M.x.x.D.H.R.E.^.R.K.K.L.D.c.l.x.c.z.x.x.x.x.z.j.j.j.h.7.7.h.j.k.M.M.M.M.N.b.8.q.q.6.X.X.0.a.A.N.N.M.v.j.M.M.M.v.M.j.,.9.j.8.R ",
"E.W.N.O.} 9 # > a } ] X.k.Q.c.c.c.x.c.h.l.Y.8XcXR.K.D.D.D.H.Y.Y.Y.x.x.Y.D.c.G.R.~.D.l.R.R.E.D.Q.d.Q.8X8X).R.U.).DX).~.~.R.W.8X'.>X&X=X4X7XY.b.y.} a % # > h ! u.N.W.Q.Q.T.j.h.Y.-XR.H.R.(.).(.^.^.).4XR.D.H.R./.D.c.l.D.Y.Y.Y.R.^.~.!.!.!.~.).).!.(.~.~.).(.!.!.R.U.R.^.0X0X).R.~.!.(.).~.~.).~.F.!.).zXxXcXvXvX6X/.^.^./.4X7X/.`.zX_.).).^.N.y.Z > > > p Z P s.:X%XB.8.X._ X.6.i.C.T.Y.J.L.G.g.Y.T.Y.J.W.4XD.:.2.R.E.c.l.J.Y.m.z.l.S.E.4X4XQ.H.H.H.H.J.Y.Y.Y.Y.x.D.c.c.h.h.h.l.H.R.^.^.W.R.W./.x.x.x.D.K.R.K.K.S.J.N.B.s. .v 7 7 h  .t.u.M.J.^.K.S.z.7.5.6.0.O.t.o.] | o.t.i.B.%XN.v.q.6.X.| | 6.8.j.b.b.N.N.C.N.M.M.m.k.x.H.W.j.q.8.8.q.q.q.8.j.j.j.j.j.v.v.v.j.m.k.j.j.j.j.7.j.j.j.j.x.H.Y.J.M.M.N.M.k.k.k.M.j.k.J.J.Z.b.w.+.%.Z y h A @.i.i.b.N.J.Y.N.k.w.w.M.k.j.j.M.J.j.7.k.v.j.j.j.j.j.w.,.1.w.k.N.C.T.&XC.Z.C.M.j.v.N.b.i.O.] k 8 0 [ a.B.v.m.H.N.OXoX{.u.i.b.b.n.n.Z.C.N.%XM.M.T.J.T.T.M.M.m.k.x.H.L.K.S.S.H.H.L.H.H.x.x.l.j.h.j.j.k.j.k.j.j.j.j.j.j.j.7.f.j.j.v.v.v.q.+.X.T Y U ..%.t.b.B.v.8.9.8.u.v.%Xb.b.%X&XN.q.q.",
"R.H.j.X.[ y - - M *.] o.n.Y.U.R.R.R.R.c.l.l.F.R.).!.K.K.R.E.^.W.E.H.D.R.Y.S.D.(.R.F.S./././.Y.R.H./.0X8X^.G.G.(.`.U.D.U.R.'.'.Y.b.C.=XW.E.J.B.s.} p % # 1 h ! u.q.M.N.N.j.,.<.M.z.L.E.E.K.K.!.(.!.!.F.G.G.F.K.K.R.D.S.D.R.R.R.U.U.!.!.F.F.F.!._.P.!.F.F.!.!.!.(.R.F.F.F.~.).~.].~.!.).hX_.).hX)._.hXzXhX).).(.!.).(.~.^.).).).~.!._.I.I.I.S.f.^ v - % > y Z W a.%X;X%Xu.X.T T T X.u.C.Q.J.L.S.S.M.v.f.9.k.W.W.H.l.K.W.L.H.J.T.Y.J.z.S.^.qX4XR.L.H.H.H.J.Y.Y.L.H.Y.Y.H.x.x.z.c.x.H.x.l.<.<.1.D.W.x.z.z.z.S.L.K.K.S.m.v.B.a. .j 7 7 0 W e.r.v.f.L.7.7.7.8.6.6.O.%.] ] U ]  .#.t.u.6.6.+.o.o.........O.t.a.a.a.a.i.+.t.u.q.q.v.M.N.5.9.5.f.M.J.J.J.m.m.k.m.m.m.M.M.M.H.J.m.m.m.k.j.j.l.z.m.J.J.L.J.M.M.J.M.k.k.H.R.L.H.H.M.M.j.w.6.#.S k N ] a.A.N.-X=XJ.m.f.7.w.j.k.M.J.M.M.M.M.M.T.N.M.M.M.M.M.M.N.T.M.j.j.v.Q.>X-XN.j.8.8.b.N.i.a.y.*.V y h @..Xn.B.B.v.6. ...[ | O.t.t.0.0.t.i.i.C.b.b.N.v.B.b.M.M.v.v.v.m.m.m.7.7.f.v.M.M.M.v.m.k.j.f.j.j.k.m.k.j.j.j.j.j.j.j.v.8.8.q.q.8.6.6.o.| P P ! ......X.6.6.6.6.u.|.OXN.6.8.C.OXq.4.9.",
"F.S.j.+.[ h 1 1 7 ' %.XX&XM.x.Y.D.R.R.F.F.F.F.F.!.K.F.S.D.D.D.D.H.J.L.H.H.E./.^././.K.z.l.R.^.W.E.D.D.E.0X).).zX(.`.).R.W.0XQ.1.9.q.M.m.d.<.X. .' i % # 1 h ~ e.v.J.M.7.1.,.,.R <.x.R.L.G.G.K.!.(.P.K.P.^.^.K.F.R.F.G.F.F.F.D.F.!.!.~.!.!.!.~._.P.!.F.F.P.!.!.).).).)._._._.).kX_._.).hX_.hXhXjXhXbXbXkXkXzXzXhXzX)._._.).).~.!.]._.I.P.P.S.f.Y h - > < i m Q {.@X<X*XB.o.! U Y T 6.OX&X=X=X7X4XJ.M.m.M.j.f.z.J.J.M.m.Y.Q.T.J.T.%XJ.H.J.H.m.m.M.M.M.J.J.T.J.J.M.N.N.N.M.M.M.N.T.j.j.k.j.f.7.f.j.j.j.j.j.l.z.S.m.m.V.r.p.y.W f 7 7 0 W }.B.r.9.9.9.f.B.B.u...! I S A ' { [ .. . .o. .! ! W A S A W ' } @.} [ ' W B ] %.s..XXXa.u.8.8.j.m.N.B.v.f.v.f.f.f.j.v.m.m.B.B.B.B.v.v.j.j.f.f.f.j.v.m.m.m.j.v.v.j.f.f.m.M.m.m.v.v.q.8.9.5.U P S W ..t.i.n.;X=Xm.d.<.7.w.b.8.M.%XN.8.9.v.C.B.v.v.u.v.v.v.b.v.v.q.9.4.8.N.&XB.6.^ T X.u.n.a.#.@.} l 8 u } *.%.e.p.e.P j c v Z I ] ] W U !  ...t.o. . .^  .O.t.e.6.6.6.6.5.5.4.6.6.u.p.i.p.u.v.q.8.8.8.q.u.v.v.u.u.u.v.v.u.6.u.O.o.O.o.^ ! ! P C j j B A A S P W ! W I ! |  . .o.o.o.O.e.6.X.",
"I.G.M.6.] 0 1 1 7 Z ] s.A.8.j.W.E.R.F.L.R.!.!.~.F.F.S.S.G.G.l.l.7.f.f.j.H.W.W.K.K.E.R.l.g.l.x.k.M.<.1.R.cXcX6X/.^.8X/.H.Y.T.x.7.q.6.5.9.R E _ %.( u % > 1 c ! e.b.M.v.j.8.f.7.,.j.k.l.z.S.J.K.D.F.P.^.^.K.G.G.F.G.S.G.G.G.S.F.F.K.P.!.(.(.(.P.F.I.P.P.F.P.P.!.)._.).hXhX_._._._.hX_._._._.(.hX_._.hXkXhXhXzXbXkXkXhX_._.).)._.!.(.(._.lXlXP.V.C 0 - , < e z Q }.@X@Xa.^ P P P P ~  .u.n.N.N.N.J.%Xv.8.u.v.8.8.j.v.B.B.v.b.N.n.v.B.n.u.5.T X.5.6.6.6.8.u.u.q.6.6.6.O.+.O.O.O.O.6.u.i.i.n.i.u.6.+.O.6.q.8.8.8.8.9.8.e.#.@.[ v 7 ; t 0 [ |.*XgXB.m.V.M.J. Xs.O.! A K K ( ' ' ' Q W Q H Z V v y y 9 p l x M x p 9 8 8 x ' *.-.-.&.@.O.r.n. X Xn.B.u.B.v.u.v.B.B.N.n.p.s.p.i.i.p.p.p.p.i.u.u.p.B.n.n.i.i.u.u.v.v.u.u.8.u.n.|.n.t.o.! C I  .&.&.s.{.#XOX XB.B. XOXOXOXOX|.p.u.e.e.e.e.t.t.t.e.O.O.e.t.O.e.t.t.e.O.o.| ~ C C N C ! %.&.} J G 8 4 9 F m A A ! ~ B q p p y y h h h h c v A Q V B B c A Q $.@.@. . . . . .^  . ...@.....[ #.#.#.#.#.#.#.#. . ....... .] W A B B V V V V Z l g 0 0 q q q q p l l z z b v c f k v k B W W A ",
"F.G.H.6.I 7 ; 1 z Z H ..a.q.C.&X5XW.H.L.H.D.S.S.S.D.L.L.S.z.l.f.8.) 4.v.T.J.J.=XJ.M.J.M.J.f.f.j.j.R R v.T.Q.Q.Y.L.Y.M.Y.M.7.,.q.T Y R T R T | @.K u % > 8 v [ t.8.4.8.N.v.8.v.N.q.f.f.f.z.M.L.L.S.S.S.S.g.g.g.l.d.l.z.z.g.l.l.c.G.S.F.K.P.K.S.g.F.K.K.F.K.F.F.K.P.K.F.K.!.!.P.F.(.(.(.!.!.).zX).).).).(.~.!.R.R.).).).).(./.)./.^.E.^.6X7X=XV.N t - , 5 5 p H *.$...~ C c c j j c S W  .e.u.r.u.e.e.o.^ o.u.p.u.u.e.u.u.O.^ ^ O.[ [ W S C P A B A P P W W W P A S A A A S A A A @.[ W W W W W W I ] .. . .O.o.! ! ! W H m q - - 1 w Q }.oX:X:X;XB.B.B.e.#.~ W J M x z z l z z l p q 8 8 8 4 4 4 > 4 < < , > > > 4 9 p a x M M v B P  .$.#.#.y.y.#.#.#.#.#.#.t.#.@...@.$.@.$.@.$.&.%.$.$.$.%.%.#.%.$.#.#.#.#.#. . . .#.@...~ W A V Z ' } } } } @... .^  .y.}.{.}.}.@.W W [ [ [ W [ [ [ W H A H W ..@.@.} ' W A c f w w 7 7 z G K *.K F e 5 i x p z f f c l q 3 > 4 1 > > 4 4 3 2 x F p w w 7 r b G G G G G G V V c c l l l l r q w 0 q q q q q 0 h l l l l h q w 9 1 1 2 3 2 3 9 3 2 4 2 , : > > # # > < i a a q 8 9 p l z v v v ",
"L.z.m.o.A 7 1 1 p K @.=..Xa.XX0.q.8.j.m.N.M.k.k.f.f.z.m.v.8.4.R 6.| X.u.s.e.u.n.:Xu.6.X.u.u.|.OXT D E +.u.N.;X:X&X%XC.%XA._ Y  .] ! ! | | U S v K u % > 8 z Q $.e.^ 5.i.6.^ X.6.T X.6.6.6.8.v.J.T.m.f.f.m.m.j.j.7.j.k.j.j.j.j.f.m.H.L.J.R.J.m.z.z.H.H.m.x.z.f.k.L.M.m.m.J.Y.R.J.H.H.L.L.L.4X8XW.W.E.W.4X4XQ.E.W.Y.Y.T.Y.J.N.Y.Q.C.N.J.%XN. X|.H ; : & 5 e e b J G V v v z q 8 7 q h V Q @.@...#.I  .%.$. .! ! P  .W W ~ A f f V l e 9 8 i p q 4 p p p x x z z p q 9 i i i p p p p p z x x p i 8 y z M b Z H Z z l l u 9 5 , + % 1 7 V J Q @.$.t.#.#.! H v q 7 1 4 > > - - - ; - e 2 > > % # # # > > , , > , < 3 3 < 4 4 4 1 1 1 8 q y l y q q q l l h h h l l l l u y l l p p l z z l z z z l l l l l l l l h g c h q w w 7 w 8 8 8 9 i 5 2 2 1 q w 7 w q z x x p q 8 q q 9 q p u u q 8 4 1 4 7 q p u 8 8 p i 9 - # # # O # 5 e F p i , , > i 9 p 1 1 9 1 # + . % # # # # # # # 3 i , : # O : , : > 1 1 1 - - - - - @ @ @ @ @ O # # > > > # # % @ @ @ @ @ O O O + $ + O + + + . . . . . . . . . . X X X + + + O % # > 4 1 - - > ",
"J.f.v.o.A 7 9 i F *.*.Z A ] .X%.O.6.6.t.u.q.u.v.B.u.v.B.B.e.^ Y S W W P A W ! ! W W  .! }.{.}.! I B P #.y.a.{.#...t.%.%.%.] ] %.*.*.@.[ ..@.' b ( s % % 4 p H [ ! Y U | |  .O.~ ! P U  .e.e.t.p.e.6.r.r.6.+.5.r.5.6.u.u.i.n.N.i.u.u.b.B.v.u.u.r.u.B.v.r.8.6.+.6.T +.u.n.u.6.6.6.X.+.6.6.u.n.OXn.b.i.n.OXOXu.0.u.0.u.u.6.O.+.6.t.#...O.t.o.t.}.K 1 , & s i e n L L x p p i 3 3 e 3 9 p b F v l h Z l h l h 0 0 c g l q 7 7 q w - % @ @ % % + + % # # # % > > % % % % > % % % % > # # # # @ @ # > - > 1 1 8 q 8 1 4 4 # @ % & * * , 4 p 8 1 0 w 0 0 w w 7 1 > # # > - - - 1 1 - # , $ $ $ % % % > , , , , , 3 e i i 9 i a p i 9 i 4 4 4 4 4 4 4 1 4 1 1 1 1 > > > > - - > > - - > - - - 1 1 1 - - - - ; - - - - ; - - - - - - - # # @ # $ + . @ , # - > 1 > > % # 4 - - > > - - - > > - # # # # # # > > # # # @ O @ @ @ O . O & # 3 - > # # @ 5 e 2 - - 1 @ O + + . O + O O O O O O $ . O O . O O O O O @ @ @ O O # @ O O O O @ + . . X X . . . + + + + + . . + $   . .     X .   X     X + X . .     X . X + + + + # # # # - > > ",
"B.n.a.}.' 9 3 i F F x x x v K Z A W W ] [ ..@.#.y.%.y.}.&.[ A V b z p q y l l l b q w q b G b q y h b J J Z v v v k v Z K m m G ( K ( J J K m x F < + & < 4 x } ~ ! W ~ [ @.} Q Z H H A H ' ' W W W W W W ] @.&.@.W A ] #.=.%.y.%.#.%.%.%.#. .] .. . .[ ] ! W W I W W W W W A S S V B V S A W W W ~ W ~ H S S H A J Q H V k k z p z z l z G F x < 6 6 6 5 e p p e i i 5 6 5 6 & & & % > > > 2 3 3 9 1 # > > - 4 - 4 3 4 > - > > + + + * * + X + + + # % % # + % @ @ # # # @ # > # # # > > > - # > > > > > - - > - > > @ # & & % < 6 < % % > > # # @ # # % + X + 3 - 1 q - - 3 , O & & & 6 & , < e 9 8 q p q q b l p p z z z h q 9 < < < 3 > > > > > 4 > > > - - - - - - - - - - - - # - - - - 1 - - ; ; - - ; 1 ; - - - - # # # # % @ . X . . + O % > # > # # > > 4 1 - - 3 4 - > > > # # > > # - - - - > > # O O # $ @ @ + + @ - - - - - - > 2 4 1 - # @ @ + % @ # # @ @ + @ + $ + . O & $ . + . + $ + . . O O O @ + + + + + . + + + + + + + . + X + + $ $ + X + + + + . . . . . . O $ + . . . . % + # @ O > # # - 8 w l q q 7 ",
"t.y.$.' x > < < i a 9 3 4 1 9 4 8 9 u l z b Z Z K Z Z H m l q 9 3 > - # # > > > # # > > > > > > > - > 3 3 1 1 8 4 1 4 9 u 4 4 3 < 3 4 8 8 4 > # s & % & < 3 a b l V H H Z b l q y p p 9 q l y w 8 8 8 w 8 9 l z z q 7 w y y q y z z v b b b z l l l l h h y y q 7 8 8 9 9 8 4 1 4 1 > > 1 4 4 8 q q p p q 3 3 q 3 9 9 3 4 > > > % % # - - 1 , # + + $ $ , < 2 2 # $ $ + + $ + o X X X + + @ @ # % > # @ > , > 5 > < < < < < < , & & & & & & , < , % # > 3 3 < > - # - - - # - 1 1 4 8 4 7 7 7 7 8 8 8 w 0 0 8 7 7 7 8 9 i a a i a a i < > - - # # @ @ @ @ # % < 8 0 b b w 8 i , + + + 6 s 5 3 q q g q z v c c H Q H A Z A H Z v x a a a p 9 9 i i u u 8 4 1 8 q q q y y y l z b l l l z c h 0 0 h l c v B V Z H v v z v z z z l > 2 > $ & & $ @ # 2 > - - 1 4 p q l z l z b m b F K } K p 7 7 8 l l l l q 8 9 9 - 1 1 - - : , 2 1 ; 1 1 7 7 q p p q q 9 3 4 > # # - - > > % # @ # $ & $ $ + $ $ + + $ * & & , < 5 < , # $ & , < 3 < > % # % > , # # > # # @ # > O @ - - # # # - 2 - 2 2 2 2 9 9 1 1 - 1 7 8 z V ' Q } @..XoX.X$.",
"@.*.J b u > < < 5 i < > - @ % # % % > > > 4 4 < i 3 4 2 > # # > , & $ $ $ $ $ $ + $ & & @ O @ % % @ # # $ # # , # # # # # # + + % % # > > > # # % & & % < i a q 8 8 9 9 4 > > 2 # > > # # > > # @ @ # @ @ @ # > > > # # > > > > - - - > > > > > - - - - - - - # # # # # # + + + + + + + + + + + O O @ @ @ O O @ @ + O O + O . . + X X + @ @ O @ $ $ & , 6 2 2 2 $ + O + X X X o X X X X + + + + # % # @ % % % & < , , < 5 5 3 3 e i a a p q 8 w w q z G ' *.*.} V B B S S S A I A W  .@.%.}..X.X{.s.%.#...[ I A I [ %.}.}.-.}.oX.X}.*.' Z v h f f 0 0 0 h z m H [ *..X}.} } } a % + + & s i a G H ~ ~ ! [ ! ! #. . .! !  .O. .! Z Z A H A A J ' H @.oXfX3X#Xs.@.$.y.y.y.a.{.+X<X1X1X1X3XfX3X1X1X#X#X+X#X+X<X<X<X<X<X1X3X1X1X1X$X$X.X( e 2 3 3 3 9 z b V W [ @.&.}.{.y. .A P s.1X3XfXfXoX@.~ @.}.$.%.y.#... ...$.@...[ H A V V V v c c c c c B Z H V z z z x x x m b y 8 9 q q 9 2 , < , # , 6 & < , % > , < 2 4 - 1 3 9 9 9 3 4 0 q h l g q 0 0 w 0 0 0 0 f c v ' ' W A B V W @.$.&..X#X.X.X{.%.oXy.}.{.oX+X+X<XdXyXdX3XZXZXaXv.",
"V b q 4 # + % & & < % % @ O @ . + + % # # # # # > # # @ @ . @ & $ + o o o X X X o o X X + + + + + O + + $ + + + @ $ * + + * * + + # # # % % % % & & % % < a a i 9 - # # > # % % @ + # + + $ # @ + @ $ + @ @ + % @ + # + + % % % # @ @ @ @ @ @ + @ @ @ @ @ @ @ @ X X X X X X X X X X X X X X X X . . . X . . . o X . . . X o X o X     + @ O O @ @ # , < 3 2 2 2 , O O + + . . $ X X X + + + + + @ @ @ % < 5 s i s 5 5 i a a a p b V V v B S W ~ [ $.y.y.y.XX@XXXXXXXXXOXOX@X@X@XOX*X2X*X;X2X2X:X&X&X:X:X:X:XOXOXn.OX1XyXyXyXyXAXAXdX3X3X2X2X1X*X|.|.XX@X+X<X1X1X#X1X3X1X#X$XoX} < % & % 3 F } }.{.oX|.|.|.a.n.OX@X@XXXn.n.|.i.O.#.%.y.a.a.A.@X1XAXdX3X<X@X@X*X<XOX:X*X*X*X<XrXpX*X:X:X;XsX2XrXrX;X;X:X%X:X=X:XN.;X:X;X;X*X;X<X<X1X$X*.b p p p l Q $.}.oX<X3XZXKXPXaX%XOX*X2X<X*XaXZXKXKXyX2X<X<XOX%X%XOXN.n.|.OXOXOX|.n.a.a.{.}..X{.{.{.{.{.XXoX#X#X.X.X.XoX$X$X@.s..XoX.X-.' H K p 8 3 < 3 3 > 3 4 4 9 u y p l z b V b Z K ' } %.s.{.XX|.}.y.y.y.t.e.e.y.|.XXXX@X*X1X1X<X*X*X<X*X*X<X*X:XaXdXyXKXpXKXuXpXKXuXMXuXMXLXiXiXiXMXJ.",
"7 1 # % # . % & & < , , % @ $ + + X + + + + + + + + @ + + . + $ X X o o o X o X * X X X $ $ @ O + O + + $ + + + + & % + + % & + + % # # # % % % < % # % 5 a a x e , : , < # O . $ $ $ + X X X . . . X X X X + + + $ * + + + + + * $ + X + X X . + + + X + X + . X X X X X X X X X X X X X o o o . . X   . . . o . X o o     o o + X + $ # @ @ > : , 2 e e r r 9 5 : @ + + O O + @ $ # % % % > > 2 2 3 i a a a a x a x F F F G Q [ #.{.|.XX@X@X@X*XsX:XN.b.%X>X9XuXuXuXuXiXiXiXuXuXiX9X5X=XW.L.j.M.J.=X=X=X-X5X9X-XQ.%X9XtXuXuXuX5XW.Y.=X9XuX9X9X4X4X4X5X9X9X5X-XZ.Z.%X&X&X+X#X}.a > < > p *.oX$X<X3X2X:X:XOX%X;X%X%XOXC.OX*X;XOX%X&X;X;X&X%X;XrX&X%XC.C.C.N.B.j.J.J.J.J.J.T.E.E.=XE.E.=X=X=X7X5X5X5X5X5XqXMXnX5X7X=XE.J.J.T.%X%Xp.}. .B f l V W $XdXaX2XrXSXKXPXSXMXMXMXMXiXMXKXrXiXKXLXLXKXSXSX9X5X4XQ.Y.J.J.J.M.M.M.N.N.N.m.B.n.n.n. XOX XOXOXOX+X1X1X#X+XoX@X@X*X1X1X+X@X#X#X}.J y y 9 8 4 8 8 y v A ] ..%.{..XoXoXXXXX<XyXZXZXKXZXpXpXpXVXSXKXKXKXSXMXKXKXKXKXSXSXKXMX9X-X&X=X=X-XT.J.4XuXuX7X7X7XS.S.5X5XnX6X5XFX5X4X5XMXR.",
"- - @ , < * < s s i 5 5 5 & & & $ * * * + + + + . + + $ $ + X X $ & & = * * * $ * * * * $ $ & , , & $ $ $ & & & & & & $ $ & & $ & & , , , , < < < % > 5 i p a x 9 < < < # + + + X + + X o o o o . . X X o o X X + * * * * + $ $ $ + + X + + + + X X X X X X X X * * $ $ + + + * X X X X X X X o X X X . . X X     . X       X + & % , < 2 1 1 1 2 2 r p l n n l r 2 - - - - - - - > > 2 2 2 3 4 p 8 p x z x l q p p z G H Q [ %.oX2XyXaX2X;X%XN.&X=X=X=X5XMXnX5X4X0XwXwXcXcXcXcXcXxX0X0X0X8X6X4X0X8X8X4XY.J.Y.Q.E.=X4X4XR.L.W.wXcX6X^./.0X8X4X^.qX6X7X7X6X6X7XE.M.Z.W.Q.N.v.{.$X( 4 , 1 x -.{.t.OX;X:XN.N.N.N.T.M.M.v.v.N.%X>XtX&X%XQ.Q.T.N.Y.Y.Y.J.M.M.T.=X4X4XR.E.R.E.W.^.E.E.^.^.7X6X6X7X7X6X4X7X4X7XxXmXmXqX7X7XE.J.L.L.J.T.OXXX..j f f A $.+X3XrX5X9XnXMXmXFXnX5XqXFXLXLXLXnXnXuXwX8XwXMXLXqX4X^.E.E.E.R.K.K.L.L.J.L.m.z.f.N.N.C.T.Y.M.m.m.v.b.N.N.i.u.u.b.7.M.Q.-X%XN.i.i.s.[ B h k y h K ' ] %..X@X+X2XyX;XrXpXtXuXtXSXKXMXiXiXiXiXuX9X9XMXLXIXPXFXHXLXLXLXFXnXnXwX8X8XqXnXnXFXFXnXqX6XE.S.P.7XL.L.7XqXwX8XR.^.H.c.Y.4Xg.",
"# > # > & % 6 6 i i 5 5 5 & , & 6 & & & & * $ + $ $ $ $ $ $ $ $ $ $ & & & * * * * * & & $ $ & , , , & & & , , , , , , , , , , , & , < < < < 3 5 s 3 e a a p p p 9 3 , # O + & = . X X o o X o $ X X X X $ $ $ $ + X + * $ + + & * $ + + $ $ $ $ $ $ $ $ $ $ $ $ + # # @ @ + + + . X + + . . X X + * + + + $ $ + + + + X + * * & : 2 e r q q q q r l v L G G G G V v g q q l l p p p l l l l l l l h b K K J J b q 0 g A ! $.{.@XZXpX;Xv.4.8.v.M.T.R.E.6XcXqX^.L.R./.0X0XqXcXcXcXDXcX0X8X(.!.).cX0X4X4XQ.Y.Y.W.5XT.qXnX4Xc.l.R.wX'.W.T.W.-X;X;X5X;X=X=X=X4X4X7XR.E.8XqX8XE.m.i.oX} 1 1 8 v @.| T u.C.C.b.v.m.m.M.9X=XQ.T.Z.b.C.&X&XQ.W.-X-XW.W.-X-X=XW.Y.H.H.H.L.R.R.R.R.E.E.W.^.R.R.^././.E.!.^.R.W.W.E.^.7X4X^.^.E.E.K.Y.J.Y.C.6.O.] C v k S @.t. X%XT.7XcXxX6XK.6XnXnXcXcXnXnXR.R.W.4X8XW.E.E./.E.H.D.H.H.H.L.H.H.K.W.7X7X^.W.T.T.E.E.K.S.S.S.j.f.9.,.,.7.f.z.D.F.D.S.z.k.N.C.0.0.Y k I [ } .XXXA.*XtXtX9X9X9XwXwX7XL.S.K.xXFXwXiXGXLXLXGX9X4X4XnXLXLXLXLXLXFXJ.Y.8XFXLXFXnXnXnXqX9X8XW.R.R.L.l.K.^.6X7XJ.R.Y.Y.<.7.,.7.M.8Xj.",
"> i 3 < < < i 5 d L a a a 5 e 5 , , < , < , , , , , # $ # & $ $ , , < < < < & 6 s 6 < < 3 5 3 < 5 5 e e 5 e 5 6 < , < 5 3 < 2 3 < 5 5 i i i i a a a x z l l l p 9 9 < , < 5 , @ $ $ % $ + . X + + @ + @ $ $ $ $ < % % < < % % < % % # # # # # # % % % % > > > > 4 4 4 4 4 1 > > 4 4 3 4 > > > > > > > - > > > > < > > > < 3 3 9 l V H H W W W W ~ [ $.%.}.}.}.}.}.{.y.$.t.}.{.}.&.&.&.&.&.&.%.%.y.#.s.}.%.$.[ V h f j ~ p.@X2XdXrXtXuX%XN.J.=X=X5X5XqXcXqX8X8XwX/.0XcXqX0XzXbXbX0X(.!.R.D.l.!.cXcXqX4XW.W.4XeXeXGXGXnX8X/.0XqX0XeX8X8X8X;X&X-X;XY.Q.=X&X5X9X4XY.E./././.W.M.0.#.} - 1 y v ] T +.8.N.OXM.M.M.M.M.Y.J.Y.&XT.b.M.&XQ.Q.W.=X-X-X-X8X4X9XqX5XT.J.H.R.H.L.L.L.D.D.R.E.4X/.^.E.K.S.G.L.K.E.^.E.E././.R.c.x.D.H.H.J.J.N.v.O.I j h h W y.a.%XN.z.L././.^.E.E.H.D.R.0XwX7X5XR.L.W.4X4XW.E.8X/.E.R.H.H.D.D.R.H.H.E.^.E.R.R.Y.Y.E.W.^.E.E.^.L.k.f.f.j.k.z.l.2.l.S.K.R.Y.Y.Z.q.Z.U k %.#X.X+XA.Z.%X9XiXqX4X4XwXcXxX^.K.!.6XcXwXqXqXnXGXGXcX0XE./.wXnXHXLXcXE.Y.W.9XnXnX4XR.E.x.z.L.4XE.Y.H.H.^.7X^.nXwXH.Q.&XQ.<.7.9.9.b.eXC.",
"8 i a a i i a x x M F x p x x 9 i < 3 i 3 3 3 2 > < 3 3 > # > i 3 u u < , 3 s 5 s 3 i a i i p l l g n x p i a s < s s 5 e p e 4 e i a i p p x M b m G G K H m h y z p y y p i 4 8 4 1 4 4 4 4 > 3 4 4 4 4 8 7 8 8 8 8 8 9 q q y y y y y y q q y y h h h h z Z J W W W P C A P W I @.@.A S ' ' V B A S B Z Z Z H J ' ' J ] ..%.%.t.*XyX2X>XaXpXrXKXtXpXKXtXtXKXKXKXBXBXKXKXPXKXpXKXKXKXKXBXuXuXMXKXVX2X:X;X*Xn. .l 1 z } |.sXsXaXrX5X4X-XE.L.Y.=XY.L.R.4X5X4X=X4XwX0XzXcXcX0X).0XzX6X(.R.S.l.R.4X4XwXcXwXwXnXGXGXGXFXGXnXnXnXwXE.E.Y.4X8XW.4X4XR.8XL.E.4XT.M.J.J.j.k.R.W.W.T.OX.X( 9 > 9 z }.@Xn.&X&X%XT.T.T.J.N.&XN.H.=X5X&XQ.=XY.Y.M.k.j.j.x.H.5X=X=X=XQ.Y.Y.R.L.J.L.L.L.L.R.R.E.7X7XE.K.K.E.E.E.R.R.E./././.^.E.R.R.W.J.x.f.j.8.^ A z y y S s. X9X4XL.4XcX8XE.R.x.c.H.Y.H.H.L.E.5XW.x.H.4XW.z.Y.8XT.x.x.x.Y.H.D.Y.E.E.R.E.^.R.Y.L.Y.W.4X4XE.H.x.k.M.Y.N.M.M.Y.H.H.Y.T.Y.H.E.8XN.b.Y k ` @X>XT.&X9XeXGXFXnXwXxXnXFXcX^.R.D.x.W.8XMXwXFXDXwXnXwX4XwX6XcXnXnXwXY.M.8XeX8XwXnX8XW.E.Y.H.E.0X0X4X^.R.6XwX4X7X0X^.x.W.R.M.T.T.&X>XN.",
"l q q y l b z z z v H H V V V c z y z z y 9 y p y u y u y q 9 q 7 8 y y y p p i a p p x z l z l B c V b l a a i i a a a a p l p u p p p z m K K J Q ' Q ' { [ { } } } { { { { W A Q ] ] ] ] [ @.{ ' { [ ..@.@.@.=.@.@.@.#.%.s.s.{.s.{..XoX.XXXoX.X.X.XoXXXoX+X1X3X2X2X2X<X<XrXaXZXyX2X2X1X+X*X3X<X2X<X<X<X#X+X$X3X3X3X1X3XZXZXZXPXKX9X-XQ.Y.R.=XL.H.R.5X=X5XuX9XqX7XqXcX7XE.E.E.7X5XMXmXqX7XE.7X8XqX>X-X5X5X%Xy.b > 4 H a.sX5XsX9X5X7XE.5XnX4Xg.k.z.k.J.Y.Q.W.4X8XqXcXcXcXcXzX0X(.).0X/.4XwXnXDXLXHXcX4X0XnXFXLXLXFXFXnXwXwXwXwX4XE.W./.E.^.7XR.E.H.L.Y.m.m.M.j.j.k.H.m.H.N.@X$X} i > 9 m #XyX2X>XC.v.N.&X;XQ.Y.=XY.Y.=X=XT.J.J.M.M.M.M.M.M.H.J.Q.k.7.7.j.M.M.k.J.H.J.J.L.R.R.W.W.4X7XE.J.E.^.^.)./.^.R.R.R.E.^.E.4X8XqX4XQ.m.d.9.T H z 9 q C t.J.E.E.4XqX/.U.R.l.x.L.L.H.Y.W.4XH.L.Y.Y.Y.L.L.Y.W.W.j.k.Y.M.H.H.H.R.E.E.E.^.^.E.H.H.Y.R.E.E.Y.M.M.T.N.f.j.T.T.j.Y.M.M.M.Y.R.E.W.M.n.` k D t.T.Y.8XGXnX8XwXcXxX6XDXHXnX8X0XW.Y.W.qXnX8XwXcXwXcX/.6X^.^.FXnXH.x.Q.eXT.Y.8X8X8XwXcXnXwX0XqXxXqX0X6XE.0XcXxX/.E.E.7X4XY.M.5XuX;X;XC.",
"W A S P ] ..@.@.@.@.%.%. .W W W Q A A Q A A Q Q ] Q Q ' ' Q A A W A A W ' J J Z J H ' [ { ' [ ~ ~ H H Z z x a a s s i i q 8 u z b Z Z Z J ' } } @.=.&.%.y.{.oXoX@X*X1X2XyXZXZXZXZXZXVXyXyXVXZXZXZXZXVXyXyXyXyXyXyXrX2X;X;X;XrXtXKXVXpXpXrX>X;X;XpXpXpXpXpXpXSXVXrXrXrXrXrXrXrXtXrX;XrXKXZX>XOX;X*X2X<X2XyXyXVXZXZXZXZXVXVXKXKXKXSX9XT.Q.Q.Y.R.4XE.H.H.H.H.4X9X9XW.z.z.7XqX7X/.7X6X6X7XJ.L.L.E.^.z.H.N.N.E.-X%X{.b > u ' XXaX5X5X5XuX9X=XJ.E.R.H.x.l.l.h.g.f.l.H.^.0XcXxXcXmXvXzXzXvXcX8X8XcXnXwXqX0X6X4X0X8X4XQ.=X9XGXFXnX/.H.L.W.H.H.R.R.E.^.K.R.R.R.L.z.k.j.9.h.k.H.S.m.N.|.}.} 9 @ 4 b oXfXZXtXC.q.v.T.Q.Y.J.Y.T.Q.Q.Q.Q.T.Y.J.J.Y.Y.J.M.M.m.k.j.j.k.k.k.k.m.H.H.J.J.R.R.W.W.W.W.W.E.E.^.^.E.E./.6X8X/.E.R.H.E.4XW.H.m.J.J.m.4.T Q x 9 y C u.T.J.R.4X8XY.c.Y.c.L.Y.H.L.W.4XW.H.Y.W.4XY.z.x.Y.M.M.h.j.z.1.z.Y.R.E.E.E.E.^.^.E.H.Y.Y.Y.Y.Y.Y.Y.M.T.Y.j.j.Y.Q.m.z.x.Y.T.W./.E.H.J.b.` k I a.&X=X8XiXqXR.E.4X0X0XxXcX0X4XwX8X=X=X9XnXwXwXqX0XcX0X/.4X/.4XE.x.J.Y.W.7.M.9X8XW.8X4X/.W.^./././.6XxXmXwXwXnXqXE.E.6X4XE.J.Q.T.N.T.v.",
"|.|.XXXXXX@X1X3XZX3X3XyX<X|.|.|.+X{.XXoX@X+X+XoX@X<X3X3X1X#X#X1X3X1X1X$X$X+X+X#X3X1X1XfX3X3XyX1X{.$.[ H z z x a a i i a z l b J ' @.&.&.}..XoXoXoX+X+X1X1X3XyXyXSXFXFXFXLXLXLXLXLXMXwX9XMXGXGXMXKXLXFXGXMXmXmXMXFXmXnXqX8X5XwXcXcXqXqXqXqX6X6X0X6X6X6X7X7X7X7XW.J.J.T.%XE.E.E.T.4X9X9X9X9XtXtXtXpXVXpXrXtXaXpXKXpXVXVXpXSXKXSXiX-X5X5X=XQ.R.R.W.W.E.L.x.H.=XwXwXnXE.K.qXnXqX6X7X6X7XE.E.7X5X7XL.g.z.k.M.L.E.%X|.y - p ' p.J.N.J.uX=XY.=XqXnXnXnX4X4XW.L.c.g.l.x.H.R.(./.).zXzX6X).0X0X/./.qXcXcXcXxX0X7X/.W.W.W.k.Y.8XqX4XR.E.4XE.R.E./.4X4X7XE.^.W.Q.Y.m.j.f.5.7.M.J.H.J.J.i.@.} i - 9 b }.oX*XOXC.b.q.j.M.J.J.M.J.T.J.J.Q.Q.Q.T.Q.T.J.M.k.j.j.j.m.J.Q.Y.M.m.M.M.H.J.J.R.R.R.E.R.J.K.K.E.E.E.R.D.R./.0X0X4XR.H.H.Y.Q.Q.Q.Q.J.M.8.X.[ m i u A p.-X4X^.E.E.Q.U.D.H.H.x.H.E.4X4XL.H.W.4XW.H.x.x.M.h.k.7.h.h.1.c.Y.Y.R.R.R.R.^.^.E.R.E.T.Y.H.Y.Y.T.Q.T.W.W.m.<.<.j.H.E.T.M.H.E.7X4X%Xu.S k [ +X>XQ.T.Y.H.L././.7XnX6X/.R.R./.4X=X4X9X5XW.4X0X0XqX0XR.cX4XD.D.4X9Xx.Y.M.M.M.x.E.8X8X4X4X7X/.E.K.E.4XnX0X^.4X/.H.L.W.L.5XY.7.R 4.q.) ",
"VXpXpXrXrXrXtXaXrX=X>XpXSXpXpXpXpXrXtXpXtXrXrX>X2XtXZXKXKXVXVXKXSXSXKXKXVXVXZXKXPXPXPXPXKXKXPXKX3X#X}.[ b x x a M a a F K J ' @.t.@X3X3X2XyXZXZXVXZXKXKXKXKXKXKXLXHXHXHXHXHXHXHXHXvXzXxXmXHXHXmXmXmXmXxXxXvXNXNXNXNXvXbXbXbXbXbXlXhXlXlXlXlXlXzXlXhX(._.P.P.I.I.K.J.J.E.^.^.^.^.7XwXcX8XqXFXLXFXMXMXuX5X9X9X9XMXFXKXLXLXLXLXDXwXqX9X5XQ.R.R.E.E.l.H.E.E.4X8XcXcXwX0XcXcX/.E./.4X4X/.R.R.7XwX4XK.^.E.Y.Y.7X7X-XOXv 4 y H 6.N.J.-X5XT.J.Y.=X5X8XnXFXFXDXcX0X4X0XqX/.^.(.).6X).6XzX).).6X8X4X4X0XcX6X6X/.K.l.d.g.k.E.wXGXnX4XE.E.R.R.R.^.^./.^.E.E.E.L.J.J.N.j.8.v.M.Y.J.J.=X;XOX$.K 9 > 3 y W U X.5.q.v.8.7.M.Q.T.M.Y.R.H.M.J.Y.Y.Y.Y.J.H.x.x.M.H.Y.M.z.M.Y.Y.J.M.L.L.Y.Y.R.R.R.R.R.L.H.L.E.E.R.H.R.H.D.H.E./.E.R.H.x.H.Y.Y.M.M.M.q.6.} F i y I n.5X=XR.E.E.R.R.Y.R.x.z.Y.4X4X4XW.Y.L.L.L.L.Y.Y.H.M.H.1.1.x.Y.Y.k.H.Y.R.Y.R.E.^.E.E.E.E.Y.H.M.J.Y.T.M.M.Q.m.:.:.j.D.R.E.T.W.4X/.K.Q.6.N h { oXOXm.M.k.x.E.wX0X6XxX6X/.E.E.E.W.4X4XqXH.l.L.6X0X/.^.0XxX7X/./.W.4XY.T.9XM.1.J.4XQ.W.Y.R.E.W.E.K.E.4X0X0XqX4XR.H.W.8XR.5XQ.j.,.9.8.E ",
"SXuX5X5X9X9X5XE.z.f.J.uXGXFXFXMX9X9XMXiX=XJ.T.=XQ.Y.Q.5X9X9X9X5XiXFXFXFXMXiXiXMXSXSXFXKXSXKXLXSXZX3X#X@.Z b M x x a x G ' @.*.s.OXyXKXZXtXpXKXKXPXPXPXPXLXLXKXFXHXHXHXHXHXHXHXHXbXbXbXbXbXvXvXNXHXHXHXHXNXHXHXHXNXNXNXNXNXbXbXbXzXlXlXlXhXjXjXjXzXlXhX(._.P.I.P.P.P.^.^././.^.^.F.K.^.8XwXwXwXcXFXFXnXwXnXFXFXPXFXHXHXHXHXmX0X^.E.l.f.H.W.E.R.R.g.K.E.E.4X4X6XwXE./.6X7XE./.0X7X/.^.R.D.H.R.4X0XzX6XQ.W.7X6X=Xn.J 8 y Q p.&X=X4XE.5X=Xf.<.l.7X8XcXnXnXcXwXxXcXcXcX6X(.6X).^.(.0X^./.0XcXwX/./.8X/.6X6X^.D.h.z.H.J.qXFXnX4X/.L.l.D.R.K.K.E.^./.qX^.R.H.J.N.8.5.N.T.Q.=X4X5X;Xn. .y 1 @ 4 h W P T ) 9.8.9.f.J.Y.m.J.E.Q.Y.Y.Q.=X=XW.Q.E.Y.Y.Y.Q.=XE.Y.Y.W.=XW.Q.Q.W.W.W.W.4X4X/.4XE.R.H.R.E.E.R.K.Y.D.c.D.R.E.L.x.M.f.1.7.7.<.7.j.v.6.} m 9 u A a.-Xm.H.4XW.H.Y.E.E.Y.E.4X4XY.R.=X8XL.x.R.W.Y.L.E.x.T.j.h.x.Y.E.M.Y.R.R.R.R.^./.E.W.W.W.T.Y.H.Y.Y.T.M.j.k.k.j.j.M.L.D.H.E.0XwX^.z.j.X.k 0 S #.u.j.k.Y.W.4XcXnX0X/.E.R./.4X/.4X9X9X8XE.4X4X/.^.E.xXDXmX4X/.R.x.W.9XY.-Xj.7.8XW.1.d.d.g.c.H.R.E./.0XwXcXqX/.E.W.W.E.W.Y.J.-X&XN.q.R ",
"8X=XR.E.4X5X^.L.E.J.7XMXFXFXHXFXwXwXnXwXW.L.E.W.W.R.R.4X0X4X4X/.FXLXIXHXDXDXGXcX5XqXnXmXnXFXHXMX2X1X+X$.Z v m M M F G ( } &..X@X;XVXKXpX9XuXGXKXPXPXPXGXwXwXGXFXIXHXHXHXHXvXxXxXvXHXHXHXmXvXvXvXvXHXHXHXJXHXHXNXNXvXvXbXzXzXhXhXhX).).zXzXzXzXbXhX6X).(.!.P.!.!.^.^.!.!.(.(.(.(.zX~.R.~.^.(.0XDXnXDXcX8XwXwXwXnXHXHXDXvXxX).!.F.D.g.d.D.E.E.D.l.F.R.K.K.^.R.K.4XwX4X/././.8X/.D.S.H.R.^.R.R.R.E.).^.R.W.7X7XE.B.B 7 q W u.J.J.J.9X5XJ.j.J.uXnXcX/.4X/.^.^././.(.^.R.K.K.F.F.K.R.F.R./.8X0X0X8X4X^.K.z.g.d.g.x.E.h.z.x.z.D.E.4X4XD.R.K.R.6XqXwXmX4X8XY.M.b.8.9.b.C.Q.=X4X-XN.6.W b i > 3 Z }.a.OXb.v.j.M.N.J.M.k.R.W.4X5X4X4X4X=X4X4X4X4X4X4X4X4XR.W.4X8XW.Y.E.4X4X4X/././.4X4X4XW.R.R.E.E.R.K.K.D.D.D.H.E.Y.x.h.h.j.k.M.k.j.7.5.B.e.[ x 4 9 S u.%XH.W.wX-XY.W./.4X4X4X4XE.H.H.J.4XR.H.R.W.L.H.Y.h.Y.M.k.k.j.H.E.Y.R.Y.Y.R.E.E.R.E.T.Y.Y.H.H.L.Y.4XW.H.j.j.M.m.j.6XK.l.l.S.E.7X7XM.+.B 0 v ] q.M.k.E.4X4XwXwX6X7XR.D.R./.W.4XwXqXW.8XFXqXE.E.^.cXnXmX/.D.l.x.4X5XT.W.j.f.J.k.7.x.Y.H.L.R.R.R.R.E.eX-XY.M.Y.E.x.7.J.k.j.&X-XN.b.5.",
"4X7X4X4X4X7XW.R.wX6XwXxX0XqXcXxXcX/.^./.E.E.E.R.R.E./././.E.E./.DXHXHXcXzXmXDXwX^.7XqXcXqXqXqX=XC.OXXX#.C v Z M x G K J } s.oX+X>XMXFXiX9XGXPXIXPXLXHX0XR.R.wXFXHXDXDXHXHXDXvXmXmXmXDXDXHXmXxX0X6XvXHXDXDXHXHXmXcXcXxXzXzXzXzXzXzX6X6X6X).^.!.^./.).6X).^.R.!.^.^.!.K.P.!._._._.!.~.~.(.(.R.R.~.R./.^./.8X0XqXcXHXDXvX0X(.!.F.F.S.R.R.D.K.6X6XR.).6X6XzXmXqX^.8X^.^.8X0X/./.^.R.R.D.c.S.D.D.U.R.^.R.E.4X6X6XE.N.I q l P +.m.J.5X5X5X9XMXiX4XR.L./././.^./.0X0X).!.(.(.R.R.(./.^./.8X8X^.^./.E.S.R.D.D.R.E.R.x.z.k.h.h.x.H.D.l.l.l.F.l.G.R.R.D.L.W.8XY.f.j.8.q.b.Z.N.k.k.j.9.X.[ K a > 1 m .XXX*X;X%X&X9X5XY.L.=X4X7X5X8X8X=XJ.H.L.R.W.4X4X4XW.W.4XY.x.l.l.z.x.H.Y.Y.L.L.R.R.E.E.W.R.R.E.E.K.H.K.E.R.H.H.H.H.H.M.M.M.M.j.f.M.N.M.M.e.{ z 1 9 S t.%X4XMX9XY.E.eX/.=X4X4XE.R.W.L.z.x.L.L.x.x.Y.R.M.x.M.j.M.J.j.x.Y.Y.R.Y.H.R.R.R.H.x.x.k.k.x.x.x.k.d.h.j.z.k.H.R.W.S.D.R./.E.L.K.7X;Xu.B 0 k U +.j.j.M.R.8XqX^.^.cX6XR.R.E.H.W.9X4XQ.W.9XL.K.0X^.R./.E.S.H.E.R.Q.J.h.W.eX9XQ.J.J.E.L.x.x.H.H.H.H.L.T.Y.Y.T.E.Y.H.M.j.k.k.v.8.q.C.b.",
"x.4XE.H.W.E.h.l.H.H./.wXcXcXnXHXDXE.R.Y.2.1.H.H.0XwXR.H.H.c.4XwXqX8X).4X6X6X/./.0X4XE./.wX6XE.Q.;X:XOX%.S v b b G K J H ...X@XOX;X5XnXPXFXnXFXnXFXDXwXR.D.R.8XcXcXcXmXHXFXcXxXmXmXDXFXFXDXcXwX0XcXcXwXcXcXcXcXcXcXqX0X).).(.^.^.^.^.^.^.^.^./.4X/.^.E.E.E.E.R.R./.^.R.F.F.F.U.!.F.!.U.R.U.c.U.D.D.h.2.l.U.^.0XcXbXcX0X~.~.).!.S.D.H.R./.6X0X0X0XmX).K.^.xXcX4XR.^.^./.8X/.R.R.^.^.R.R.R.^.^./.`.~./.4X4X7X6X7X%XW 0 h I 6.%X-XT.k.7.f.5X4XH././.8X/.!.R.~.`.0X).6XcXcXzX0XwXwX4X4XE.H.D.D.D.D.S.L.D.E.4X/.W.Y.z.z.M.H.l.l.D.H.D.S.D.R.R.S.S.D.R.L.M.k.b.j.q.u.N.Z.,.7.j.7.9.o...} x - 1 Z *.@X*XrX;X9X9X-X=X=XR.4X7X6X4X7XE.R.R.4XE.H.H.H.x.z.z.Y.x.z.c.D.H.H.Y.H.D.D.D.D.D.Y.W.4XE.R.R.R.R.Y.E.E.E.E.H.D.D.J.Y.M.M.k.j.v.N.M.v.B.u.{ z 4 8 S t.&X=X9XMX=XY.W.W.W.W.E.L.Y.R.Y.H.L.E.Y.k.z.L.R.H.x.J.k.h.h.k.M.Y.Y.E.E.E.E.R.L.H.x.z.j.x.Y.T.H.k.h.z.l.x.W.=XH.g.S.L.K.J.K.K.P.E.Q.6.N 0 k A X.j.m.f.H.4X0X4XxXmXxX7X/.E.D.R.4XY.J.Y.4X8X0X/.E.E.R.H.R./.E.E.Y.z.M.J.5XY.J.Q.L.W.Y.Y.m.l.l.<.<.J.H.Q.W.Q.H.H.H.x.M.J.j.,.,.v.N.w.",
"z.Y.H.T.wXqXY.Y.D.4XwXnXGXFXDXqX8XY.W.E.d.1.x.H.z.Y.h.h.z.h.T.4X/.0XqXR.S.l.l.l.g.H.E.4X4XW.R.=XT.C.i.| C B J G Z K H W ..A.1X2XuXiXiXGXwXwXFXcXnXE.c.D.D.l.S.^.cXnXDXFXDXmXcXcXcXnXDXnXcXcXcXcXqX8X8X0XqX0X8X8XqX^.F.F.!.`.8X).0X6X).).)./.^.R.D.H.K.R.R.R.R.Y.F.F.!.^.(.~.!.!.!.!.D.R./.W./.U.c.h.2.c.R./.`.0XqXqX0X(.^.^.(.^.c.l.D./.zX0XzXxX(.).zXmXmX0XE.K.R.8X0X/./.qXqX/.^.R.R.R.R.R.R./.!.!.E./.6X7XE.B.' h v I 5.v.m.k.m.7.d.4X8X4XwX4XwX0X).^.(.).).(.!.).0X/./.8X0X4X/.E.R.R.E./.^.E.R.K.E.E.H.H.H.z.Y.Y.L.L.D.D.D.H.~.~.R.R.K.D.c.c.L.M.k.j.q.q.q.u.q.R ,.f.f.m.n..X} b 4 9 Z } t.u.N.%X9X9X9X5X4XW.W.W.W.^.^.W.W.W./.E.Y.Y.R.Y.H.Y.D.x.H.E.W.E.R.R.E.E.E.W.E.R.Y.R.4X/.E.W.E.E.W.4X/.E.H.H.Y.Y.L.H.Q.T.Y.N.J.T.T.M.b.i.{ z 4 u S t.%XJ.E.-XT.Y.W.Y.W.W.E.R.E.4X4XW.W.W.R.x.z.H.H.x.x.J.M.k.M.H.L.Y.Y.H.x.x.L.L.H.x.x.h.1.1.h.z.x.x.H.E.R.H.L.H.z.x.L.K.E.E.J.K.P.E.N.0.B 0 k ] 6.v.7.k.W.4X0XcXqXK.7XE.E.R.H.W.9X=XY.E.4X8X0X4X6XqX4XK.H./.W.R.Y.J.k.j.J.M.J.=XY.W.M.E.Y.M.S.g.d.M.M.M.Y.Y.Y.H.H.Y.Y.Y.H.j.8.8.8.8.",
"Y.T.k.j.5XiXeXeX8XwXnXwXiXGXnX4XT.M.Y.Y.7.<.h.h.7.j.7.h.k.M.W.4X0X0X/.R.R.R.D.l.g.H.W.4X;XJ.j.m.N.N.i.| C B H G J Q ' W | i.*XrX9XnXwXnXnXFXLXnXLX8XD.D.l.h.S./.0XcXvXvXvXJXvXxXcXvXvXcXzX6XzXzXJXzX).~.~.!.~.(.~.!.!.~.).zX).~.).(._._.(.!.F.G.F.K.!.R.R.D.S.c.K.K.K.K.F.F.G.G.R.^.R.~.~.Y.W.~.Y.D.D.R.'.0X0X0XR.R.).qX0XE.D.l.Y.D.R.wXmXxXzXvXxXzX0X).R.R./.xXcXJXcX8X/.qX8XR.R.~.^.R.U.D.R.!.U.R.R.E.6X6XP.j.[ v h A X.8.v.m.W.Y.R.qXcXwXnXqX0X0X).^.!.!.!.R.K.!.^.E.^./.4X4XE.E.R.E././.E.R.).^.E.K.c.x.L.J.Y.M.H.R.R.D.x.R.c.D.D.R.R.Y.H.Y.E.Y.j.j.j.j.q.q.b.5.j.j.j.v.r.t.H 9 - 8 Z ..a.n.v.9XMX9X5XR.L.W.^.E.K.R.W.7X4XW./.E.W.W.E.E.E.E.E.E.E.E.R.Y.R.E.H.D.D.R.E.R.H.H.Y.R.Y.Y.H.H.Y.E.E.R.H.H.Y.Y.Y.J.Y.Y.Y.Y.Y.Q.T.N.N.i.{ z 4 9 S t.:X=X5X5XQ.&XW.H.R.Y.L.L.R.4X4X4XW.E.L.x.x.x.x.k.H.Y.J.M.J.J.k.j.k.j.j.k.M.H.H.x.x.x.x.x.H.Y.R.R.E.4XW.L.L.L.L.W.K.^.^.^.E.K.P.P.M.i.A 0 k ..u.8.j.7.d.c.H.4XcXcX/.^.E.R.H.L.Y.M.M.H.Y.E.E.E.6XwX0XD.c.R.R.H.H.Y.J.j.M.M.Y.Q.M.J.J.Q.J.d.d.f.m.Q.E.Y.Y.Q.R.D.D.Y.x.z.x.M.j.7.j.N.",
"Q.-XM.1.k.eXwXqXqX8XeXwXwX8X4X8XT.j.f.w.7.j.k.h.7.h.1.1.j.k.Y.W.8X~.R.^.0X8XR.D.E.W.W.=X5XT.7.,.j.b.n.6.P S H V J Q W W | t.C.;XuXnXwXnXnXnXnXwXcXcX8XD.h.c.^.0X6XlXzXzXbXvXvXxXbXxXzXzX).(.).(.xXzX).(.~.!.~.)._.).zXzX)._._._.hXhXhXhXhX(.!.F.!.~.!.!.!.K.F.G.F.D.D.H.R.!.(.).R./.~.).W.R.'.'././.8XqXbXbX0X8XcX(.D.R././.E.W.0X8XwXcXcX0X0XzXzX6X).).6X0X0X0X8X^.R.)./././.8XR.~.^.^.R.D.D.R.R.R.R./.6X6X^.B.%.Z h S +.8.M.J.R././.4XE.L.R.R././.^.R.F.F.F.U.R.!.E.R.R.E.E.E.H.H.H.R.R.R.R.R.K.S.l.g.<.2.z.z.M.k.x.H.D.l.z.H.D.Y.E.E.Y.c.D.Y.W.Y.j.7.j.n.b.q.q.w.M.M.k.v.6.#.[ q > 4 z @.{.OXuXPXSX9X9X4XE.7X7XE.E.J.E.E.W.W././.4X/.E.E.R.E./.E.R.Y.H.D.H.E.E.R.D.H.R.R.E.W.E.E.E.E.Y.H.Y.Y.D.R.E.R.D.D.L.W.Y.Y.Y.Y.Y.Y.T.M.C.n.{ z 4 9 S e.8.J.-X=XM.m.k.h.x.z.z.x.L.E.W.W.W.Y.H.Y.Y.H.x.H.Y.Y.M.M.Y.H.h.7.<.7.j.x.x.k.x.H.h.z.x.H.H.Y.Y.E.W.E.H.x.K.E.E.^.^.^.^.W.E.K.K.K.N.n.I 0 k ..u.8.M.j.x.E.E.E.E.R.D.D.H.R.R.R.Y.J.Y.Y.L.Y.E.4XwXcX4XH.D.H.D.x.H.Y.Q.J.J.T.Q.Y.M.M.J.Q.=X4X4X=XE.Y.E.Q.R.Q.W.~.R.E.8X/.W.E.M.j.j.T.",
"M.Y.Y.H.Y.W.W.E.W.4XwXnXwX4XE./.M.h.7.7.z.Y.E.M.x.k.k.j.H.Y.J.R.E.R./.cXcX/.^.6X)./.K.E.4X=Xk.j.7.b.OXa.! W J K J J W ~ | u.C.&XFXFX8XqX7Xx.c.c.l./.0XE.R.0XcXzXzX).(.lXzXlXhXzXhX).hXhXzXbXzXlX!._.zXxXkX_._.).hXkXhX_.!.!._.hX_.jXhXhX(._._.!.!.K.F.K.^.).^.^.D.L.R.!.~.~.!.!.).^.D./.cXDXGXcX8XcXJXcXbX`.).).qXK.l.D.H.H.Y.4X8XcXcX4X^.^.).).!.(.6XxXmXmXcX8X^.F.F.R.!.!.!.^.!.(././.(.^.R.U.~./././.^.^.E.N..X' y V +.8.M.J.R.6X^.E.H.l.S.G.(.^.!.R.U.F.R.^.!.!.R.K.H.H.D.x.z.z.D.H.R.E.E././.R.K.H.D.L.R.J.H.H.H.x.z.z.c.x.Q.R.W.W.W.Q.Y.R.Y.k.h.7.j.Z.C.n.q.b.T.N.M.v.e.}.*.q 1 8 v &.oX*XSXSXQ.J.wXMX7X^.4X4X^.E.E.R.E.^./.4X4X/.W.E.R.R.S.D.R.E.E.R.R.R./.^.R.H.D.D.Y.E.E.E.Y.Y.Y.T.Y.H.D.R.^.R.D.x.H.E.W.W.W.E.Y.Y.J.m.T.A.{ z 4 u A O.T f.J.M.m.j.j.j.z.l.l.x.J.Y.R.R.W.R.R.4X4XE.Y.E.J.Y.M.m.Y.Y.M.j.7.9.7.j.k.k.z.x.z.x.z.j.j.x.E.4XE.R.D.c.L.L.S.L.^.^.^.E.R.K.K.L.M.u.A 0 j  .B.N.M.W.qX8X/.4X^.g.K.R.E././.W.J.H.Y.H.x.H.E.0XcXcX^.^./.R.D.H.E.E.R.J.J.=X=XH.M.m.J.m.H.=X4XQ.J.J.z.Q.W.W./.qXqX8X/.W.E.Y.H.H.M.M.",
"H.x.Y.8X4XH.H.4X0XmXmX6XR.E.R.D.l.x.x.x.x.H.H.x.Y.R.W.E.4X4XL.E.^.R.(.cXvX0X).lXR.^.^.E.7XW.E.4XJ.C.&X|. .A H Q ' Q Q ! o.u.n.T.wXcX6XnXcXS.d.g.l.c.R./.0XxXqX0XzX~.!.(.(.F.F.!.).(.(.lXzXbXbXxX(.).zX0X~.R.!.(.(.(.~.(.).kXzXlX_._._._.P.P.P.P.K.F.F.F.!./.6X6X^.^.R.K.F.F.F.F.!.!.F.).cXJXDXcX0XcXDXvXzX).).).F.D.D.H.c.1.7.k.E.8X0XH.S.R./.(.^.(./.^.^.6XxXcX0XzX8XR.R.).(.F.(./.6X6X0X6X(.R.).0X8XE.K.K.K.C.oX} 0 B O.6.b.J.E.^.D.K.(.!.R.K.R.R.R.R.R.R.!./.)./.^.R.R.H.x.z.z.x.H.H.H.R.E./.^.F.D.D.c.x.H.j.M.H.H.x.D.H.R.E.W.Y.Y.W.0X8XR.Y.j.d.1.7.j.N.C.C.&XOX%XJ.J.v.e.oX*.1 1 8 v &.|.OX%X=XY.Y.4X7XE.^.W.^.7X^.E.E.W.7X/./././././.E.R.R.R.R.E.^.E.E.^.K.K.R.R.H.D.H.E.R.H.D.D.Y.E.Y.x.E.R.R.R.R.H.D.x.L.R.E.Y.Y.R.Y.J.C.n.{ y 4 y H e.v.J.H.M.T.T.N.J.H.x.x.H.Y.R.E.Q.W.E.E.W.W.Y.L.R.Y.R.M.j.H.J.k.k.J.j.7.f.M.M.k.l.x.M.H.H.M.Y.W.4XL.R.R.H.L.S.S.K.E.E.E.E.R.K.L.L.J.u.A h j | B.&X5X=X4XW.R.E.7X7X4X0X4X4X4XL.h.f.M.k.z.x.E.0XwX0XK.^.4XW.H.R.W.L.J.E.J.Q.J.j.z.f.J.7.:.d.d.f.m.M.c.Q./.R.Y.^.^.U.g.c.D.D.L.W.E.k.",
"(.R.!./.R.F.(.xXHXHXxXK.G.G.F.G.S.E.E.L.L.L.x.g.S.S.K.L.K.E.S.E.!.!.K.!.).lX(.P.F.^.^././.E.^.9X5X%XOX|. .C A K } } [  .X.6.v.T.E.7XE.qXmX7XR.K.R.S.S.^./.R.K.R.^.^.^.^.K.S.G.S.K.R.^.^.^./.7X6XcXwX8X/.E.R.R./.!.^.).0XzXzX).^.).).(.(.(.!.P.K.L.L.L.L.L.K.^.7X6X/.!.R.!.^.6XzXR.).).0X/.~.0XqXbXvXvXbXxXcXbXcXmXzXE.D.l.j.H.W.H.R.Y.c.l.R.(.(.D.R.^.R.K.K.R.^.^.6X/.R.^.zXxX6X/.6X6X)././.(.!.).0X/.R.D.F.L.N..X} 8 B 6.6.N.%XK.K.g.G.^.!.K.R.R.R.R.!.R.R.~.(.)./.^.E.E.R.H.x.k.H.Y.R.R.E./.4X6X^.E.R.L.H.Y.H.k.z.x.H.H.H.R./.eXW.Q.8XeXQ.x.2.d.1.1.j.M.k.b.C.C.i.v.N.-X%Xn.1X.Xq 8 q l [ | T N.=XiXMXwX7X7XqX^.^.^.^.^.^.E.E.^./.^.E.^././.R./.E.R.R.R.R.E.^.R.R.R././.^./.4XE.E.Y.H.Y.W.E.Y.^.R.R.R.R.R.H.c.x.H.L.L.L.Y.Y.J.M.n.{ y 4 p W t.N.J.M.m.N.b.j.M.E.L.H.H.Y.Y.R.W.R.R.E.R.H.H.L.R.W.W.J.j.m.k.j.j.J.l.f.k.J.M.k.j.h.j.M.H.H.M.H.H.L.R.L.R.^.E.K.^.P.J.J.Y.R.K.K.L.J.n.W h k ! B.-XiXY.W.wX0XD.S.K.K.^.E./.0XW.x.H.M.J.R.E./.0X0X6XK.K.E.E.R.R.Y.M.Y.=XJ.J.m.f.m.f.z.7.f.M.k.k.m.j.Y././.R.D.D.D.S.R./.^.E.E.W.Y.z.",
"(.0X0XR.F.(.zX).vX6X!.R.F.G.G.G.^./.E.K.^.7XR.S.L.S.L.z.S.^.K.zX).bXbX(.P.(.)._.K.^.^./.7X/.^.5X4XM.B.|.#.A G K Q Q [ ! | 6.M.=X7X6XG.G.^.4X4X6X^./.0XcXxX^.K.K.R.^.4X7XE.K.H.S.g.z.S.z.l.z.K./././.8XwXcXwX6X/.^.6XqX6X!.F.K.!.^.^.!.P.!.K.F.S.S.L.R.K.H.H.E.4X/./.).).)./.(.^.0XcX0XbXbX8XqX8XbXbXbXzXbXJXHXJXDX0XR.H.E.4X-X=Xx.z.h.g.l.D.R.R.^.!.K.S.S.D.D.S.R.D.F.F.K.D.K.R.^.).6X^.R.R.!.R.^./.W.H.F.F.H.N.a.@.y S t.5.N.=XE./.D.K.(.F.F.(.R.R.~.).).^.~.^.!.R.R.R.E.R.Y.H.z.M.E.W.4X4XwXcX/.E.R.K.c.x.Y.Y.H.l.l.L.H.h.h.H.H.Q.4XwXqXE.D.x.h.7.h.Y.Y.j.h.N.n.6.8.J.rX%Xu.#XoXq 9 u z @. .T C.N.;XSXMX8X7XW.^.^.^.^./.^.E.K.^.^.E.R.E./.^.Y.H.H.H.E./.E.R.R.E.R.H.R.R.R.R.R.H.Y.H.x.x.x.x.x.H.R.^.^.R.R.R.R.L.R.R.Y.L.L.H.M.v.u.] u 8 z { a.v.T.T.T.T.j.j.E.Q.H.k.x.M.H.Y.E.R.W.W.Y.H.H.E.4XW.=XJ.m.M.M.m.M.9.d.k.Y.N.f.d.j.M.M.x.k.z.k.H.L.R.H.c.H.7X4XK.L.K.K.J.J.R.J.K.L.m.v.U 0 0 ] OX9XQ.L.E.8XqX6X^.R.R.7X/.4XwXW.x.H.j.J.E.R.R.R.R.H.R.c.L.W.W.R.J.m.J.=XM.M.M.m.Q.M.k.j.m.k.7.k.Y.M.x.R.^.^.~.E.4XqXR.K.H.D.H.L.L.x.",
"/.R.R.^./.^.R.R.H.R.K.D.D.H.K.K.7XK.L.^.7X4XE.^.E.^.R.S.L.^.^.K.^.6XxX^.D.K.!.zX6X^.).6X).6XxX7XW.J.B.6.~ B V H K } [  .t.u.j.R./.6X/.H.D.R.4X8XqX8X4X/.^.!.!.!.H.H.H.H.H.H.H.H.D.S.D.R.R.L.D.R.R.~.^.R.R.R.~.`.0XqX0X).~.!.R.!.!.D.).K.R.K.R.D.4XE.K.R././.R.D.6X).(.(.6X6X!.F.!.).).).6XzX0X(.bXbXzXzXcXJXJXvX~./.R.D.Y.J.k.T.H.D.D.c.S.D.!.).zX(.!.(.!.K.R./././.`.).).^.^.R.R.R.R.K.L.H.R.E./.W.R.R.K.l.H.M.a.W k C  .b.N.M.Y./.4X^.W.R.R.).(.!.R.R.^.).^.K.H.H.D.H.Y.E.E.E.Y.Y.E.W.W.W.0XGX^./.^.R.H.R.E./.R.x.H.Q.H.7.f.Q.H.4X8XW.E.R.J.H.h.M.=X=XY.M.M.N.q.b.q.8.M.v.t.{.@.; 8 8 h -.oXi.v.N.N.m.N.-X4XW.0X^.R.E./.E.R.E./.(.~.R.R.R.R.R.Y.H.Y.W./.R.R.E.E.R.H.D.R./.E.D.K.K.E.E.H.H.H.H.H.H.D.D.H.R.R.E.H.H.H.H.x.x.x.j.v.t.A z u z } t.N.N.M.T.C.Z.Q.E.J.J.M.=XW.l.L.E./.E.W.4XW.R.T.W.4XH.H.E.k.z.N.M.J.j.j.M.M.f.j.Y.J.M.M.x.x.M.H.J.L.H.x.H.K.L.K.E.^.^.P.K.L.J.J.S.H.B.U f 0 W u.b.H.H.K.K.D./.0XK.6X4XnXHXcX/.Y.h.z.Y.W.W.W.E.H.c.l.D.R.E.Y.H.J.L.Y.J.J.J.N.M.N.T.Y.j.h.j.k.j.x.Y.E.H.H.R.^././.7XL.S.L.E.W.E.L.L.",
"l.Y.^.W.R.R.W.E.R.R.H.H.R././.^.P./.7X/.E.K.K.L.L.^.7XW.K.K.!.K.6XE.^.R.K.K.D.^.6X/.6X0X)././.^.L.J.N.6.U B v b K ' ' ] 6.8.v.R.0X).!.D.D.Y.Y.H.E.Y.D.c.S.D.R.^.R.R.R.R.H.H.R.E.^.E.R.R.R.R.K.D.U.!.^.^.!.R.~.(.0X`.).~.U.F.F.F.F.l.!.!.^.^.^./.R.K.H.R.^./.^.R.H./.cXcXzX6X!.K.R.^.(.^.).zX6X(.!.`.0X`.).).`.zX`.bX8X/.5XY.7.1.7.H.4X8X/.R.^.6X(.!.!.(.).6X0XcX8XqXcXcX8X).^.^.R.D.c.c.K.R.R.H.W.-X^.).^.G.x.q.O.S k j Y +.v.Y.Y.E.E.R.^.R.U.R.D.R.!.R.R.!.^.E.E.R.H.H.Y.E.E.E.E./.4XW.R.Y.Y.E.R.8X'.D.S.K.R.c.H.E.J.z.M.Q.J.7.7.d.L.R.H.iXGXj.5X&X=X9X5XJ.7.,.q.N.&XB.8.:X3Xy.Q 0 q q G &.}.fXVX&Xj.8.M.Q.W.W.E.E./.qX0X/.E./.R.R.!.R.R.R.W.W./.R.H.D.D.D.R.E.x.H.R.H.K.R.^.R.D.D.R.R.L.H.Y.L.H.H.R.W.W.W.E.Y.4XE.H.x.x.x.H.J.8.O.Z y 9 h { t.v.v.b.b.N.T.E.Q.T.Y.M.J.R.L./.7X/.R.H.R./.4X-XW.W.x.x.J.z.k.T.T.M.j.j.M.J.m.m.L.M.M.M.x.M.M.H.J.R.L.H.H.L.L.L.E.7X(.(.P.K.J.J.H.R.J.| h 1 v | 8.j.K.6X^.l.D.0XxXqX0XHXIXcXY.R.-Xx.Y.Q.Q.T.Y.Y.M.Y.H.z.l.z.x.H.m.E.H.z.j.k.M.k.h.k.k.k.j.z.x.H.R./.E.R.R.H.c.g.g.z.S.L.L.E.7X6X7X",
"3.R./.W.R.~.R.D.R.R.H.H.H.R.R.K.^.7X6X^.7XqX4XS.L.E.7X^.^.7X7X7X4XD.D.R.7X/.H.R.R.7X6X6X6X/.^.^.H.E.J.6.P C V b J } @...u.B.%X9XxX6X(.^.R.R.R.R.Y.Y.R.R.R.R.R.R.R.R.E.R.D.D.K.R.S.D.S.l.D.^.E.D.R.R./.8X8X/.(.^.~.~.!.!.!.!.!.~.0XR.E./.H.H.D.^.^.^.^.^././././.R./.0X).!.R.R.^.6X6X).).0XxXxX`.`.~.D.G.D.!.~.~.).(.R.R.4X4XW.W.qX8X/.R.K.R.!.^.0X).(.!.R.R.D.S.S.R./.8X8X/.4X8X^.R.D.D.K.R.K.D.x.Q.R.0XzX/.4X%XXX] j B ] u.M.J.Y.R.Y.R././.R.U.D.R.R.R.K.K.L.D.L.L.H.K.E.E.^.W.4X4XR.c.l.H.E./.W.8X/.Y.c.D.D.c.R.R.L.m.Y.=XJ.9.7.:.l.M.<.j.5X=X9X5X&X%XT.j.j.j.N.9.w.v.j.B.n. .S 0 w w H -.oXAX>Xv.9.j.Y.Y.Y.E./.R.E./.4X/./.4X!.^.(.^.R.R.R.E.E.E.E.Y.Y.R.R.R.H.Y.E.R.R.R.R.K.R.K.E.R.D.D.Y.L.z.z.l.z.x.L.Y.R.Y.H.Y.W.4XR.x.j.v.O.S z y z [ t.b.j.N.j.b.&XY.E.T.T.k.k.H.L.E.H.H.R.E.Y.H.E.8XqX4XR.R.E.H.M.N.N.M.j.j.M.J.J.H.m.x.x.M.M.H.H.H.H.R.K.L.L.H.H.L.R./.^.P.K.L.L.H.H.S.M. .h 1 h | v.M.7XnXnX0X0XzX(.).xXHXLXwXY.Y.W.8XeX8X4XE.E.E.R.W.R.R.R.E.E.E.K.4XW.R.Y.E.5X-XY.h.M.Y.z.z.H.R.R.D.D.H.R.R.H.D.L.L.E.E.L.E.0XqX/.",
"Y.~./././.^.Y.l.D.H.H.H.c.c.D.K.L.R.K.H.K.^.K.g.R.K.L.L./.qX0X/.R.c.D.R.4X0XR.H.H././.^.6X/.R./.E.=XN.+.Y B V H K ' [  .e.B.-XnXqX0X0X0X/.R.R.^.R.R.(././.^.R.R.R.R.R.R.K.H.K.R.E.^.R.D.H.R.K.D.R.R.!.(./.(.!.R.R.R.R.!.~.).`.0X6XR.K.R.l.R.R.8XR.R.R.H.D.H.R.E.cXwX/.R.R.(.6X6X6X).^.!.(.6X6X(.cX/.F.G.F.~.).~.!.(.).wXcXcX8XW.8XE.H.H.R.^.!.R.~.^.!.K.K.K.S.g.S.R.R.^.R.D.H.R.R.E.E.R.H.L.D.D.x.Q.R.).)./.4X&X@X] k j U 6.q.j.J.E.Y.R././.R.R.R.R.F.D.R.R.S.d.g.z.D.R.^.^.E.R.D.D.K.E.^.R.L.L.W.Y.x.Y.D.l.c.Y.K.R.E.R.Y.J.M.j.f.k.j.f.<.R <.9X9X9XQ.j.7.7.7.8.q.C.j.9.m.N.o.P W w 0 0 v oXfXXX) R ,.N.Q.J.L.W.4XR.D.R.E./.W.E././.(.^.E.E.E.R.R./.4XW.W./.E.Y.E.Y.H.L.E.E.K.S./.E.^.E.L.H.Y.L.H.x.z.l.z.x.H.Y.Y.x.x.L.R.H.H.M.M.t.W m z v ..u.C.m.%Xj.j.&Xx.L.T.Q.J.Y.W.Y.R.D.D.E.E.D.x.Y.4XqX4X/.4X4XW.H.j.j.j.j.j.j.m.H.m.z.x.x.M.H.H.H.H.H.K.K.L.L.S.H.L.R.K.K.K.F.S.H.H.H.z.v. .h 7 h O.N.9X8X4X7X0XnXcX6X).DXHXxXE./.4XY.DXwX8X/.W.W.W.E.L.R.E.R.H.x.x.H.l.D.H.z.h.x.M.j.h.k.M.x.x.H.R.R.E.E.^./.E.K.H.R./.7X/.^./.0X0X/.",
"/.~.R./.'.~.K.D.S.S.S.L.K.R.R.E.D.R.E.H.g.2.l.x.W.R.H.L.E.7X^.K.H.H.L.x.D.E.H.D.E.7XR.H.^.R.D.L.7XJ.v.6.U B v G K Q [  .6.B.-X5X0X/.).).(.R.F.K.F.F.F.F.F.F.K.R.D.D.K.R.^.(.!.R.^.!.R.R.F.S.G.F.D.D.D.D.R.U.D.F.~.!.!.!.!.~.~.(.^.R.R.R.l./.E./.R.H.D.S.S.D.R.^.^.E.R.K.E././.!.^.!.R.R.!.).).(.`.0XzXzX`.).).).).0XcXvXcXqX6X/.W./.^.R.K.K.!.).K.!.!.R.R.^.R.S.D.R.!.R.R.D.R.R.H.R.R.K.H.c.l.l.h.Y.R.^.(.^.7XN.i.! j j S | q.J.L.E.R.R.^.^.~.).R.U.U.R.R.E.H.l.S.D.K.R.R.R.K.K.D.c.D././.H.c.c.Y.j.h.z.z.g.c.R.D./.4XH.x.Y.Y.j.f.M.f.,.m.M.j.M.-X-XM.5.8.N.v.,.5.N.M.j.M.8.^ | }.Z h f Z .X#XX.) 9.j.N.T.J.E.4XE.E.E.4X4X/.E.R.).^.R.E./.4X4XW.4X8X4XW.R.E.E.R.W.R.H.L.E.R.L.S.R.K.K.R.H.L.W.E.H.H.H.H.x.z.g.d.x.z.x.H.H.x.x.M.v.e.W Z z v ..i.C.m.%Xj.b.;Xx.H.M.J.M.Q.E.x.D.D.E.H.c.l.H.4X4XE.R.E.W.=XW.J.j.j.j.m.M.j.j.m.m.x.x.H.H.H.L.L.L.L.L.L.L.H.S.L.K.K.K.K.K.L.S.M.H.J.L.v.O.h 8 q | u.j.Y.=XW.W.4X0XxX0XHXmXE.K.0XnXnXqX/.Y.H.E.W.W.E.7X4XE.x.d.2.g.z.K.^./.R.D.H.H.z.x.z.j.x.D.x.D.H.4X/./.E.R.D.D.R./.^.(.0XzX0X).8X",
"8X)./.8XR.G.S.R.R.S.l.H./.6XE.L.R.L.L.L.c.g.x.E.L.E.4X4X/.E.E.R.H.J.Y.d.d.L.Y.E.4X/.R.H.E.R.R.R.^.H.v.i.| C v G ( ' @.O.6.B.=XE.E.K.F.!.).).~.K.F.K.K.K.K.F.F.D.K.F.F.R.^.^.R.F.F.F.F.R.F.G.F.!.R.R.R.U.R.R.R.R.(.^.~.!.!.!.!.R.R.R./.R.H.0X/.R.^.R.K.D.D.H.K.R.g.c.D.D.D.K.!.^.R.R.R.!.^.).6X6X0X0X0XzXzX).(.(.).(.).).!.(.zX0XcXwX8X/.^.^.^.(.!.^.^.!.K.F.F.l.S.D.R.R.~.^./.8X/.R.D.D.D.x.g.1.c.E.^.).hX(.7XN.|.] j N I O.b.T.H.R.R.K.R.R.R.).R.^.).R.H.H.H.H.K.K.K.K.K.R.E.^.^.D.l.S.H.x.c.H.k.M.k.f.h.H.Y.H.R.K.H.H.K.L.H.m.J.9.,.j.M.T.T.v.-X9X&Xj.j.T.Q.b.8.R j.5Xj.R 4.a.}.} h f [ @. .t.u.b.J.T.T.Q.E.R.K./.8X4XE.R.W.8X6X^.R.E././.W.E.Y.4X8X8X0X0X4X7X0X8X0X/.R.D.D.K.K.D.H.H.D.H.R.L.x.x.x.k.k.l.h.g.g.x.L.E.R.H.z.g.f.6.W J M v ..n.N.m.T.C.Q.9XE./.T.Y.M.Y.x.2.l.c.R.H.S.D.R./.W.Y.E./.E.Y.E.J.M.N.m.M.M.k.z.m.m.m.S.H.H.H.L.L.L.L.L.L.H.S.L.K.K.K.K.L.K.L.S.z.m.H.R.v.#.h 8 1 W 6.R M.5X9XqX4XE.^.^.xXxX6X4X8XcXLX8XR.D.H.E.E.E.R.4X/.J.L.L.L.S.z.!.!.R.H.K.R.D.g.H.h.h.z.x.z.c.H.E.R.H.H.H.H.R.^.!.F.K.).0X~.U.!.",
"8X'./.^.U.l.S.R.E.D.D.R.7X/.K.S.R.l.g.x.H.H.M.H.x.Y.4X4X4XE.E.W.Y.M.J.j.j.Y.E.4XW.Y.Y.Y.L.E.4X7XJ.H.N.i.| B v Z K J {  .X.u.N.l.D.D.D.K.~.).).(.!.(.).6X).(.!.F.^.!.!.!.^.^.!.R.zXzXzX6X(.R.R.R././.W.E.E./.6X0X^.E.^.^.(.(.^.E.l.g.H.H./.cXcX8XR.H.D.D.R.R.K.D.R./.6X^.R.E.6XzXD.F.R.R.!.!.(.).bX).R.!.~.~.!.!.!.F.(.0X!.!.^.F.R.E.6XvXHXDX0XR.F.F.R.R.F.D.D.F.!.!.!.!.R.R.R.Y./.R.S.c.D.x.z.g.8XDXcXzX).(.7XB.XX! k k A o.8.f.x.K.K.K.!.R.R.R.^././.R.x.j.z.z.H.K.R.R.E.E.E./.c.D.H.L.W.=XY.h.j.M.M.h.h.Y.R.D.E.c.c.R.E.D.c.J.Y.5.7.N.M.w.j.N.;X9X>XN.5.8.N.%X8.j.Q.J.f.m.%Xa.%.[ f f Q ! | n.N.C.Q.=XW.Q.R.H.E././.E.H.H.E.6X^.^.^.^.E.K.L.H.l.L.4XnXnXqX4X7XcXwX0X/.H.c.D.R.H.D.H.H.D.H.H.x.Y.H.M.M.H.Y.R.E.Y.Y.H.l.l.H.L.H.f.r. .' m v  .n.N.M.N.&X>X9X4X4X9X9X4XW.L.c.H.R.H.R.E./.E.H.H.Y.W.4XE.J.Y.J.k.N.m.v.k.M.m.m.x.m.x.S.S.S.H.H.L.H.S.S.S.S.L.E.K.L.K.L.L.L.x.j.j.m.L.j.O.0 4 1 W 0.b.Q.Q.E.8X4XE./.K.).6X).0X)./.cX/.^.R.R.E.R.R.R.S.S.L.R.^.^.E.L./.^.R.F.K.K.D.D.D.z.l.l.z.z.x.H.4XE.H.H.D.S.F.D.R.F.F.!.~.U.G.G.",
"/.^.R.D.R.R.R.R.D.H.E././.E.K.R.R.H.Y.R.R.L.H.Y.Y.L.H.L.Y.L.H.x.Q.M.J.M.J.Y.M.H.Y.x.L.Y.x.J.4X4XL.J.N.6.U B v Z ( Q ..#.6.N.Q.x.c.R./.R.G.F.!.~.!.!.!.!.~.(.).6X(.(.).).6XzXxXvX).0XzX).6X0X0X/.R.R.R.R.R.E.4X0X^.^.^.^.(.^.R.K.E.g.H.D./.4X0X4XR.H.R./.cXDXcX0XcXmXcXxX8X6X).(.^.(.6X6X).).6XzX!.).`.8X~.F.F.~.~.F.F.!.P.).bXzX^.0XcXcXzX)././.(.).).).R.D.F.R.R.U.R.R.~.~.R.H.D.x.c.h.l.x.Y.W.4XcXzX(.(.(.0X%Xi.] j k C U 6.m.z.L.K.R.^.R.F.U.~.R.D.z.z.x.j.g.H.R./.4XW.R.L.M.J.Q.T.M.T.9X9XM.8.w.w.h.j.k.x.x.l.K.E.H.D.L.L.k.7.;XT.b.;XN.,.8.) ) 9.q.j.j.C.;XQ.T.j.j.-X%Xv.|.s.Q c h j W s.u.&X-X-X=XY.H.Y.4X7X/.^./././.R.D.S.L.^.E.K.L.L.L.L.L.W.4X4XR.K.^.4XR.D.D.H.D.L.H.c.l.D.L.H.R.R.H.x.H.H.Y.Y.L.x.l.x.L.J.M.H.Q.R.l.f.v.O.{ m h ] u.N.M.v.&X>XQ.E.R.H.=XR.J.H.H./.R.7XE.E.4X4XE.x.z.H.W.Y.H.R.J.j.M.j.j.j.M.J.m.z.z.x.S.S.S.S.S.S.S.L.H.S.S.K.E.K.S.K.H.K.K.L.m.M.J.H.j.#.y 4 > W t.6.N.T.Q.9X=XL.R.0XcX^.l.R.).!.R.S.S.D.R.H.D.L.R.S.L.E.W.E.^.6XcXzX6X(.!.F.l.S.K.l.D.D.h.d.z.H.Y.R.H.x.D.D.D.F.D.R.R.!.!.~.~.R.D.",
"!.R.D.R.qXcX0X/.vX!.xXxX/.^.R.^.H.W.4XW.H.x.l.g.g.z.x.H.Y.Y.Y.Y.M.j.j.k.M.M.J.Y.M.x.H.E.E.H.z.z.L.x.M.N.O.A B J K Q ..#.6.b.=X8X0XnXcXxX/.K./.^.zX6X(.).6X7X).).(.(.^.).zXzX).^.).^.zX0XxXvX0XwX0XH.c.c.0XL.D.R.8XH./.^.R.R.D.wX0XE.h.E.W.D././././.wXcX6X6X8XR.E.E./.qXxX0X^.E.R.^.(.^.^.(././.qX8X0XqX8X(.(.6XzXxXlX!.lXbXzXlXvXxXbXcX).).6X).0X6X).!.F.D.K.!.R.R.^.)./.^.R.R.D.2.x.x.g.x.J.Y.4X/.).^.P.^.7X Xt.W h h B  .X.j.m.D.L.K.R.R.R.R.^.^.E.H.H.M.j.d.7.M.5X9X9X-XY.M.J.C.v.j.b.8.) 8.9.9.8.j.M.M.M.x.l.D.H.D.x.D.D.k.N.N.N.N.b.v.q.8.4.R ,.b.N.w.j.%X9XM.7.j.E.5X;X<X3X@.c h B W o.u.N.M.&X5XY.E.4XE.E.R.R.R.H.R.E.L.!.K.L.L.K.R.L.H.x.H.L.R.R.K.L.L.R.R.R.H.H.H.H.Y.R.Y.Y.Y.L.H.H.H.H.H.Y.R.L.x.H.4XE.Y.Y.Y.W.W.E.L.J.f.#.W J v ..n.&XT.C.;X;XT.H.R.H.j.H.E.H.E.0X/./.6X4XE.Y.Y.R.E.0XR.x.H.E.Y.k.j.v.m.M.k.j.j.l.z.z.x.x.x.S.S.H.S.H.L.L.L.S.S.L.R.D.H.R.R.M.k.m.M.H.v.#.y > > V t.N.M.f.Q.iXeX4X/.mX/.(.!.R.!.R.K.E.K.^.E.x.D.E.K.E.R.z.L.4X4X7X4X).).).^.K.F.D.L.l.c.c.H.L.x.k.Y.M.H.H.H.D.D.F.F.F.!.R.).zX0X0XR.",
"0XzX).~./.)./.).R.F.zXxX^.^./.wXwXx.g.Y.R.g.<.l.D.D.H.R.E.E.E.Y.Y.M.M.M.k.j.k.H.Y.J.H.H.H.x.H.H.S.k.M.b.o.A B Z J J } O.6.v.Q.8XnXnXcXFXnX^./.4XE.K.K.R.^.!.^.^.6XzXxX0X^.K.K.R.(.R.(.R.R.^.K.E.R.R.R.D.8XE.R.H.R.0XxXcXxXxXcXqXFXW.H.E./.H.l.c././.cXcXR.D.R.R.S.D.R./.qX0X8X6XR.^.(.(./.0X0X0XcX0X/.).`.8X6X0XmXvX6X(.zXvXNXNXmXcXxX0X~.(.0X0X0X(.R.!./.).).^.R.R.~.).^.R.E./.D.1.g.h.k.=X=XE.E.R.^.^.!./.=XN.! S f h v ! T q.H.L.K.K.R.R.R.R.R.E.R.H.l.l.f.f.k.m.M.M.T.&X&XT.j.9.R 5.N.u.T E 5.q.j.j.M.k.j.g.D.x.D.H.H.c.c.x.j.q.q.q.j.j.j.q.w.9.5.b.%XT.v.8.&XT.J.Y.Q.-X;X<XoX*.v 0 V ] O.u.b.M.Q.;XQ.4X0X7X/.E.R.R.D.K.R.S.K.K.K.K.K.L.L.J.R.R.J.H.H.H.K.E.H.H.L.R.Y.L.H.x.H.H.H.H.H.L.R.R.L.x.x.H.H.x.x.L.x.L.W.W.W.R.Y.L.J.v.O.C v v ..i.&X%Xb.q.b.N.D.D.H.f.m.W./.6X4XL.S.K.R.R.R.E./.4XR.Y.L.Y.H.k.M.J.M.M.k.k.j.f.g.g.l.z.x.x.S.H.H.H.K.K.L.H.S.S.S.L.L.R.R.R.H.m.m.m.z.8.@.y > > v t.8.b.j.T.eX9X4XY.qXE.(.^.R./.^.^.K.S.S.H.^.4X^.L.L.L.L.H.H.m.m.E.^./.!.K.K.^.K.G.S.K.L.D.H.H.z.k.k.k.H.R.R.K.F.F.G.(.0XcX^.S.~.'.",
"l.R.R.R.(.).).0X/.D.R.).xXDX0XE.D.l.D./.4XR.E.0XwXqX8X4X/.R.D.z.z.j.k.k.x.z.x.H.x.L.E.R.R.H.H.D.S.x.M.u.| A V Z J ' ..O.6.v.Q.9XcXwX/.0X4XE.=X=XW.W.7X6X6X6XzXxXvXcXzX6X6X).^.!.F.F.K.D.H.E.R./.R.4X4XH.E.4X0X0X0XFXnXDXFXmXLXFXqXE.4XH.x.E.Y.qX/.R.4XcX0X^.K.S.l.H.0XcX0XE.^./.0X0X0X6X0XzXzX0X(.^.!.R.R.^./.).6X^.).HXLXvXlXbXxX).).~.K.K.^.!.^././.^.!.K.F.F.).)./.(.R.R.R./.l.1.d.7.h.T.T.Y.8X/./.(.P.K.z.^ S B 0 h k A U 8.m.S.L.K.R.R.R.R.R.R.R.D.l.g.j.j.j.j.8.8.j.Z.&X&XC.6.R ) i.i.+.T ) 9.8.v.M.H.H.L.H.c.c.R.R.c.c.k.N.v.q.8.w.q.q.w.j.v.v.M.Q.-XM.,.w.M.T.J.k.j.v.a.{.}.Z 0 B [ o.0.8.8.j.m.j.z.D.c.^.R.R.R.D.R.^.R.^./.6X7XE.R.R.W.Y.Y.Y.Y.Y.H.H.H.H.H.H.H.Y.Y.H.x.M.M.H.L.R.R.E.E.E.H.x.H.L.H.x.x.H.E.W.R.x.l.H.W.L.m.O.B k v [ t.q.%X%XN.%X-XH.h.g.z.R.4XW.E.^.K.R.^././.E.R.R.Y.H.H.Y.J.M.k.N.T.N.N.M.M.m.z.l.f.k.k.x.m.M.H.H.H.H.S.x.S.H.L.L.L.Y.Y.R.H.M.k.j.j.k.u.@.y > % h  .u.T.J.T.-X5X4XR.^.K././.R.^.^./.K.R.R.E.4X7XJ.J.H.S.R.z.f.j.d.J.K./.^.F.K.^.!.G.g.L.D.l.x.H.x.l.x.x.L.W.^.H.G.G.!.)./.qX^.S.Y.W.",
").).!.R.).0X)./.).6XxXxX0X0X/.K.x.H.H.H.D.R.4XcXqXqX0X8X4X/.E.E.E.T.Y.J.x.h.d.d.l.L.W.E.R.R.H.l.x.H.M.q.X.I Z Z J ' ..O.u.v.Y.8XwXmX0XQ.T.&X9XT.N.Y.4XwXcXvXbXbXxX6X^.(.6XzX).(.K.K.R.R.Y.R.R.E.L.W.W.H.R.4XwXwXnXnXwXDXmXqXmXFX8XqXwXx.z.W.4X4X/.H.S.S.D.R.R.D.S.R././.^./.wXDX0X0X).(.(././.!.F.R.^.K.S.D.R.R././.6XxXmXbXlXvX).~.(.).~.!.R.F.l.F.(.(.!.!.(.).).)./.^.R.D.H.Y.g.2.k.j.1.7.j.T.W.E.^./.^.^.m.X.A Z q y h A ! 6.j.z.H.L.R.E.R.R.R.R.R.D.z.l.k.m.f.v.b.q.5.8.b.Z.b.q.X._ _ _ T ) q.j.M.M.M.k.x.x.H.c.c.H.Y.x.h.j.N.v.8.8.w.j.w.8.8.M.M.j.j.N.J.b.w.C.-XY.z.f.q.t.@.*.Z 7 S @.t.OX%XQ.Q.Q.E.E.E.R.^.K.R.R.K.R.^.R.6X0XxX0X^.R.E.W.L.Y.R.R.R.H.H.D.R.H.D.x.x.H.J.Y.Y.Y.Y.Y.R.R.E.E.E.H.x.H.L.H.x.x.L.Y.Y.H.j.l.L.W.P.m.e.S v v { t.6.%XC.q.b.n.j.z.d.M.W.4XK.D.K.E.^./.4X/./././.E.E.Y.H.M.J.Y.Y.N.N.M.M.M.M.M.m.z.l.j.z.z.x.m.M.H.l.l.l.x.H.H.K.Y.Y.H.D.D.k.k.j.f.m.v.@.z > # 0 ! n.-XT.M.Y.Y.4XW.E.K././.R.R.K.R.E.4X/.R.E.H.x.R.J.z.J.d.f.J.f.=XL./.6XE.L.K.K.L.z.L.S.l.D.H.x.k.M.J.R.E.E.K.F.G.)./.R.E.4XW.-XY.",
"cXbX(.F.!.(.^.(.6XcXxXzX6X!.K.D.R.c.c.R.4X/./.4X0X0X0X4X/.E.E.W.=XW.Q.E.E.R.H.z.H.R.R.D.c.L.H.L.x.H.M.q.X.I Z Z J ' { ..t.v.H.6X7XnX8X=XT.n.u._ T 9.N.5XcXvXbXbXzXxXxXzX6X6XzXcXqX0X/.R.c.g.g.d.d.f.z.L.R.W.W.R.4XE.8XwXwX0XE.4X4X9XT.T.4X8XW.1.H./.4XR.H.H.F.K.H.Y.R.W.4X4X/.E.R.R.R.D.D.K.K.F.F.!.^.!.R.E.R.L.D.cXmX7X6XmXvX6XzXhXxXbXxX0X/.K.R.E./.6XzXvXxX6X!.R.R.R.R.R.H.D.D.D.W.Y.h.,.7.5X5XW.^././.7XJ.6.W J 9 u h Z ! o.j.k.M.L.R.E.E.E.R.K.L.D.S.S.S.H.j.M.N.v.5.4.4.4.) 5.q.6.T Y U X.v.M.M.M.k.k.x.M.x.x.x.x.D.x.x.h.j.8.9.8.w.j.j.w.w.j.m.j.f.j.J.Q.M.Q.&XT.k.v.u.e.@.@.v 7 Z { O.@X>X9X5X5XqXqXwXwX/.E.!.!.H.K.R.R.).)./.^.R.R.R.R.4XW.Y.H.H.H.R.R.E.R.H.x.z.x.J.T.Y.Y.Y.Y.R.R.R.R.H.x.z.x.x.x.x.x.h.z.x.L.Y.Y.Y.L.L.V.t.' K h W t.i.OXN.u.b.b.7.7.z.M.H.L.R.H.D.D./.)./.^.^././.E.W.Y.x.x.J.Y.J.k.v.j.j.j.z.z.j.g.f.f.f.f.f.j.z.k.z.x.m.k.l.z.x.H.H.x.x.c.k.j.j.f.f.q...x % # w ! n.%XM.M.J.x.R././.R.0X8XE.R.D.H././.L.L.^.R.x.L.=XH.Y.7.7.N.j.4XR.E.^.^.K.S.S.K.E.K.L.L.K.x.j.x.H.E.E.H.K.^.R.S.K.6X4X4XW.&X9X>X",
"U.(.(.!.!.!.!.).zXxX^.^.6X).!.L.R.E././.6XcXcX0XcXxX0X/.R.D.D.H.x.x.H.L./.8X4XE.H.L.H.H.D.L.D.x.z.x.m.q.| A B Z J { { ..i.v.M.6XxX7XH.J.q.E D D N T u.=X8XxXbXlXzXzX0XzXzXxXcXcXcXcX4XE.D.z.D.x.j.1.d.Y.R.4XW.R././.cX/./.cX/./.W.W.k.-X8Xx.H.d.H.4X8X/.4X/.R.K.D.E.4X4XR.D.c.c./././.R.R.R.R.R.F.F.F.^.xXnXqXE.L.6XnXnXxXlX(.).bXzXbXbXxXzX6X!./.0XzX0X).).).~.~.~.!.~.^.^.R.x.E.Y.E.E.Y.j.j.9X9X5X7X/.^.P.N.o.~ ' 8 u y V ] X.q.z.M.H.L.H.H.D.H.D.S.D.L.S.S.S.j.j.f.7.f.8.9.R 4.9.q.0.) ) 6.u.w.j.j.j.k.x.H.H.z.x.x.z.x.M.x.h.j.q.8.w.j.j.j.w.j.j.j.j.k.j.k.N.M.Z.M.k.j.j.6.| @.' h 7 B W ..OX>X9X&XQ.5X8X7X4X6X/.).6X^.E././.^.!.R.K.R.R.R.Y.W.W.E.E.R.R.R.E.K.R.R.L.H.M.M.Y.k.k.M.H.H.H.H.H.H.H.x.x.H.H.H.H.H.x.x.H.Y.R.H.x.L.f.t.} K h A t.A.u.0.n.*X&XN.7.x.R.W.R.R.H.S.L.6X/.^.R.R.R.R.H.H.H.H.x.k.k.M.M.j.j.f.f.f.d.d.7.f.f.f.f.f.j.k.k.z.x.m.k.j.j.m.J.J.D.D.x.k.m.k.j.j.r.[ M % # 7 ! n.-XQ.;X8XQ./.4X4XR.4X8X/./.R.Y.R.E.W.4X4XJ.H.Y.=XE.T.9.:.8.8.%XQ.H.x.L.R.L.S.D.K.L.L.L.K.k.j.J.W.4XW.D.D.R.K.G.L.4X4X5X=X%X;X%X",
"(.zXbXzXzX).!.!.).xX).).!.G.!.0X0XnX8Xl.2.K.zXzX(.!.F.D.H.R.H.H.H.H.H.H.H.R.H.c.R.H.H.R.R.H.c.l.S.z.k.v.o.S V Z J } [ O.N.N.J.wXmX^.j.v.q.Y D Y N _ b.Q.E.^._._.!.F.F.K./.0X6X/./.wX4X8X4XW.qX8X4XM.h.Y.M.=XW.Y.L.W.4XR.E.0X4XW.-X;X-XW.x.1.h.H.E.H.l.l.R.K.K.4XH.E.E.c.l.D.0XFXcXmXcXqX/./.6X0X).^.!.6XcXnXwX0XwX/.E.7X7XK.^.NXzXhXhXzXzXzX).R.l.R.).!.F.F.~.).(.(.~.R.R.R.H.x.H.H.J.M.&X-XZ.;XJ.M.L.L.K.P.N.e.W ' 8 q y v ] | q.j.m.H.H.H.D.S.D.S.D.H.L.S.z.m.l.g.d.d.j.M.j.5.8.4.4.X.T X.u.q.M.M.M.m.k.j.g.d.h.l.j.z.x.j.k.k.N.b.j.j.j.j.j.j.j.j.j.k.k.j.f.7.k.k.k.M.v.8.+.| C k 7 1 v [ a.1XpXMX9X5XiXnXwXcX0X6X0XxX0X).0X0X(.!.R.D.U.Y.R.R.Y.R.W././.W.R.H.K.R.R.R.Y.J.M.M.k.M.H.Y.R.R.R.R.R.L.H.H.H.L.L.L.W.Y.H.x.x.H.H.H.z.8.e.' J h A %.n._ U _ 6.OX9X&XE.9XwX4XE.D.L.6XR.K.H.D.R././.E.H.R.R.M.l.j.j.j.j.j.j.f.d.d.g.j.j.j.j.j.j.j.k.m.k.k.z.j.j.k.M.Y.J.M.D.x.k.j.j.j.j.u.[ M # # 1 ] OXuX9X9XiXqX8X4XE.S.R.E.W.4XR.H.x.H.W.4XR.k.H.T.J.J.j.R R ,.9.v.J.k.g.x.K.E.K.L.z.L.L.L.L.H.H.W.4XE.H.D.D.D.S.S.^.E.L.5X5XN.8.X.",
"wX0XE.R./.0X6X).xXxXG.D.!.G.D.R.R.D.D./.0X).^.(.6X!.G.G.D.D.c.g.l.x.D.D.D.H.D.c.4XR.S.D.H.D.D.L.L.x.M.b.O.S V A J } [ ..n.b.N.wX4XR.h.j.b.5._ Y _ i.>X9XQ.L.K.K.K.R.^.(.^.^././.Y.8X4XwXeX-X9X&X5XJ.k.T.k.Y.k.<.1.h.f.E.W.k.H.d.h.N.eXY.M.8XW./.h.D.E.wXcXD.l./.E.R.H.E.qXGXnX8X0XcXcXwX4X8XxXcXHXDXDXmXwX/./.0X/.0X6X^.).0X6X).bXhXzXbXcXxX6XR.R.E.R.D.G.F.F.G.F.F.F.l.l.S.D.L.l.H.L.k.W.9X&X-XM.k.x.x.l.j.8.^ W ' w y y v {  .v.m.M.Y.Y.Y.Y.H.x.D.L.J.L.z.z.S.x.S.m.x.j.j.j.7.8.9.8.q.9.9.8.4.f.j.j.M.M.H.k.j.h.1.7.j.h.7.h.M.j.j.w.7.8.w.j.j.8.m.M.k.f.d.d.<.1.1.f.k.j.,.R U I v 8 7 h ' y.A.>X9X=XQ.9XiXqXnXwX6XqXxX6X^./././.^.R.D.c.x.D.H.R.R.Q.Y.Y.R.R.E.E.R.R.R.R.Y.M.k.J.Y.E.Q.W.W.E.R.R.H.D.D.H.L.L.H.x.H.L.L.H.H.H.J.m.8.e.W S v ] #.t.T X.6.5.%XSX9XGXFXwX/.4X4X/.cX0X6X^.R.R.R.H.c.E.E.R.D.z.j.j.7.7.f.j.f.7.d.j.m.j.f.f.7.f.f.j.j.Y.H.k.j.z.k.S.M.H.M.D.x.j.j.j.j.5.6.W b # > 8 @.%XiX5XQ.5X4X4XL.L.d.l.D.Y.W.J.k.j.,.7.m.v.M.N.M.b.v.R E ) 4.6.9.q.j.j.j.M.E.4XW.x.W.W.J.J.Y.Q.&XT.7.1.z.S.z.S.E.^.H.m.5X:XX.E N ",
"8XW.W.x.H.qXE.R.R.S.l.S.K.R.E.^.E.E.(.6X).!.F.F.F.G.G.S.S.c.c.S.S.S.G.F.K.K.K.K.R.H.D.D.D.D.D.L.c.x.j.q.O.C k J J } @...6.N.&X=X=XW.Y.k.j.j.b.j.Q.-X-X&XW.=XE.L.^.E.E.4X/.K.K./.E.4X8X9XtX&XZ.Z.b.=X9X-XM.f.7.7.9.9.j.M.j.1.7.j.9.T.9X9X9XeX;XM.Y.W.E.E./.E.K.R.H.^.R.4X=X9XQ.&XW.M.J.8XnXqX6XxX6XmXnX7XE.^.R.D.R.^.6XzXzXzX).)._.kXbXzXcX6XD.^.^.^.K.L.L.K.K.S.G.G.D.F.F.S.G.G.S.S.S.z.x.J.J.M.j.f.7.7.5.4.+. ...' 0 k v H W ..v.T.m.Y.Q.N.T.M.J.L.L.z.S.K.K.S.x.L.J.J.Y.M.j.v.8.5.9.7.j.j.f.d.z.L.S.l.L.S.g.l.h.j.z.h.h.h.1.:.f.7.7.7.j.N.q.w.j.j.z.x.S.S.S.G.z.z.S.G.G.g.7.+.! Z 9 1 1 z ..{.XXN.C.%X%X-X9X9X4X7X7X7X^.7X/.E.E.Y.E.E.L.Y.Y.M.H.H.H.H.R.E.R.H.K.K.K.K.R.R.L.L.H.M.H.Y.Y.Y.J.Y.H.H.H.H.H.H.H.Y.x.c.c.z.z.j.j.j.9.u.e.! Y C I #.i.T T 6.w.%XiX8X8X0X4X4X0XqXqX0X4XR.H.^.W.S.l.z.S.S.S.S.x.j.f.7.j.w.w.j.j.j.j.j.z.j.h.j.j.j.j.j.k.j.j.l.z.S.L.K.E.R.H.z.f.7.q.u.6.t.[ h 7 1 p -.;X9X7XR.L.L.L.L.L.x.x.J.T.J.m.q.) ) ) 5.0.u.6.+.+.U Y X.0.0. .X.X.0.N.OX&XOXN.b.N.B.j.q.u.u.B.OXq.E ) v.f.7.S.H.H.m.N.OXt.C f k ",
"Q.k.f.L.R.S.D.H.R.H.D.D.K.R.!.^./.^.E.(./.!.F.G.G.l.g.l.l.l.h.c.S.G.D.D.K.L.D.S.H.D.D.H.H.D.c.c.c.x.j.q.O.S k J ( { @.#.O.8.M.Q.8XnX4Xd.g.qXFXnXx.Y.E.H.k.M.-X9XW.4X4XE.R.^./.E.E.4X-XQ.b.) T X.M.M.m.M.=X9X%Xj.w.T.T.w.w.T.N.,.9.j.C.&X;X;X&XY.Y.Q.E.E.^.K.l.d.c.L.x.M.Q.;XM.9.7.7.7.k.R.7X0XqXwX4XJ.L.W.R.H.R./.0XzX6X).).(.~.).!.!.F.F.!.!.xX6X6X7X/./.(.^.P.D.L.K.K.K.L.F.S.F.F.S.S.x.H.x.l.7.7.7.9.9.6.O. .y.@.k k V H ' @.u.M.w.u.v.v.&X&XT.M.M.L.H.g.z.E.H.E.=X-X;XT.j.5.8.8.8.j.M.M.M.x.z.^.^.L.m.f.f.M.k.M.H.x.z.h.d.1.1.7.b.w.b.b.5.6.8.v.M.H.H.S.S.L.L.S.D.F.K.D.m.6.[ Z 9 - 1 z } #XXXi.n.C.C.%X-X%XJ.=XW.J.J.P.E.E.Y.J.J.Y.L.Y.E.L.J.L.L.L.R.R.E.E.R.K.K.K.K.L.L.J.k.m.M.M.j.f.j.M.Y.L.L.H.L.H.H.H.k.z.j.h.f.7.1.9.5.#.#.^ S D | y.t.t.n.n.q.C.-XM.-XW.Y.M.M.J.M.M.Y.J.J.J.M.j.f.z.z.z.S.x.z.j.w.8.5.5.5.5.8.8.8.8.7.9.9.5.8.q.u.b.8.8.8.8.f.f.z.z.L.H.k.j.8.8.u.t.O.$.' h 7 ; 8 *.OX;X&XJ.v.v.m.m.M.v.v.v.v.u.6.o.^ U Y Y ! ! U I B N B W [ ] A A P ..a..Xa.t.e.t.O.e.s.|.XXa.t.#.! Y | e.+.6.B.v.%XB.e. .A k y z ",
"H.l.<.R.W.d.S.D.H.K.R.K.F.K.R.R.W.E.R.E.E.D.c.l.l.g.g.h.h.h.j.j.z.c.S.H.L.Y.L.H.M.k.x.M.M.k.j.j.c.x.j.i.O.S B J ' ' } &.t.5.v.5X/.wXcX0X0XcXcX4XnXcX4XH.d.d.x.E.H.L.H.g.g.L.L.S.4X5X-XT.9.E D X.T.%XT.M.M.N.j.:.9.j.v.j.7.7.w.j.v.w.5.5.7.7.j.m.Y.Q.E.7XqX4XS.g.2.7.l.H.-XQ.j.R R 7.j.d.2.z.L.K.W.Y.M.H.R.H.l.c.D.R.!.U.R.~.).).).~.bXJXvXcX8XzX0XzX0X6X).^.!.!.K.K.K.K.F.F.F.S.G.S.S.z.c.l.h.d.d.7.7.9.5.+.X.| s.$.B v Z J Q [ t.i.i.n.n.u.n.n.i.6.6.v.v.5.j.J.=X%XJ.N.&X%Xv.8.9.4.9.5.8.v.m.m.z.m.z.d.j.j.f.j.k.M.J.M.j.j.h.h.q.b.N.0.+.X.U X.6.i.C.N.M.m.m.H.N.B.m.m.L.m.8. .' z > @ - q ' .Xa.e.6.e.8.r.q.4.M.J.=XJ.E.=X4X5XJ.M.M.M.z.m.m.j.z.m.M.M.m.H.L.L.H.H.H.M.M.M.m.m.m.m.M.v.8.9.q.M.m.m.k.k.j.j.f.7.j.j.j.j.j.w.j.q.e.#.$.[ B B ..&.@.#.y.#.| 6.n.N.OXC.Z.C.C.N.b.v.6.q.u.8.5.X.5.8.6.8.8.8.0.0.6.+.O.O.O.O.0.6.6.6.O.+.| ..o.....O...O.O.6.t.r.u.q.j.f.8.6.6.o.o. . .[ W c 0 ; 1 ' }.a.s.e.O.e.e.e.| ! ! ] [ ] ! ! ' J Z v v c h h 0 q z Z m z y l h v H J A V S S S S W Q Q J A V l v J W S ~  .~ W A V z y 9 3 i ",
"k.J.x.H.H.x.L.c.S.H.K.H.F.K.F.S.x.H.T.E.Y.x.c.D.c.z.l.j.j.j.j.k.h.j.k.H.Y.Y.Y.J.M.j.j.j.j.j.j.j.z.j.j.b.+.S B Z { ' [ &.t.6.v.;XR.K.^.cXnXcXnXFX8XqXnXnXnX4XH.d.m.f.d.f.x.S.H.J.L.M.v.8.T N D X.v.%X;X%Xb.8.q.v.8.R 4.v.q.R ,.C.C.B.q.9.4.9.f.M.j.z.z.H.E.H.g.7.:.:.j.J.-Xj.8.9.,.9.7.f.J.5X7XH.J.-X&XM.j.j.h.l.c.l.c.R.8XcXDXHXHXzXvXDX0X8X8XqXqXxXxX0X).^.~.~.!.!.R.R.R.K.K.K.K.K.H.L.H.x.z.j.f.d.9.4.X.X.| | O.[ C V Z J H A P U ]  . .! I S  ... . .t.OXOXu.B.v.8.6.i.i.6.6.o.+.X.^ X.6.u.B.v.f.9.9.f.B.v.f.8.j.v.j.j.j.v.v.n.i.t.Y C B N I #.y.a.i.t.6.8.u.XX|.B.B.B.r.o.~ K a , > > q K -.s.#.O.#.o.o.X.^ ^ 5.6.8.r.B.N.OX%XN.N.N.v.v.B.f.v.v.m.N.N.N.N.N.N.N.N.N.N.B.B.B.B.u.6.6.e.t.u.u.i.i.i.i.u.u.6.6.+.+.6.6.0.u.i.s.&.} } ' h v } @.' W @..X&. ...t.%.%.s..X.Xs.#...U  . .[ ! [  .#.o.#.#.%.%.%.=.@...........[ ] ! ] J J J A Z Z Z J J ' [ @.@.....e.O.o. . .[ ~ W H V b p 9 - - F } ' H H ' } Q Z c l l z z l x x F b p 9 8 9 2 1 2 2 e e < > > 3 2 > - - 1 1 1 1 7 1 1 1 1 1 1 4 # - 3 2 - 7 8 ; - - 1 > , , & * ",
"w.b.Q.j.v.T.M.j.j.j.z.x.x.M.z.h.h.z.D.R.E.H.D.H.D.x.c.z.z.k.k.j.z.x.x.H.H.H.x.z.M.j.h.j.j.j.j.j.j.f.j.b.O.S B Z ' ' [ @.#.6.u.N.M.K.E.7X7X4X8XqX4XH.f.z.M.M.z.f.v.8.8.j.M.J.J.T.j.9.R T U D D ^ 6.6.8.u.u.6.r.n.OXu.X.X.5.4.) T X.6.u.6.4.8.B. X%X%XJ.J.J.m.f.f.9.:.8.8.v.q.N.u.) q.N.B.8.f.J.5XC.%Xv.T E R ,.j.M.7.j.=XeXqX9XnXnX/.4XE.h.z.H.E.W.4X8X/.(.!.!.!.R.R.L.L.H.L.L.H.H.H.H.H.k.j.h.w.7.8.8.8.8.6.O. .~ P V Z J H Q Z V k h h h v h h k H J V W &.&.P P ! ^ | O. .! ! ! ! U Y U ^ X.o.6.6.e.o.^ X.5.5.4.4.4.6.u.b.N.n.%.[ A h 0 h h Z } @.@.@.[ [  . .[ [ [ [ ! W H H x e , , < 3 n K J H J J A A W W W W ! !  .e.y.t.#. . . .^  .o. .^ ^ o.e.u.p.e.#.t.e.#.#. . . .[  .W P W W W ~ ~ ! ] ] ] ' W W W ] ] ' ' [ [  .[ K F G b w z } } } J J } ' m k m m m Z K J b h q h z z l l b V b Z Z H K K Z Z m m m m b v z l p q 9 3 9 3 3 3 9 9 i a x x x x z V v c c c z l r p 2 3 2 : @ @ i d a 3 3 a d a < < > > > % # % & & # @ @ + $ & $ O O O + . . + $ $ O . . O @ O O O O O O O O O . . . . . . . . . O + . . . o o . ",
"9.9.N.b.b.N.9.8.7.7.7.j.j.j.f.7.g.2.2.c.R.R.D.l.D.x.c.l.h.l.h.f.z.x.D.H.R.H.H.x.x.l.z.x.x.l.h.h.j.7.j.b.o.S C V H ' { ..%.t.i.i.B.m.=XrX9XJ.v.v.;X&X;XrX;XB.4.X.B.|.n.6.6.v.u.X.^ T Y Y | ! ! ..t.#.^ ^ U Y U o.XX|.t.o.o.O.| Y C U ! C Y  .p.|.B.B.r.r.r.4.^ 5.u.5.+.U | @X3X|.3Xe.E E 5.v.v.r.XXt.| U Y Y T 0.i.5.6.C.,XOXZ.%XN.N.;X%Xb.b.w.k.Z.Z.T.Q.Q.E.E.W.Q.T.T.T.J.J.J.N.N.M.b.b.q.5.5.5.8.r.v.n.a.t.#.[ I S Z Z Q Q } K K z y 8 q l q q 1 q p p y l l q c B B B Z V V A A A A P P W W W  .~ ~ ~ P ! | U U U U  .#.t.y.&.' G z w w 8 7 p p q w 7 7 7 7 7 7 8 q q f g p p 5 < & < 5 e e p i 9 9 i 9 8 u u y q q q l b b z c l h h f g h f f g c V W W H Z H Z b c l q q 0 q q q q 8 1 7 9 7 7 8 7 7 7 7 7 1 1 1 1 7 7 7 1 4 4 8 8 8 b } } @.' m w 1 4 4 > 1 - > 4 4 - # - - > - - - - > - - > > > > > > % > > 4 4 4 1 1 - @ @ @ @ @ + O @ O @ @ # # # # # - - @ @ # # @ O @ . @ + . . . & $ * $ + + $ $ + + . X X X   o o . . . . . . . . .                   o o .   . . . + X . . X X . $ o   o o o o o o o o   o o o   ",
"6.5.8.v.b.v.8.8.j.7.w.k.M.w.7.j.c.g.g.S.K.K.G.G.G.S.c.g.g.l.l.g.l.z.S.L.K.K.L.L.l.g.l.z.z.g.g.g.f.4.q.n.o.Y C V A ] [ @.$.%.t.t.u.6.u.@X@Xn.|.<X|.p.t.t.O.T U o.y.}.%.! ~ ^ ! C B C B S Q Q ' ' [ ..[ H c B W [ $.&.s.s.$.[ [ ..H Z B j c A [ $.$.../  .$.^ ~  . .P C C V &..X*.}.W j j W #.y.s.*.} ' ' ' A A ..@. . .#.%.#...O...a.XXO.]  ...t.t.0.0.u.i.b.b.b.n.i.i.i.i.i.i.i.t.0.0.O...] ]  .|  ...@...~ A V Z V H J } ' *.K b p p 2 3 9 # @ > < 3 5 3 , < 9 q p 8 7 q p l F K G G G K Q Q Q ' Z V G H [ [ V B B B A W W J K G a i 2 3 3 # > 3 2 > > > > 1 > # % > 1 1 9 9 e 5 5 6 5 a d x a s & & & & % & % , , > > < 3 < , 3 2 4 2 - - > # > - 2 9 i p p e i 5 3 , > > % # @ @ # @ @ O O # # # # # # # # # > > > > > > > > # - > 1 9 F ' } K } ( M p p 4 # % @ @ # # @ @ > , , % # # @ @ O @ + + @ @ + + + # # % > > % # $ $ X X + X . . . . . O O O O O . . O + X . . . . .   X     o X o . X X . . . . . .     . X     o X . . . .       X . .   .           . o         . X .     . . .         o     o       o o o   . ",
"8.v.5.8.q.q.T.v.N.M.N.=XQ.j.k.T.H.K.E.E.L.S.L.R.S.x.x.g.g.l.l.g.j.j.x.m.H.k.l.f.z.f.d.d.d.d.d.d.8.X.u.n.o.P S C W { @.@...! ! [ A [ @.! ! @.&.@.W Z B V B k j A V v c l h h h h v K K K K K K K l G G q w l b l l Z K K J J Z z p 8 7 p p p p l b z l b G b g l b w 7 x 7 u l x x z l q q h v m p M x 9 1 7 u M m G m l y h h g 0 H ' c 0 h 0 v V v j C D B N B B B B C C B B B C B B B k k k v c c c l l h y q z z K ' @.' *.V l 2 9 > > < @ # + + @ @ # % % # # > > , 5 i i a x a 9 q p b F G x p x x r l z 0 q q p x l p p a a 5 < , 3 3 % < # # # # # # - % & % # @ - - > > , , % # 3 a x e & X X X X + $ X X + + + + @ @ + @ . O @ O @ @ O O O O @ O O @ @ @ @ O O O O O O % + . + $ $ $ + $ $ $ $ $ $ $ # , % # # # # # # 2 9 3 4 p H J J J ' ( G M i u i , % # , # O O @ # # # $ @ O O O + + + @ + # % % > , , < < , & $ $ X X $ $ O . O O O @ @ @ @ @ O . . . .         .   o .   + o X * $ + O @ $ @ . + . . + X .     . . . . . . . . . .     . X X X X .     . . X X . . + . . + . . . + + X X     o o o   . . . . $ ",
"OX%XOXv.8.8.M.C.N.T.T.J.N.T.Q.Q.%XT.N.N.%X%XN.b.v.8.v.b.q.q.v.q.q.u.b.v.q.6.9.6.9.9.8.q.u.8.6.6.o.O.y.y. .C C I { ] @.@.' ! I k h l x M b b x x y l p 9 8 i p p x a i 9 3 9 9 q a a i 3 3 3 5 3 > , > - > 2 > > > 4 > > 1 4 4 > % % , , , % # @ # # > > > > > 2 > > % # % % # # % % > # - - > > # O @ # > # # , , # > , - - 2 - 1 - 1 1 > - - > 3 4 4 8 w 7 7 8 1 - ; 1 7 1 7 8 1 ; ; 1 4 4 4 4 1 4 3 3 4 4 8 9 p z H ' } @.' A b p 3 < , % # % + + + + + + + + $ $ + + % & , , , > , 3 3 3 3 5 , , > > > - - - - > - @ % , % + + @ O O O @ # # @ # # @ > > @ @ % + O # > - - - > 2 3 3 9 q q 8 % * * + + + + + # @ @ + @ @ @ @ O O O O @ @ O O @ @ @ @ @ @ @ @ O @ @ @ O O @ # # @ @ @ @ @ @ $ O > 2 > > < e e 9 e e 2 2 2 9 2 4 8 8 1 q H ' Q ' ' ' ' K M a i 5 5 3 , , , , : < , , , , < , : < % , 5 s , , i 3 s i s 5 , & $ $ $ 6 $ O # @ # : @ @ @ # @ # # O O O $ . . O . . + O O # @ @ < , 2 - @ @ @ @ - @ @ - - @ O O O # # @ O O @ O O @ O # # @ @ # @ % # + + % % % % # + # % % # # # - - # # # # + + % % % @ # - - - ",
"^ O.O.^ U ^ u.OX*X*X&Xn.b.q.4.T 6.6.u.a.s.o.|  .O.t.y.#. .t.t.] S P I ] | ......%.| P S P ! #.s. .~ W ] W A S W { ] @.&.@. .A 0 > > > > > > > % , 3 < % % < 3 < 3 < % # # % % % > % % + * % % % + % % $ + % % % # # # # # % % # * + + . + $ & & $ $ $ $ $ $ & & + + + + + + + + + + + + + @ # + $ + + + + O O + $ . O @ O O O O O O O O @ O @ $ % # # % % # > > & # # # : - - - 2 4 > > > > > % # % > > > > 4 3 y b J } @.@.@.[ H x p p e 3 3 < < , % % % % # @ . . . . + + + # # @ @ # @ @ @ + @ @ + # - - - - - - @ O . .   X . + + $ # # - > > 2 > # - > > 4 > # > > 4 4 7 8 q p l l h h h q p i 3 > > > 4 3 > - 1 1 1 1 1 - @ - - - > > # @ @ # # - - - - - 1 1 1 4 2 2 4 1 9 4 2 2 2 4 9 p p l b G G b v V G G H H H H V v v Z J Q } @...' W A A J Z M z a x a a a r 9 e a 9 p n x a p 9 2 3 e p a a p p p a a i 5 6 6 = 6 & $ : # : 5 9 9 q l l l l z p 9 n r r e 2 - 2 2 ; 9 q 7 q z b b G G b v G Z c n H V c v b b l 7 4 7 7 7 q l x x x q q p x F F p y p y 4 - # # > 4 u u 9 7 1 1 1 ; 0 y y w 7 9 y 7 1 7 h z h k V ",
"z h q 0 h b Z Z B Z H { @.*.@.{ v h V J Z h q z v G K m m J ( m 8 7 8 y z x M x y l Z } } ( Z z b l h V H A A W @.[ %.}.}.&.! f 3 & % % % % + + % % % + * & & & & * + + + + + + + + X + + * * * + * & * * * % % % % % > % % % % $ + + + X X X . . . + % & % + X * * & & * * * * * * + + + # $ $ + + @ O O + + + + O + # + @ # O & + + + + . . . $ + + + $ $ % & & & , , , 2 < , > > > 2 3 9 5 3 3 3 3 3 3 u p z b K } =.$.#.e.#.} Q K G G m x x a i 9 3 3 4 4 > > % % % # # # # > # # - # # # > # # > - > - - - > - # % + X o X X @ @ @ # - 1 8 8 p y q y q 0 q 8 9 9 w 0 h v v c V S A A A A S S S A A A A A A A A W W ' ~ W W Q } *.*.*.@.} [ A H W W W W W W ~ W W ..&.}.}.}.&.&.&.&.@.@.@.&.{.t.t.y.e.#.e.p.<X@X|.a.p.p.r.t.{.&.&.&.{.#XCXAX#X.X%.@.} } } } } K H Q Q H H ' } ' H G H H H H H ' ' H H J H c q p l a i 5 6 , 6 : 2 r L Q H Q ~ ..%.$.%.}.}.$.}.{.$XoX$./ / / $.@.@.#.#.a.+X+XfX1XoXoX3XfX3X1X#X#X+X+X#X$XoX}.&.&.&.&.}..XoXoX$X$X$X$XoXoXoX.X}.&.=.} ' ( J A { =.%.=.} } } ..%..X+X$XoXs.....=.....%.s.t.t.a.",
"i , > > e i 3 > 3 3 9 i p u 8 1 1 - - 4 3 > # > > # > 3 3 3 i 5 % % # # % % % # 3 > % > > < 3 9 1 1 7 q l v H @.%.%.&.}.{.}.[ V i 6 , , , , & % & & & % & < < & & & % & & & & & % % % & & < & & & & & & & & , , , % % , , % # # # % % < < < , , < , # @ % > < 5 , , < , , , % % % % % % > > > > # > - @ O @ @ O # @ @ - - @ - - @ O O O @ @ $ $ & $ $ & & & & 6 6 5 5 6 6 e e 2 9 9 q p p p a a p a p p p z b Z ' @.y.s.s.p.n.i.y.$...[ ' Q J H H G m b b b b x i i i q 9 8 w 7 7 1 1 7 8 8 q p u p M G ( ' } } ( m p < + + X o + # , 9 p b G ' } *.@.@.&.&.@.[ ' [ [ W ! @.%.y.y.a.XXXXXXoXoXXXn.OX@X*X*X:XOXn.n.n.n.OX:X:X@X@X+X1X3X3X1X1X1X<XXX@X*X<X1X<X+X+X2X*X@X*X2X2X2X2X3X3X3X3X2X*X@X:X:X;X&XN.m.J.J.N.%X:X;XsX-XN.f.8.{.a.a.{.+X3XZXAXZX1X@X.X{..X.X{.}.$.$.&.}.}.}.}..Xs. .W P W  .#.y..X{.%.#.y.#.! A J K K L s 6 6 2 1 n / -.oX{.|.+X<X<XOX|.|.|.|.2X Xr.6.e.|.@X@X@Xe.u.%X%X%XrXpXaX2X:X:X2X2X;XsXsX2XrXrXaXaX2X<X$X1X3X3XyXfX3X1X#X@X+X+XXXoX$X1X+X+X+X$X$X1X$X@X$X1X3X1X1X3X2X1X;X%XC.Z.OX1X3XyXyXVXVXtXyXVXVXtX",
". . + + + . X + + + + # % % % % % % # # # % $ + % + @ % # @ # + + + + X X X X + X X X + + + . O @ # # > 1 q J &.=.&.&.%.@.[ W Z a i s 5 i i 3 < 3 3 < < 5 s 5 < < < < < < < < < < < < < 3 3 3 3 5 < < < 3 3 < < 9 < 4 3 u 3 4 > 4 4 4 4 4 4 8 9 1 1 1 1 4 7 4 4 i q e p p p q 8 8 8 8 8 8 8 9 w ; 7 0 w 0 h l q w w w w q 7 t w z p 9 4 1 2 2 2 < , , < < < 5 i a x x a r r q w l c V H W Q [ } } [ [ ' ' [ ..#.{.XXOX@X:X;X>X;X@X|.|.a.y.t.%.$.%.$.@.$.&.%.&.&.}.}..X.X.XoX#X$XoX{..X.X.XoX#X$X$X$X3XCXAXAXAXAXCX$X-.F > % & * % 3 L } -..X.X#X3X2X+XOX1X3X3XyXyXdXyX1X<X2XyXpXtXpXpXpXpXtXtXtXpXMXMXuXuXuX9X5X=X%XT.T.=X-X;X;X;X>XrX;X&X&X;X;XT.%X;X9X9X9X;X;X-X%X=X-X;X-X;X;X&X%X;X9XuX;X=XJ.H.7X5X7X=X7X=XH.L.E.7X5X7XL.z.j.B.OXOXn.XXXXXXt.a.a.a.XX@X*XOXXXB.|.|.|.@X<X<X*XOX@X:Xn.6.O.u.A.OXOXOXN.N.OXOXXX#X.X-.} a 3 < 5 8 q K -.$XfX2XaXpXrX9X;X%XN.N.%X=XJ.T.%XC.C.N.v.8.R 5.T.T.L.E.W.9XtXpXSXMX5XQ.=X9X-XT.=X9XuX-Xb.N.C.%X:X>X>X;X&XC.q.5.6.5.6.0.5.q.%XtXCX3XtXtXtX>X>X>X,X,X>X;XQ.N.j.7.7.k.W.9XiXuXSXLXSXSXKXSXVX",
"+ + $ $ @ + # % # # @ @ O O O @ O # < # @ $ & $ $ $ & $ + & , + + + * + X X X $ & $ + + + + + % O O @ , q z Z Q [ @.[ W ~ W S V F M x x x x p p p a p p a a a i i i i i i i i i i i 9 i i i i i a e 9 9 i i q q u p u u p z p y v z v b Z V Z V h c v V Z V v v v v V G H H A V V V V V V V V V P W  ...%.s.}.}.{.{.|.oX#X#XoX$X$XoX&.' Z b p 8 p p i i i i a a L G H H H H ~ ~  .#.y.{.oX<X1XyX3X3X2X2X1X3X3XyXyXyXtXrXtXpXpXtXrXrX*X%X%X:X@X@X@X@X@X@X@X+X<X<X1X3XyXyXyXdXZXKXPXKXZXZXKXZXZXZXZXZXVXyXrX2X;X*X*X#XoX*.p 4 s s 3 p G *.}..X#X2X2XrX;X-XtXSXpXMXKXKXSXtX9X9XuXuX8X8XwXwXqXeX9X9X5XqXwX5X4X5X4XW.4X7XW.Y.R.Q.=X=X5X9X9X=XQ.W.-X5XT.E.Q.Q.E.Y.L.H.d.j.H.W.=XQ.W.5XY.Y.E.4X8XW.J.x.J.^.7X5X5X7X6XqXcXcX8XW.L.L.J.E.%X:Xn.6.O.t.t.o.O.+.6.0.b.%X;X;Xj.%X;X%XN.%X;X;X;X;X;X;X;X-X&XT.T.H.M.J.T.T.%X&X@XoX-.J i # + % 8 h Q &.oX1X<XtX9X5X5XiXiX5X5XuXwX5X=XJ.w.8.q.q.) 5.M.T.=X4X/.c.Q.8X9XiXqXW.R./.4X4X4X4X8XqX5XQ.v.b.N.N.T.-X;X-XiX;XQ.T.b.j.j.j.T.9XiXVXVXiXtX,X&XC.Z.Z.Q.W.Q.Y.Q.4XqXqX0X4X/.7X0X4XW.-X=X=X9XiX",
"2 - - - ; 1 ; ; w 7 7 q q q q p 2 e 5 2 : & , , # & , : # < 5 , & & & & $ $ + @ @ + % % # O O @ . . % s x F Z Z W ] W W $.&.[ Q ' J K Z b v z z b b b b b b b m b b b b b b b x M b x x b b b b b x z x x x b Z b J J J J ' ' '  .#.{.oX#X#X#XoX+XoX{.t.#.y.#X1X#X3XfXfXfX3X3X3X3X2X2X2X2X2X3X3X2X2X>X>X;X&XOXOX%X;X*X2XpXrXrXKXdXyX+Xa.%...' J Z b b x x z x b V H [ $.$.y.|.<X3XaXpXpXpXpXiXpXSXMXMXMXMXBXKXKXKXSXiXuXiXMXMXMXuX5X=XJ.T.&X;X:X>X<X;X:X&X%X:X;X5XsXrXsX5X5X9XnXLXMXMXMXMXuX9X;XuX9X8X5X4X7X4X5X,.T t.s.Z 8 3 3 p z G Q '  .u.%X;XuXiXnXFXFXnXnXcX0X7X7X4X^.^./.6X).).6X6X/.8XqXW.4XwXwXwXnXwX5X9X5X4X5X5X5X-X=X-X8X4XE.T.E.W.-X4X4XW.E.E.Y.H.x.k.k.Y.T.Y.j.j.M.Y.Y.T.E.T.M.M.H.H.Y.E.E.R.R.5XiX5XeXeX&XT.Q.N.j.5.8.8.4.O.t.t.o.t.0.+.) 9.b.T.Q.m.J.E.J.J.E.4X4X9XQ.H.J.W.4XE.x.W.P.L.L.K.R.Y.N.u.%.[ Z q # + @ 8 l Q ..y.OX%X5X9X4X4X0X0XW.E.E.8XM.k.&XVXVX,X0.u.C.OXZ.-X9X=XM.Y.Y.J.R.E.R.R./.c.R./.^.R.R./.4XW.&XQ.Q.=X;X5X-X9X-X5X9XQ.T.&X9XwXiXiXiXiXiX9XJ.Y.M.k.M.L.R.W.4X4X9X8X4X^.^./.6X6X^.K.H.m.M.Q.9X",
"W ~ / @...[ ..%.y.%.%.y.}.}.y.%.*.H l r e < , < e 2 2 e 2 1 2 2 3 2 2 2 3 3 2 1 2 2 2 4 - - - - @ @ > 9 z Z Q [ P U U O.1XfXoX}.}.s.$.[ W W W W W W W W I A W W J H H H J J A Z J J A A A H J J H G H H H A W [ s.#X3X+X#X3XCXCXyXpXpXyXtX2X;X:X2XaXVXpXaXtXyXZX3XdXKXKXaXsX2XaXaXaXrXrXrXrXaXaXuX;X&X&XQ.J.J.T.=X5X-X5XuX-X=XuXpXyX2X@XOXXX{.&.A Z v z z l z v B S ! #.t.p.%XpX5XuXiXMXMXMXMXnXcXcXqXqXxXMXnXnX9X8X4X4X8XMXFXFXMXnX4XW.=X9XuXuXuX9X;X%XT.N.N.T.-X4X4X7X7X7X0XxX6X7X7X7X4X7XR.L.4XW.R.K.H.K.E.W.4X7.b.+X@.v y y l b Q  . .^ 8.T.9XnXmXcXcXxXxXmXxX6X6XzXxX0X6XzXlX).(.).~.R.E./.4X8X4XW.4X8X9X9X4X4X8XeX9X9X5XW.W.W.W.Y.Q.T.Q.W.Q.Y.R.Y.Y.R.R.Y.W.T.Y.T.Y.M.Z.Q.Y.T.W.Q.Q.Y.Q.eXx.8XcX4XW.8XeX9XqX9X5XY.Q.9X9XY.j.5.9.9.6.u.u.i.a.n.b.u.b.N.N.N.T.m.z.M.E.4X4X4XE.4X0X8XW.Y.Y.Y.^.^.R.K.R.^.R.J.b.t.] v 9 > % > 4 h '  .t.OXT.Q.W./.W.E./.4X4XW.W.Q.;X,X&X,XrX>XtXtX%XZ.;X,X&X;XE.Y.Y.W.0X^.H.R.E./.4X4X8X0XwXqXnXiXMXiXiXiX9X9XMX4X5X9X9X5X4X5XnXFXLXMXuX9X9X;XJ.j.f.z.x.l.H.^.wX8X4X4X6X7XK.S.K.6X0XW.R.4X5XQ.",
"pXrX2XaXtX2X>XrXpXKXKXKXPXKXVXVXyXfXQ l 3 s s 3 9 r g g f 0 l 0 q 0 q l h w 0 h 0 c 0 0 v f 0 c f B B C  .t.s.OXXXX.6.*XZXdXyXyXyXOXyXXXOXn.6.n.i.u.6.6.6.O.6.i.n.|.XX{.%.| ` ` ..O.| ` | ] ] W Q Q W I ! ! u.ZXZX>XrXtX%X&XiXuXuX9XE.M.E.9XuX5X5X4X=X-XuX5X=XuXSXKXLXKXuX-X9XFXKXMXwXuXiXMX4Xz.J.H.H.W.4XE.Y.4X4X4X4X=X5X=X=X5X%X&XC.N.OX*X*X$X} Z z M z z b G v W #.XXN.8.J.9X4X8XwX8XqXwXcXqXwXnXcXqXqXcXnXwX4XwX4X8XGXGXnXFXHXFXFXMX4XY.R.5X9X9XT.j.N.%XQ.T.Q.-X5X4X8XwXqX7XK.g.x.L.L.4X=Xl.z.E.R.H./.R.H.0XnXqXSXyXt.I h v Z ' [ {.n.OX&X;X8X0X0X6X7X/.7X6X6X).).0X0X6X/./.).0X0X^./.wX0XY.R.Y.E.W.4X4XR.H.H.W.E.Y.E.H.H.8X4X4X4X4X8X9X8X=X-X=XW.Q.Y.L.D.k.j.j.j.N.T.J.Y.T.E.E.E.4X4XW.W.4X0XqXzX6X/.7X0XnX0X6X7X^.E.E.J.J.Y.j.7.8.8.N.OXv.b.u.OXOXOX0.5.T 4.9.9.,.j.m.H.R.L.R.E./.W.W.Y.z.L.Y.R.R.R.E.Y.M.C.u...Z u # + > 9 q W #.u.M.m.J.9X8X9X9XeX5X4X4XQ.;X9X9XeXiXiXVXiXuX;X9XQ.=XQ.5X4XL.x.L.4X4XR.H.L.R.W.4X/.E.E./.W.9XnXwX8X9X9X5X4X=X5X9X9X8X9X9X9X9X4X5X9X9X5X9XiX9X5X9X8XwXwX4XR.R.R.R.E.E.R.R.E.E.E./.0XwX4XE.",
"9X9X9X9X5X&XQ.=XnXFXLXLXLXFXGXGXSXKXy.v 4 < 5 < p v V A P W W B S S P W ! ~ ! [ %.%...e..X#.! o.oX<X<X*XyXZXyXrX;XtXKXKXKXPXPXaXZX;XZXrXpXtX>XZXaXtXrX>X>XiXVXKXKXKXVX2X*X*X2X3XZ.OXC.Z.n.s.%...H H B C O.n.:XpX9XJ.Y.Y.z.x.Y.x.E.R.L.z.H.^.7X7XJ.E.R.4XwX4X7X8X4XnXLXIXLXnX5XqXwXK.K.qXnXcXqX6Xx.c.c.H.R.D.c.H.R.R.L.E.4XR.l.f.j.j.w.b.&X2X*XoXs.Q v z l l b Z H @.#.u.B.J.7X7XqXcXwX8X6X6X6X7X0XwXwX0X0XwXwXwX0XcXwXcXFXGXnXnXLXLXFXcX4XL.x.x.M.J.M.j.C.T.b.8.N.Y.Q.Q.4X4X5X5XqX4X8X4XH.L.4XW.E.8X4X4XqX/.Y./.cX8XGXiXu.| j V A ....{.n.&XeXGXGXGXcXqX6X/./.7X^.!.!.(./.^.R.R.8X6X4X0X0X0X4XW.L.wXnX4XH.E.E.x.H.W.W.E.4XW.W.cX8X0X0X4XW.W.Q.Q.Q.Y.J.M.x.x.x.k.j.5.7.v.N.M.M.J.H.x.H.Y.Y.H.Y.R.R.!.).).^.!.^.^.R.^.^.^.7X0XqXqXiX5X=XT.v.v.j.9.8.4.q.6.5._ 6.6.u.N.N.C.%XJ.j.j.K.E.E.W.4X4XW.J.T.T.E.Y.E.W.Q.T.b.i.%.K y > % % 9 q W #.8.j.j.z.&X&X,X9X9X5X4XqX9X9XuX9X9X9X9X9XGXLXFXLX5XQ.J.5X8X4XE.L.J.W.4X4XY.R.W.W.E.Y.E.0X4X8XwX8X4X8X9X9X=XL.J.=X4X5X9XMX=X=XM.k.T.9X9XuX=X5XwXwX4X5X8X4XH.H.D.D.H.R.E.W.W.H.R.0XwX7XE.7X",
"9X9X5X=XQ.Q.Q.E.Y.4XqXwXcXwXwXnXiXKX+XZ 4 , i 9 l Q @.#.e.y.}.@.y.oX+X}.a.@XoXt.a.XXXX@X@Xe.t.3XZXdXyXKXPXpX>XtXKXpXKXPXKXrXtXKXpXrXpX&X;XrXtXVXpXVXtX>X>XtXVXVXKXKXKXZXVXZXKXKXPXPXPXVX,XA.0.| ' [ W P O.a.OX:X;X=X8X5XY.W.8XW.wXqX6X7X^.^.7X6XE.E.H.x.L.R.E.4XFXnXcXcXqX6XqXnXcXE.K.7X/.^.^.E.z.z.c.c.c.D.K.E.4XE.H.H.R.c.g.j.f.7.7.7.Q.9X2X1X#X@.b z z z z V Q [ U ^ q.%X9X^.4X0X8X4X7X7X7X7X/.7X4X4X6X0X0X4XwXnXnXGXFXFXDXGXHXFXmXwX4XW.M.h.j.k.j.j.T.T.b.w.7.f.M.Q.Q.L.L.K.E.7XqX6XL.L.=X4XY.4XW.E.4XW.R./.4X4XeXrXi.#.C V ~ s.y.oXXX&X9XGXFXGXnXqX7X/.^./.!.R.R.^.^.!.R.R.E.H.R.4X4XR.H.E.E.4XwX4XR.H.R.W./.4X/.W./.E.E.4XE.^./.W.E.Y.Y.Q.T.N.M.j.k.M.H.H.j.8.f.m.N.M.M.M.Y.Y.Y.Y.E.E.E./.!.!.!.R.K.K.R.R.K.K.P.^.7X6XqXqX7X4X9X9X-X5X9X-XN.C.9X&XC.q.n.n.q.b.N.N.%XQ.T.=X^.W.E.^.4X4X4XW.W.Q.Y.L.R.W.Q.T.Z.XX%.Z 9 > & , u l } y.v.M.M.Y.T.C.T.&X-X-X4X5X&X&XQ.T.T.&X=X&X&X5XuXSX9XQ.Y.9XR.W.W.E.W.4X4X4Xx.H.R.W.W.Y.Y.Y.L.4XuXiXuX9X4XR.J.m.H.5XiXuX9X9X-XQ.M.M.=X;X=XQ.5X-X=XJ.k.J.4X5X4X4X/.W.W./.4X4X/.R./.8X0XW.R./.",
"8X=XH.z.H.E.E.H.z.D.H.H.~.W.W.8X4XVX1XS 7 > i 9 h &.oX+X|.XX#X+X1XyXyX2X:X@XOX|.1XOXn.OX>X:X&X2XdXrXuXKXSX&X&XSXiXSXKXSX9XuXpXtXrXtXtXq.5.%X;X>XpXVXtX9X&X&X;X5X9XMXFXKXKXPXPXLXKXLXFXSXiXVX3X+X! Q W W O.a.C.C.N.=X9X9XE./.wXwX4X4X5XqX8X6XqXnXwXqX7XL.R.4XqXwXnXwX6X4X^.E.J.E.E.E.E.K.L.^.7XK.K.L.D.c.z.R.6X0XqX0X/.E.H.l.c.4Xk.M.j.h.N.%XOX@X$X&.Z x b x z b W S N U v.%X5X4XE./.W.E.R.^.7X7X7X6X0XwXcXcXcXcX8XwXwXwXMXGXGXFXFXFXDXnXwX8XE.x.7.j.j.j.M.M.j.j.7.7.k.J.L.l.g.z.g.z.H.L.L.L.L.J.x.Y.x.z.M.Y.Y./.W.E.Q.,Xn.s.] V A }..X1X3XyXVXFXwXwX0X/.^.^.^.^.(.!.!.^.^.R.K.K.R.H.R././.H.H.W./.R.R././.E.E.4X4X4XE.E.R.H.D.H.D.H.Y.E.Y.Y.Y.Y.M.M.M.M.H.Y.Y.T.T.N.J.Y.Q.T.J.Y.J.H.D.D.H.H.R.E.6X).!.!.R.^.^.^.K.K.K.P.^.^.^.E.7XqXcXcX8X9XuXwX9X9XFXMXuXC.N.j.R ) ) 9.j.M.T.8X4X7X4X/./.4X4X4XW.Q.Y.H.H.R.Y.M.N.a.=.Z 9 > & < a m &.{.n.T.Y.=XZ.N.n.C.&X&XE.J.M.M.j.v.N.T.Q.Y.9X=X4XiX9X4XQ.4XH.x.m.J.4X4X4XW.E.Y.Y.W.4X4XW.Y.L.4X9XuX9X4XE.m.M.J.Q.5XnXMX9X-X=XM.j.k.J.j.7.j.Q.T.=X4X=X4X4XL.W./.4X4X/.E.R.R.R.4X4XW.E.W.E.H.",
"qX4XE.H.Y./.4XW.R.R.D.c.R.R.U.R.W.uX3XW 0 > u 4 V {.<X*X:X:X1X2X2X%X;XpX9XB.b.9X%XrXpX>X%XC.&XrX5XuXMX9X4X9XFXLXwXqXGXLXFXGXiX9XtXpXtX%XM.-XuXSXSXSXSXSX9XQ.Q.9X8XqXqX9XeXGXFXFXLXHXHXGXiXtX;Xt.$.H V W t.|.v.8.7.m.Y.H.x.H.E.E.0X0X6X0X6X/.W.W.4X0XqX8X8XwXnX9X/./././.E.L.c.l.D.K.!.K.K./.6X^.^.E.^.K.S.R.0X4X/.4X/./.^.D.H.4XwXMXnXnXGXpX>XOX#X}.J x b z l V H S N X.N.-X9X4XQ.W.W.R.K.E.^.^.^./.7X4X4X4X4X4X4X4X4X8X8XqXnXnXFXHXFXGXwX8XQ.J.7.k.N.T.T.M.j.k.W.M.l.z.z.l.z.H.S.c.l.l.c.x.x.H.Y.Q.Y.k.k.M.Y.W.W.E.Z.;X@X.X} Z W oXoX1XyXtX;X-XE.W.E.E.E.E.W.^./.^.R.E.R.K.D.D.R.R.R.E.R.R.R.E.E./.E.H.R.4X4XH./.R.R.R.H.H.H.H.R.R.H.M.M.M.k.j.j.j.M.T.Q.W.T.Y.&X=X-X-XQ.Y.Y.E.H.H.D.D.D.H.R.R.^.^./.6X6X).^.K.K.L.K.E.^.4X^.^.0XxXxX7X7X6X6X8XnX9XwX4X5XQ.&XN.8.j.j.b.N.M.M.R./.4X4X4X/.W.4X8X=XQ.R.Y.R.R.J.j.5.X.] K a > + % a m &.{.i.v.j.m.b.Z.C.%XT.T.J.J.M.M.M.J.Q.-X=XT.=XJ.J.T.5X=X=X4X7XH.z.H.L.H.L.^.4XW.H.x.H.R.W.4X5X5X=XQ.R.R.Y.L.M.E.=XY.Q.5X5X=XM.M.f.7.h.k.J.W.H.M.Y.Q.Q.4X4XY.H.R.W././.E.R.R.L.E.E.H.H.R.R.D.",
"4X0XwX0X/./.'.8XR.R.S.G.R.R.U.R.R.=X>X..k 8 u h ' oXOX X;X;X>X;X=X5X9XuX9X-X5XuXiXuXQ.v.v.T.%XJ.5X4X4X7X4XDXLXLXLX8XwXPXIXSXiXSXSXpXpXPXSXiXpXPXSXGXFXLXeXJ.M.Q./.^.R.K.E.W.4X8XzX6XxXmXMXGXuXu.@.H S [ #.u.u.9.j.f.d.g.H.E.E.Y.cXwXqX6X4X^.R.H.W.W.4X4XW.4X4XL.^.R.H.D.S.D.R.^./.R.^.).^.K.!.!.R.R.7X/.K.^.0X^.6X/.K.F.!.!.!./.0X0X/./.cXMX;XOX$X.X' z z l z K H ~ ! e.%X;X4XL.Y.E.W.E.W.4X7X7XE.E.R.R.L.H.D.H.4X4XqXwX4X8XqX8XnXnXMXnXwX4XW.W.M.H.M.M.M.j.j.Y.W.Y.x.k.x.D.D.D.L.E.E.E.E.H.H.W.W.4X-XT.Y.T.W.W.E.Y.j.;XXX}.[ Z [ #X.X@X1X>XZ.M.H.Y.E.E.^.^.^.^.4X/.^.^.^.R.K.K.D.R.R.H.D.R.E.R.E.W.W.E.R.^./././.R.E.E.R.R.E.R./.L.z.d.f.j.j.j.j.M.T.W.-X&XT.J.Q.Q.=X=XT.Y.Y.Y.R.E.E.R.R.^././.(.(./.).6X).^.!.K.K.K.^.7X5X6X7X/.6X)./.6XxXnXmXFXqXqXW.4X5X9X=X-X-X%X-X9X=XY.Q.E.W.7X4X/.E./.0X4X-XW.W./.W.Y.k.R Y D Z p % + & i b *.a.u.B.j.j.9.b.%XC.b.v.J.=XM.M.J.Y.&X5X-XQ.j.f.j.f.k.k.R.W.=X=X7X7XL.g.l.L.Y.W.W.L.z.x.R.4X5X4XQ.Y.J.L.L.L.x.Q.4XR.R.4X4XJ.h.Q.T.f.x.9XiX9XE.Y.J.x.h.M.W.W./.7X4X4X/.W.E.E.R.H.H.R.R.R.R.W.",
"R.Y.R.^.^.R.R.R.D.D.D.D.~.~.R.~.R.J.;Xs.v h h J y.@XB.v.-X-X&X-X4XmXFX8X8XnXFX8XMXMXiXY.7.7.M.T.7XS.E.nXnXcXDXDXHXHXHXFXLXPXPXpXpXpXiXPXLXLXSXFXFXSXFXLXMX=XY.E.^.K.R./.4XW.R.R.(.!.6XxX8XMXuXu.B c A ]  .p.%X%Xj.d.<.d.x.Y.Y.E.H.R.R.R.R./.W.R.4XE.W.4XE.W.4XR.H.K.E./.6X6X/.^.^.K.!.).^.^.).).!.K.).0XR.(.zX).0X).F.G.F.!.!.~./.7XR.K.^.5X9X2XoX.XQ z b z z K J '  .n.%X=X=XL.H.R.W.=X4X0XqXqXwX4X/.^.E.R.Y.E.4X4XqXwX=X=X9X5X8XW.W.9X8X4X4XqXJ.k.7.<.<.<.7.M.k.M.J.H.H.H.c.g.S.^.6X0XwX/.R.4XW.Q.T.Y.Y.-X4XT.x.k.8.OXs.} J v W oXy.a.*XtX;X-Xx.H.R.E.E.^.^.^.4X/.E././.E.R.E.R.^./.E.E.^./.E.E.H.R.4X4XR.E.wX0XE.7X4XE.E./.E.E.H.z.h.h.j.M.N.Z.T.Q.W.&XQ.Y.M.M.M.J.J.Y.Y.R.Y.L.R.E.R.R.^.^.E.6X)./.^././.7X7X^.E.E./.6X0X4X/.7XxXlX6XxXxXcXMXcX6XqXW.W.R.5XY.;X%XN.Y.=X=XQ.5XE.R.R.R.R.R.E./.4X4X/.W.7X4XE.M.5.U B v i > % , 3 z @.y.i.N.M.m.9.q.i.q.q.b.Y.=XM.J.J.J.Q.=XQ.J.J.Y.W.j.j.d.m.x.H.4X9X5XL.k.j.j.Y.8XnXiX8X=XW.W.Q.Q.=X=XQ.R.J.M.L.E.4X4X4X4XL.x.J.5XW.k.J.-X4XY.E.Q.4X4XW.W.E.H.E./.4X4XE.H.x.z.L.L.R.W.W.Y.R.W.",
"!.S.l.R.).`.~.R.D.~.~.(.`.).~.~./.Y.;XXXB h h { s.*Xm.l.R.J.T.9XqX4X7XwXcXwXwXnXGXGXFXiXJ.7.<.,.d.l.7XcX8X0XqXW.'.W.eXGXVXeX>X-X5XpXuXLXLXPXLX9XnXnXGXFXFXnXwX0X).K.H./.4XE.R.(.6X(.6X6XE.5X9Xu.B v Z P ] n.&Xv.m.k.h.g.h.d.h.E.R././.K.D.H.D.l.l.g.L.4X4X4X4XL.E.^.4XqXcXcX0X/.^./.6X!.L./.6XK.0XR.).).D.K.6X(.K.).^.F.F.K.F.G.F.6X6X^.L.S.T.;Xt.%.Z l m x l Z Q W ! OX>XJ.Q.7XE.=X8X9X8XqX8X6XwX4XW.E.R.R.R.W.W.R.4X4XH.Y.5X4X4XL.H.W.4XW.W.qXE.M.f.h.k.h.7.k.k.J.Y.x.c.D.S.c.K.^.R.^.0X/.E.4X8XE.M.k.M.=X4XH.z.j.8.OX%.W Z v B y. .o.u.b.7.7.x.H.H.R.E.E.^.^.E.R.R.E.E.R.R.R.H.H.R.R.R.R.R.H.R.E.E.E.E.4X7XE.4XE.7X0XE.E.6X4X/.W.Q.Y.J.J.T.Q.T.T.T.T.N.M.k.j.k.z.j.m.Y.W.W.Y.R.E./.W./././.^.R.^.).6X6X/.^.R.R.K.R.E.4X0X4X/.^.xXxX6XcXxX6XcXqX7X6XH.x.k.=X=XuX5X=X5X9X9X=X8XW.H.D.D.H.D.H.H./.E.R.E./.4XE.M.5.X.U Z p 3 + + > p } %.6.v.f.7.b.q.X.+.b.%X=XJ.5X5X5X=XT.Y.J.m.m.J.Q.f.k.z.L.k.m.=X4XH.x.Y.J.j.Q.4XqX9X9X9XQ.M.=XQ.T.Y.Y.R.Y.E.9XQ.L.W.W.L.S.H.LXiXW.Y.T.M.x.E.Y.k.x.H.E.4XW.x.x.R.4X4X/.H.z.h.l.E.4XR.H.J.Y.M.",
"F.R.U.F.F.!.R.G.!.!.0XbX~.D.R.).!.Y.&XXXS 0 v { a.u.k.E.6X/.4XnX4X/.E.4XW.W.GXcXqXY.Y.9XGX8XT.Y.x.E.^.4XnXcX/.8X8XeXeXW.Z.k.b.C.%X=X=X9XiXiX9X=XE.8X8XnXnXcXwX^.R.E./.4X/.R.R.~.).).6X!.W.=X9X6.v z A W  .i.OXN.f.W.W.S.c.D.H.H.4XH.c.H.R.D.x.H./.E.H.x.x.z.x.H.R./.wXcXcX0X0X6X(.(.6X!.G.K.(.F.K.^.6X6X!.F.!.).!.^.6XzXzX).(.).K.!.6X!.L.L.j.u.U A Z Z z l b K Q ! U *X%XR m.Y.eX4X4XeX9X8XR.D.l.H.E.R.R.8XwX4X4Xg.f.j.H.L.z.Q.H.R.W.R.Y.E.W.E.J.z.1.1.d.x.k.f.h.z.H.H.D.D.D.K.R.G.G.^.6XE.R./.W.E.J.Y.T.J.x.H.h.j.N.n. .S Z y j #..Xe.+.5.1.,.x.Y.R.E.R.R.W.^.E.Y.Y.E.E.Y.H.H.R.R.E.R.R.R.E.^./.R.R./.7X^.R.^.4X0XwX0X0X0X7XE.4X4XW.Q.-X&XT.Q.M.N.M.k.M.J.J.k.k.Y.R.M.H.4X4XR.R.4XwX0X6X6X).(.6X^.^.7X6X^.^./.R.R.E.R.E.W.W.E.qX7X7X6XqXqXqX^.4XQ.H.j.f.j.M.Y.9X=XT.4XiXMXqXW.0XE./.8XD.l.F.R.E.R.H.K.R.E.E.Y.%XA.&.' p % + + 4 y Q y.u.8.j.m.8.q.q.i.n.T.=XQ.=X=XT.M.Y.Q.J.M.k.Y.J.4X4Xl.g.R.4XW.f.7.J.5XE.J.Y.8X4X9XiX9X8XH.Y.Y.Q.=X=XQ.=X=X4XE.L.4XW.L.W.L.=X8X-XM.h.x.H.x.H.H.H.H.R.E.R.D.R.R.R.W.4X/.E.L.Y.J.W.W.M.M.Y.M.",
"F.!.(.!.F.U.R.R.!.!.).(.U.U.R.R.^.R.&Xa.B 8 k W t.%X5X7XwXcXwXcXcXnXqXqXqXnXDXH.d.1.h.T.eXSXFXLXiXnX4XW.qXqX/.8XwXwXeXQ.b.w.b.Z.v.7.j.-X9XQ.W.9XwX8XE.4X/.R.8XxXcXcXwX8X/.~.^.`.).F.F.R.W.m.N.X.v l Z W ..n.%X%XT.J.L.R.^.R.Y./.H.R./.4X/.^./.4XR.D.z.z.z.z.H./.cXxX0XwXcXvXcX0X0XzXzX).^.).zX6X!.^.).6X/.^.).0X(.!.R.).xXzX(.!.^.!.^.^.6XwX=XN.| A k h l z b K Q [ ! u.q.5.J.l.M.H.J.M.x.z.x.L.D.l.D.E.4X4XL.d.H.g.h.d.x.W.k.d.d.z.H.H.H.H.L.Y.J.z.1.,.1.h.k.k.h.x.D.D.c.S.F.F.K.K.R.^././.R.D.D.H.H.Y.W.J.h.j.h.h.w.O.P C m h A y.oXs.X.R ,.h.z.H.R.E.R.R.W.^.z.c.D.H.H.Y.Y.H.l.S.H.R.R.R.^././.E.E.^.^.R./.0X/.6X0X0X0X0X6X/.4X/.Y.Y.E.M.j.M.N.T.T.T.J.Y.Y.Y.k.J.L.J.W.8XwX4X6X6X/././.8X0X0X/.^.E.E.^./.^.E.8X4X/./././.W.E.4XW.7X8XcXMXnX8X4XQ.m.7.,.<.f.M.f.l.m.M.Y.Q.4X4X8XW.8XwX/./.0XqX4X/.^.^.7X7XW.Y.n.n.s.' p # + & < p ' y.i.j.j.M.N.b.0.5.w.N.&X5XQ.Q.M.T.9XiX=XJ.m.8XwXMXnXW.R.W.z.x.z.J.4XE.Q.iXMX8Xx.E.5X4XwX9X-X5X4XQ.J.J.W.5X4X=XR.4X8X8XnX4XH.8X8Xz.z.-X8XH.E.Y.R.W.W.R.R.E.4X/.E.E.E.4X4X8XJ.Y.8X-Xx.M.W.=X",
"F.!.(.!.F.F.F.F.!.!.~.U.D.R.~.F.^.W.%X%.k 8 z W O.:XuX5XqXcXcXwXcXGXnXqX4XeXnX-XM.T.Q.T.W.eXGXiXiXMX9X9XwXqX8X8XQ.8XiXSXSXtXC.k.M.M.M.J.Y.Y.W.5XW.nXnXcXcXcXcXR.D.Y.R.R.R.W./.~.zX!.!.^.4XJ.%XO.v h v W  .p.%X-X4XE.4XqX0X/./.wXR././.R.D.R.E./.0X/.E.E.E.E.4XnXDXcX0X0XxXnXmXnXzXcXcXxXxX6X!.!.!.R.R.R.^.^.^./.).R.F.~.zXzX(.!.^.K.!.^.xXmX9X%Xa.] v h z m H K A @.XX|.8.f.Y.W.E.Y.x.h.<.,.1.l./.c.g.x.x.h.h.h.k.j.j.<.f.Y.k.f.h.l.x.H.H.x.H.L.H.H.D.c.z.x.x.x.c.x.D.D.c.c.F.K.F.!.(.!./.0X/.H.H.H.c.k.H.x.z.x.h.,.) Y N B h 7 j #.+X+Xn.X.R <.h.z.H.R.R.R.R.W.Y.E.W.E.Y.R.R.R./.4X8X4X/.E.R.R.K.R./.0X6X/./.6X0X0X0X0X0XzX6X^./.R.H.L.E.M.k.Y.T.T.W.W.T.Y.E.4XW.R.R.R.4X8X0X4X0X/.(.6XzXzX0X).^.0XwX/.R.^./././.R.H.Y.R.D.c.D.L.H.L.Q.4X9X9X=XJ.=X4X=XJ.j.j.j.x.R./.Y.L.W.8XqX/.E././.~.^.`./.4X4X6X6X0X4XR.M.q.6.] Z p > + + 3 p ' s.n.v.m.M.b.b.q.q.b.C.T.Y.Y.Y.J.T.9XiX9X=X5XMX5XR.W.4X8X7XR.T.J.J.m.9.7.Y.T.=X=XiXGX9XeX=XiX9X=X=X9X9X5XQ.4X4X4X8X8XwXFXnX8XW.Y.E.8XwXqXW.E.Y.E.4XE.H.H./.H.E.4X0X0X4XW.E.Y.Y.Y.Y.Y.Q.-XQ.",
"!.K.F.!.!.R.F.F.R.R.R.R.D.R.~.D.H.T.A.| h 8 z H %.%X9XqXqX0X0XcXGXiXeX8XT.k.J.Y.T.-X-XT.Y.Q.T.J.9XuX9XW.Y.Y.8XnXeX8X-X-X,XeXtXVXiXiX9XQ.Q.5XqX9X0XDXcX8X0XcXDX6X/.8X8X8X8X0X`.).(.(.(.L.H.N.%X^ V y v W  .u.C.&X5X8XwXwX0X8X4XR.cXwX^.D.S.D.H.D.D.x.x.Y.4XwXGXFX4X4X4X/././.0XxXcXcX/.!.).(.R.6X/.R.R.R.^.^.^.^.~.~.(.).(.~.(.).(.!.^./.6XwX=X%X<X%.A v m G G G W A #.n.N.T.k.J.W.k.7.7.h.j.z.k.x.l.H.E.x.1.d.g.k.k.x.z.h.h.k.T.Y.H.H.Y.L.x.x.L.Y.E.W.W.R.H.x.z.x.x.D.S.S.F.K.!.R.^.!.F.R.6X8X^.R.R.x.z.H.Y.H.E.E.j.8.+.O.' k 7 g | s.s.u.6.9.7.z.x.H.R.R.R.R.Q.W.E.W.E.Y.H.Y.E.E./././.E.E.R.^.F.R./.zXxX6X6X0XxXzX6X0XxXxX6X/.^.R.L.R.W.Y.H.W.Q.Y.T.W.E.J.Y.W.7XW.W.4X4X/././.6X^.(.0XcXzX6X).0XwXqX6X7X6X4X^.H.l.c.R./.W.R.W.W.4X4X4X8X9X5X=X=X5X5X=XE.T.=X-X4X0X4XR.E.8X0X4X8X8X8X/./.8X8X^.6X6X0XxX0X/.H.j.5.T B h i < + X < y Q y.n.v.M.m.w.b.Z.Z.C.T.J.M.Q.5X5X=X-X-X4XiXMXFX9X5XnXFXnXE.H.=X4XT.J.k.f.7.j.5XiX9X=X8XeX=X9X=XY.T.5X9X4XL.W.8XwX8X^.7XnXcXGX8X4XwXGXwX8XqXE.E.E.W.E.H.H.E.E.E.E.R.R.R.E.W.Y.M.k.k.N.Q.W.T.",
"P.K.K.^.).)./.(.R.D.R.^.R.R.R.R.H.T.i.I 0 1 y Z y.*XuXnXnXcXqXwX9X&XQ.-X9X=Xk.j.k.k.k.M.H.k.l.f.l.J.8XnX8XR.D.z.h.Q.wXiX8XZ.j.j.9XT.M.&X9X-X5XiXnXE.l.R.^.H./.qX/.R.U.D.Y.R.~.~._._.^.S.x.k.%X^ v y v W  .t.C.-XPXMX/.D.c.R./.Y.H.H.E.8X4XH.1.:.<.2.d.h.H.4X4XY.D.H.E.E.E.R.R.R.S.H.S.D.^.R.S.R.Y.D.D.U.Y.D.D.R.~.).`.`.(.!.(.zX6X^././.6X5XT.OX@X%.A v b Z G G k j y.OXv.j.j.8XT.x.h.k.Y.Z.k.k.x.L./.E.z.d.h.f.f.x.Y.Q.Y.M.Y.Q.R.H.M.H.H.x.x.Y.4XW.R.Y.H.L.D.S.z.c.c.c.S.F.!.^.).(.!.F.F.R.E.^.R.E.R.E.4X4XE.E.8XM.C.C.A.[ 0 7 j e.+XOXC.%XQ.W.Y.Y.R.E.W.R.R.W.E.H.H.Q.Y.H.Y.8XE././././.^.^././.^.^.^.).6XzXcXzX6X).6XxXxXzX6X).^.R.E./.L.M.Q.W.Y.Y.E.E.L.H.R.E.R.E.^./.E.^.4X0X/.(.).).).0XxXvX7XR./.wX0XR.c.2.<.h.W.wXwXeXwX4XwX6X4X8X4XR.J.L.Y.Y.J.Y.=X5X9X0X0X/.R.E.0X8XW.8X0X8X/.8XzX0X(.6X0XxXxXzX/.L.h.5.X.I v 4 # + % 4 q H y.n.m.M.M.M.C.C.Z.N.T.=X=X4XuXuX5X=XE.4XnXnXnXwXnXmXFXFX4X4X=XE.m.j.k.H.H.k.Q.=XM.k.Y.=XW.J.T.T.j.7.f.H.R.J.4X6X4XE.E.qX4X/.wXGXwX8X4X8X8XW./.W.R.R.E.E.Y./.E.R.R.E.W.W.E.M.Y.M.j.7.h.N.-X",
"P.^.7X(.!.!.(.6X(.R./.wX4XE.^.4XE.%Xs.A q 1 8 Z #.<XMXqXcXmXwXQ.8X9X9XQ.9XiX=XY.Y.k.k.L.R.H.x.x.5XJ.H.L.L./.8X/.8X/.W.E.Y.k.7.,.7.5.j.T.8X9X8X5XE.D.l.R./.D.F.F.R.D.D.R.~.~.`.kXzX_.(.^.E.k.T.6.v y z A | u.&X5X9X7XxXwXH.h.z.l.E.D.l.3.2.g.H.4XE.E.E.R.W./.Y.g.D.D.H.W.0X0X/.R.E././././.^.D.S.c.c.c.D.D.S.D.D.(.^.).`.).(.).6X0XK.K.R.7X4XN.v.t.[ A v Z H K J B C  .6.b.;XQ.Y.Y.M.Y.Q.T.k.h.k.4X4XW.x.h.x.M.d.h.J.M.M.Y.=X8XY.L.M.x.x.x.H.L.E.W.R.L.L.L.L.c.z.l.l.c.c.D.K.!.^.).^.^.(.(.!.^.6X6X0X/.E.4X0X0X0XE.M.-XOXa.W 7 0 f t.dX3X>X>X9X9XW.R.L.R.Y.H.H.J.4XT.H.H.x.h.z.H.W.4X0X0X8X/././.^.^.^.).6X6XzXzXxXzX6X6X0X6X).^.).6X/./.7XE.Y.W.W.Y.Y.R.R.L.H.H.L.R.W.W.E.R.E.7X/.7X6X0X6X).6XzX0X/./.6X7XR.D.R.2.2.l.R./././.4XE.4XE.H.R.K.l.l.l.S.L.R.W.4X4X^.4X6X6X^.E.E.W.W.W.8X/.R././.!.R.).6X0X0X6X^.D.h.N.0.] V 9 % + + > w A t.B.N.J.J.T.T.%XC.N.T.4X4X4X9X5X5X5X=XW.4X4X4X4X8X4X4XnXnXMX-XQ.Y.j.d.J.9XY.h.h.k.J.Y.k.M.Y.=XQ.M.j.j.z.k.L.L.L.4X7X7XqXR.E.T.E.-X4X-XE.E.E.W.R.x.D.E.R.c.D.H.H.E.4X4XE.J.J.Y.j.<.<.7.k.Q.",
"^.6X7XP.L.K.!.^.7X/.0XqX4X/./.W.M.N.#.Z y 1 8 H @.@X5X=X^.4XW.J.uXiX9XJ.E.4XH.J.H.x.H.W.7X7X7X7X7XS.S.E.7XnXmX0XDX0XR.H.Y.L.k.f.7.b.T.Z.W.9X9XY.Y./.R.R.R.^.8X!.^.R.R./.'.R.U.].hXI.!.^.^.m.N.X.c q h B I u.;X9XnXqX0XK.<.1.4XnXH.R.^././.4X4X4XwX0XqXcXnXnXwXwXW.E.E.W.4X8X/.R.4XR.c.<.<.g.D.D.Y.Y.Q./.8X/.~.R.R.R.~.).).).).).6XK.K.H.K.J.j.6.o.W Z Z H K Q Q k I t.u.v.=X-XY.h.h.x.Q.Z.k.k.E.L.R.W.W.Q.=XH.,.h.k.7.h.M.T.eX=XE.R.H.z.k.H.R.R.x.x.D.L.R.H.x.c.c.x.D.H.K.R.!.~.^.^.).0X0X).6XzXcXxX/.R./.0XwXcXW.Q.eX&X@Xs.h 0 f o.@XOXN.C.;X9X-XY.D.D.x.l.z.M.T.E.Y.z.h.h.d.1.1.l.R./.4X4X4X4XK.!.).zXzX6X).^.xXzX0XzXzX).^.^.).zX0X4X4X4XW.W.Y.R.R.R.H.R.K.H.E.^.^.E.R.R.E.E.!.6XxXxXzX0X6X).^.0XcXwXE.L.R.8XW.R.R.R.R.W.W.W.R.6XE.x.J.L.z.z.K.E.E.L.R.7XwXwX/././.^.R.D.x.H.W.8X/./.qX8X~.(./.6X6X6X).!.L.k.C.t.] Z y > + . 4 0 S t.N.T.W.Q.Y.Q.&X%X%X=X4XW.R.Q.Q.-X9X=XY.E.L.4XwXFXwX8XnX7XL.M.9XKXiX5X9XiXiXj.<.7.M.T.M.Q.&X&X&X&X5X5XY.d.x.S.L.7X4X^.7XL.W.z.h.E.0XW.Y.R.R.H.x.l.c.H.D.l.R.L.c.c.D.R.W.4XT.T.j.7.N.T.N.M.",
"^.(.K.S.L./.7X^.^./.7X^.R.E.E.x.9.o.I h 8 > 8 G $.p.N.L.x.g.l.Q.M.7.7.f.-X5Xj.M.l.x.K.^.7XE.R.K.L.z.P.0XqXcXcX/.!.6XcX0XE.S.c.H.j.7.7.j.j.h.h.k.H.E.E.0X8XW.8X8X(.F.D.~.~.R.~.zX_._.(.!.7X=X-XU h q q h S t.;X9X9X6X6XR.D.cXGXE.wXqX4X^.8XcXqXR.qX^./.wXwX/.4XnXcXwX0XE.D.l.l.l.2.g.D.D.D.4XcX4XR.Y.R./.8X/.R.D.S.F.~.).).(.).zX6X/.6XE.x.f.4.6.o.! A Z K J J J Q  .i.OX>XiXeXY.k.h.j.M.k.7.h.x.Y.L.R.R.R.=XW.M.1.1.,.M.E.k.Q.4X4X4XY.l.h.x.H.M.z.g.g.l.l.c.D.R.H.H.R.R.E.!.!.!.(.).).).(.(.).6XzXxX6X/.8XqX8X0XR.E.8XC.2X1XB 7 B  .XX2XVXiX9X5X8XE.H.D.x.l.k.J.x.Q.W.J.E.qX0XR.g.D./.0XqX4XE.R.R.^.6X6X)./.).6X6X).6XzXxX0X0XzXzXmXcX6X4X/.R.H.x.R.E.H.D.H.R.L.E.7X^.E.E././.^.).0XzX6X).0XzX0XzXxX0X/./.6X8X/.'./.~.D.D.R.W./.H.6XR.g.L.L.g.z.z.R.6X6X7X6X6X7X0X/.^.6X0XW.R.R.D.E.R./.cXqX).cX8X6X6X6X).^.R.J.j.t.@.K i # X * 4 w S t.N.=X4X4X-X&XT.T.=X;X4XW.Y.=X&X-X8X=XY.=X8X5X4X4X4X5XwXL.H.H.Q.4XW.8XMX5X9XM.M.k.Y.eXW.&XT.%X=X=X;X9X=XJ.f.S.E.qX^.S.K.L.x.W.8XW.Y.E.W.W.E.H.c.c.S.c.c.S.x.H.L.Y.R.R.R.E.Y.8X8X8XuXeXQ.T.",
"c.H.K.R.R.R.^./.^.R.R.K.H.Y.x.,.T D V y 4 > 4 G @.n.v.m.=X5X9X&XT.C.b.8.j.M.k.d.l.D.H.R.H.R.W.D.D.R.(.(.(.(.).`.R.zXcX!.F.!.).!.H.Y.E.Q.Y.j.h.j.j.Y.Y.M.H.4XqX0X6XR.R.R.D./.0XR.F.K.^.R.4XY.C.| q q y c I t.%X9XMXqXS.^.wX0XqXR.(.).).(.).xXxX6XzXxXxXcXvXxX6X0X).0XzX0X).!.R.R.!.xXmXcXzXzX).R.H.H.R.E.D.S.K.R.!.R.R.!.(.).6X6X6X0X6XE.H.j.8.+.U W S k J H H J ' %.XXZXKXQ.Y.k.h.Y.T.j.j.H.R.D.<.c.R.R.H.H.E.4X4XH.g.h.z.z.z.x.x.S.L.L.x.z.z.d.7.<.2.g.z.z.z.D.H.H.E.4X/.D.D.!.^.(.(.^.(.).6X).bXzX(.~.8XwX0X8XR.^.E.M.OX*X..f f  .3X*XKX9XwXE.W.R.Y.H.Y.H.D.H.R.W./.W.4XwXwX0X0X/.R.R./.4X4X^.R.6XzX4X/.0X0X/.0X/./.6X0X4X).8X0X6X/.E.4X4X4XE.J.Y.Q.E.H.D.D.H.4XW.E.E.^.^.6XzXxXzX).6X/.).xX6X(.xXzX).).0X/.(.R.^.K.D.(.!.R.(.K.H.D.D.S.L.E.7X7XqX8X/./.).).0X/./././.7X4X4X4X0X4X/./././.4X4X0X4X0XwX6X/.E.H.R X.] m 3 % o + 5 8 V }.;X-X9X6X9X=X&X;X9X8X8X8X4XY.Y.W.8X8XeXGX9XW.E.Q.E.J.Q.4XqXnXnX4X4X8XqX4X4XJ.k.J.Q.Q.T.C.N.M.9XM.M.9Xm.M.j.k.H.L.R.J.L.H./.W.R.D.H.R.L.D.D.K.D.D.S.l.D.c.Y.7.7.M.J.E.E.k.W.=XQ.;XuX9XT.&X",
"H.l.d.z.^./.K.l.G.R.^.D.c.R.E.7.E D A z 4 % > x ..@X&X=X9XMXVX,XZ.&X>X;XT.M.M.R.W.R.H.E.4X4X/.c.1.l.R.qX8XD.D.!.R.l.l.F.!.!.!.6XcX4XY.x.k.M.M.k.R R R ,.1.j.x.H.0X/.0XcX0X4X/.F.F.(./.D.Y.Q.&XU q 9 p v W #.OX9XqXE.l.R.0XxXcX0XxXvXvXbXvXJXHXJXJXJXvXbXvXxXzXbXzX6X).(.).zXvXDXmXxX).).xXcX6XR.E.4X0XE.g.2.l.l.K.F.F.R.!.^.^.^.).).^.H.j.7.) T o.] A k A Z K Q [ s.oXyXVX9X-Xh.T.8X9X=XE.E.H.c.L.D.D.L.L.R.R.H.4X8XW.x.z.H.H.h.W.L.H.x.d.g.z.g.d.z.x.d.2.g.l.z.R.H.D.D.D.c.D.^.(.).^.K.F.!.).zXhX).!.Y.W.W././.).D.c.M.C.n.] k k [ 1X2XKX-X/.H.R.R.Y.R.H.D.H.R.K.^.7X4X4X6X4X/.W././.E.E.E./.4X8XxXxX6X4X0X0X8X6X6X8X4XE.R.^.6X7X/.E.R.E.W.E.H.J.Y.E.Y.H.x.x.H.J.R.4X0X0X/.^.^.6X6X^.6X6X6XxX/.).zX(.!.).zX/.R.^.qX/.D.^.0X!.D.R.R.R.E.E.4X4X4X7X5X7X^././.(.).7X4X/./././././.K.^.4X4X/.^./.4X0X4XqXxX6X).^.L.v.u.@.H 9 $ X X > 8 Q |.:X-X5XcX4X9X9X;X5XeX9X4X8XW.Q.W.T.Y.T.5XeXW.M.M.5XMXqXY.R.4X0X4X/.4X4X4XH.H.M.M.M.N.T.,X;XN.T.v.m.N.,.,.4X4X4XW.E.L.H.x.H.R.R.R.R.R.H.c.S.H.S.S.S.S.^./.x.<.1.k.x.Y.0XwXL.Y.E.-X9X-XZ.M.",
"R.L.H.H.R.E.R.K.R.^./.R.D.W.8X%XN.i.&.K 3 > 4 m ..XX;X5X5XY.C.Z.b.u.b.%X&XJ.M.M.4XW.7X7XY.x.z.h.h.j.M.Q.E.H.x.x.z.d.1.z.R.4X4X4XwX9XW.Y.Y.T.M.7.1.7.7.j.j.z.x.D.R.D./.cX0XR.D.G.F.^.(.D.Y.Q.&XU q 2 q v W O.N.9XMXE.H.!.).).R.R.xXNXHXvXbXvXmXDXzXxXvXmXDXxX(.(.).).0XzXxXxX6X(.xXzX).).(.!.~.).).4X/.E.R././.D.F.D.D.D.F.K.F.F.R.!.E.R.H.k.j.u.XXy. .N A Z K J S %.$XKXKXtX9XW.W.W.T.J.H.R.R.K././.^.R.H.H.H.R.x.W.4XL.H.W.E.x.g.d.g.S.S.L.E.K.L.L.S.z.l.x.H.L.D.x.x.x.S.D.H.K.R.^.).!.R.!.(.).hX).(.R.Y.Q././.).G.l.x.v.t.! f k W oXOXtXJ.E.E.R.R.E.W.R.Y.R./.W.4X8X4X/.4X/.E.R.E./.^.W.W./.8X0X0X6X6X0XzXcXcXxXzX0X6X(.^.).zX^.^.E.R.R.R.J.k.M.J.J.M.x.z.x.H.W.4X4X0X6X/.).0X6X).^.6X6X7X0X^.).6X).^.6X0X/.W.4XcXwXE.^./.R.S.R.W././.4XW.Q.Q.4X4XR.Y.8XqX/.R.4X4X4X4X4X7X/./.R.R.R.K.K.R./.4X4X4X0XxX0X6X/.L.M.p.#.Z 9 $ + + 5 r @.oX2XSXnXnX6X8X9X9X;X=XW.E.=XW.W.W.Y.J.Y.Q.E.5X9X8X-XE.f.R h.x.R.E.E.E.E.E.R.E.J.j.7.j.T.>X>X-X;X;XT.j.k.T.4X4X4XW.J.L.L.L.D.x.l.l.l.x.D.c.l.K.R./.^.K.E.K.L.E.5X4XY.L.E.R.4XY.L.M.M.Q.-XQ.",
"D.R.^.K.l.l.K.).).K.L.K.x.z.Y.-X>XOX}.Z 1 # 1 b ' XX&X%Xm.,.,.) N.6.) q.%X5XQ.J.H.x./.4XH.z.c.Y.Y.;X-XN.M.Q.W.N.h.N.T.Y.Y.5X8XW.W.eXGX9X=XT.j.,.7.N.Q.Y.Y.Y.Y.H.R.^.4X8XW.R.K.K.!.F.R.R.4XT.C.` q 2 q b W  .n.9XW.l.K./.xXxXR.).zXbXvXzX).).zXzXxXxX(.!.^.^.).xX6X).~.!.(.).0XzX!.).zXzX!.F.!.0X/.R.R.^.0XDXDX8X!.R.K.F.F.F.F.D.S.S.H.R.R.J.Y.%X2XOXt.S S Z J H W  .{.yXVX&X8XGX-XT.M.M.T./.0XxXE.^./.E.R.R.E.4XL.W.4X4XE.H.z.f.g.d.x.J.E.W.^.R.qXL.z.K.^.R.L.R.x.D.D.c.D.R.R.R.R.(.).).(.^.(.).zXhX8X^.R.W././.`.0X0XQ.N.@X%.0 f W {.n.&XJ.E./.R.R.W.W.E.R.E./.4X4X4X4X4X4X4XE./.E.R.^./.8X).^.zX)./.0XcXcXvXDXvX0X/.).zXcXxX0X^.^.E.R.R.R.H.k.k.k.x.k.x.x.Y.E.4XW.R.L.L.H.^.0X0X6X^.)././.0XE.R.6X0X4X/.E.R.=X4X8XqX9XW.H.D.R.Y.R.Q.E.Y.M.M.M.=XQ.J.J./.8X/./.4X6X0X0X0X0X0X6XqX/.R.D.R.^././.7X/.6XzX6X6X/.L.v.u...Z 8 # + $ i l &.|.;XFXqXwXcX=X&X9X;XM.x./.4XW.W.W.=X=XW.W.M.J.E.Y.z.1.j.E.H.x.H.E.W.E.E.W.R.H.h.<.7.Z.;X,X-X;X&X9X=Xk.-XiXQ.W.W.R.L.L.R.W.R.L.D.c.D.L.E.E././.K.K.L.D.^.^.4XiXqXM.g.E.8X0Xg.h.L.E.J.T.T.7.",
"R.R.H.D.D.D.K.R.4XD.c.H.x.l.x.Y.M.u.#.A 8 > > z W @X:XM.7.9.w.9.b.u.9.4.8.T.5X5X8XL.4X4XW.W.J.Y.Q.9X9XT.M.T.&XQ.Y.Q.5X9X5XY.Y.Q.-XeXiX;XT.Z.N.k.j.j.k.Y.4X4XW.E.8XcXxXE.H.H.R.R.K.F.!.^.8XT.Z.U y 3 p b W  .N.uXx.2.H./.cXvX6XcXcXxXzX6X).6XzXzXxXzX^.R.!.!.).vXzX0X).(.^.(.).).).6X6X).6XzX).^.^.!./.).R.R.).)./.^.R.R.R.R.R.E.R.R.E./.7X7X7X9XuX;X|.U S Z J Z W S  .OXrX&XM.T.-XT.T.W.4X/././.R.D.c.L.^.6X4XE.L.R.R.R.Y.H.x.x.x.l.x.R.R.E.4X4X6XL.c.R./.H.c.D.H.x.h.d.c.R.4X4X4X/.^.!.^.(.6XzXzX).0X4XE.W./.R.^.xXcXY.N.+X&.0 f W {.n.C.N.L.H.R.R.R.E.E.E.E.E.5X=XE.E./.8X4XW.'./.^.).`.8X`.(.cX6X6XcXmXvXcXvXcX0X(.).zXxX0X^.E./.^.E.R.Y.J.x.k.k.z.z.x.H.R.W.Q.E.E.E.E.R.^.6X/./.^.6X/.E./.L.S.E.4X4XE.k.j.N.Y.N.T.W.T.J.J.Y.c.H.Q.Y.x.k.M.T.j.T.T.Y.Z.Y.W.wX/./.8X0X0XwXqXwX8X8X0X0XqX0X).(./.E.4X0X6X6X/.L.N.n.#.H i % + @ > l }.{.v.=XJ.8XcXW.T.;XW.M.L.0XiX9X=XW.8XqX5XE.H.z.z.H.Y.W.wXFXqX4XE.E././.W.W.W.E.M.j.j.Z.N.k.;X;Xj.N.J.M.5XQ.=X=XW.R.L.L.K.R.H.M.H.Y.R.E.R.R.E.E.D.L.K.K./.^.D.W./.E.E./.E.H.K.D.H.H.j.J.=XT.",
"H.H.H.K.E.R.K.D.E.R.L.H.H.R.Y.k.j.9.O.W y 4 4 v @.{.N.T.M.9.q.OXb.b.q.,.,.j.Y.=XwXW.9X5XW.5XE.=X9XN.7.8.m.N.N.J.Y.=X5XQ.E.Q.L.j.N.M.j.j.M.&X,X;X&X7.<.H.8X4XE.4X^.cX0XD.c.D.D.F.F.~.).R.4XW.Q.Y 9 2 9 l S | b.;XH.c.D.R.(.)./.0XzX6X).(.).0X6X).^.6X6XzXzX(.!.(.zXzXxXxXzX).!.K.xXxX).(.6XxXzX~.6X!.^.(.R.R.^.(.R.R.H.H.K.R.^.^.4X/.4XwXxX6XqXMXFXpX2XO.P Z J V B S O.u.N.Q.Z.M.8XW.Y.Y.Y.H.H.L.E.R.H.K.E.E.R.D.d.l.g.1.1.M.R.Y.c.l.H.^.E.R.R.R.g.L.R.H.D.H.H.c.z.h.d.h.c.Y.E././.E.E.^././.).6XzX(.8X0XW./.4XD.S.!.R.m.v.s.W 0 0 H #.o.8.k.H.H.R.E.E.E.W./.W.R.Q.Y.H.H.E.4X4XW.^.8X0X8X).(.).0X`.(.(.zXcXxXxXcXxXxXxXzX6X).^.R.^.7X/.E.R.Y.H.M.M.M.x.k.x.H.L.R.W.Q.W././././.6XK.^./.0X/.K.R.l.H.J.Y.T.W.M.j.j.j.7.7.h.M.;X5XM.Y.W./.Q.H.M.M.T.k.k.h.j.Y.T.Q.'.Q.W./.8X8X8X8X8X^.8XcXcX`.).`.zX6X^.6X0X6X0X7XJ.N.n.#.H p , $ @ 2 l $.a.v.T.J.7X4X4X&XT.T.=X0XwXwX9XW.Y.W.8X5XQ.J.E.Q.Q.4XwXwX8XGXqX/.R.R.E.E.R.4X0XqX8XQ.J.j.7.f.m.7.7.j.m.-XQ.4X=XR.L.H.S.S.S.l.j.l.x.D.D.H.R.L.E.E.0XqX/./.H.0XL.l.c.H.S.z.E.c.H.4XwX4XW.Y.k.",
"l.c.D.D.S.c.S.D.c.H.R.H.H.E.J.d.f.9.6.[ z 1 1 b %.s.u.N.M.9.w.C.Z.N.b.v.j.j.k.j.7.<.Y.M.k.-X-XMX9Xj.:.<.S.H.x.x.L.4X^.z.l.K.J.z.j.5.9.w.Z.&X&XT.-XM.j.H.E.Y.H.K.E.wX4XH.H.H.D.!.F.~.(.F.E.T.T.U w 2 8 q C ] i.%Xj.D.S.F.R.!.6X6X).^.~.^.(.(.!.R.(.).(.^.^.!.!.6X6X).!.!.(.6XzXxX6X0XzX0X).^.(.6XzX!.R.!.).cXvX0XD.D.D.D.H.R.R.R.E.R.E./.7X/.7XxXLXKXZXt.P B Q V W [ t._ ) N.9XFXiXeX-XE.Y.E.E.E.R.^.^.E.H.D.D.L.c.D.l.<.<.1.h.c.4X^.0XwXR.g.<.<.<.L.^.H.D.R.E.H.z.h.z.H.H.D.D.D.H.R.E.4X4X^.^./.zX!.^./.E././.l.G.^.E.J.%Xt.B 0 0 Z ] O.j.m.H.E.R.E./.E.E.Q.Y.J.M.M.M.J.Y.Y.R.R.W./.0X`.(.~.`.zX(.!.!.^.).zXcXvXvXmXDXvXzXzX6X).6X0X0X/.R.L.H.M.T.Y.J.J.H.H.L.Y.Y.H.H.H.L.K.R.E.H.^./.0X^.H.R.D.R.Y.Y.Q.-XT.j.M.k.7.7.7.k.-X9XY.'.0XqX0X4XY.M.k.Y.k.7.k.8XeXW.R.8X8X'.'.'././././.'.`.).~.~.0XcX6X/./.6X6X0X7XR.M.i...Z q , & & a c ~ a.:X5X5X4XE.=X&XT.Q.8XwX4X4X4XW.H.x.Y.W.4XY.W.E.x.x.E.8XwX8X8X4XY.R.W.7X/.R.W.8X9X8XQ.Y.Q.R <.7.f.f.k.=X5X=XY.H.x.x.x.z.l.H.x.z.x.x.H.R./.4X0X/.7XE.R./.E.S.c.c.E.wX^.D.^.K.E.E.E.R.H.x.J.",
"H.D.S.c.D.H.R.E.L.H./.8X4XW.Y.k.<.9.|..X' y 1 m W @XOX9.9.N.%X5.q.v.C.%XN.5.,.<.,.R 9.:.<.T.M.J.z.J.E.E.L.m.m.x.E.H.S.S.z.2.z.=XQ.N.b.n.Z.n.j.w.N.9XiX=XL.E.^.H./.0XE.D.D.l.g.D.^.K.F.D.R.j.M.o.q 3 8 q V  .n.%XJ.4XR.(.(.R.0X^./.).).).).^.K.F.F.!.(.).0X^.!.^.6X).(.).zXzX).!.(.^.6XcXzX~.^.zX).).).^.^.xXDXcXR.R.R.R.E.E.R.R.4X/./.6X).^.^.7XnXiXpXe.C B ' H [ | t.u.b.%XW.GXiXMXiXeX4X/.E.L.D.c.l.S.H.R.R.H.L.D.H.R.H.d.z./.wX4X4X4XD.2.2.g.l.D.R.R.R.H.H.H.W.H.x.H.D.h.l.H.R.R.E.E.R.R./.zX).F.D.R.D.E.W.2.g.6X4XT.*Xy.k 7 0 Z %.+X2X=Xx.L.D.R.E.Y.H.M.M.k.j.M.Y.Y.H.M.Y.R././.~.(.`.`.`.`.zX0X(.~.(.zXvXmXmXmXvXvXmXHXmXzXxXcXwX4XR.L.J.H.Q.Q.Q.T.R.R.R.E.Y.M.J.W.4X/.E.R.R./.7X4XR.H./.W.R.E.Q.=X=XM.M.Q.T.j.j.N.k.H.4X0X).'.0XwXwX/.H.f.M.Y.E.4X0X'./.0XcXwXeX0X8X/././.'./.^.'.zXzX`.(.6XE./.6X).6X7XJ.T.n.O.Z q , & , 8 c ~ |.:X-X8X4XQ.Y.T.&X-XW.E.E.E.8X4Xx.1.g.L.4XY.H.L.E.E.H.L.W.E.4X4XW.W.0XcXcXwX4X4X4XE.M.j.k.J.J.T.=X-X5X5X4X5XE.m.l.l.l.z.g.g.g.z.H.L.H.H.R.H././.4XR.D.L.H.K.6X4X^.0XxX).).^.0X0XqXwXR.c.Y.",
"qX0XH.c.E.E.H.R.R.L.L.R.E.L.H.x.z.j.i.y.J u 8 l [ {.C.j.b.%XC.u.u.b.N.B.j.j.j.7.j.9.7.:.f.M.J.9.j.7.j.-X9XT.M.J.9Xm.9.7.7.:.7.T.T.C.b.C.8.8.5.v.N.&X&XJ.Y.5X8X6XcXz.g.E.E.H.E./.G.F.G.K.L.Y.M.Y 1 < 8 y S | u.C.T.E.^.^.).6X).^.0X!.F.G.K.6X^.!.R.).6X).).xXzX).6X).!.F.K.(.^.F.!.^.(.(.0XxX0X!.^.^.R.G.3.F.(.^./.R./././.S.D.D.H.H.D.D.).vXmXxXnXiX;Xu.I B Z J ..#.s.6.v.T.GXiXGXwX8XW.R.H.D.G.^./.S.S.S.l.R.R.4XE.H.8X4X4XE.wXcXwX^.c.g.l.c.l.D.E.4XE.D.c.S.D.h.x.Y.E.H.c.c.x.h.l.z.c.c.c.D.K.G.G.F.R.H.l.2.2.G.^.4XT.b..XZ ; 1 v }.+XN.j.g.g.H.R.W.Y.k.j.j.m.j.M.M.M.k.k.x.H.Y.Y.R.^.~.R.~.`.^.(.6X6X6XxXmXvXvXvXmXHXmXvXcXcXxXxXE.H./.4XW.9XW.W.=X4X4XE.E.W.Y.Y.Y.Y.W./.E.K.E.0XE.E.qX/.D.R.H.R.8X=XM.j.j.J.Q.k.M.Y.x.x.W.0XzX0X)././.H.g.1.D.qXGX0X/.qXcXqXeX0X0X8X8X'././.~.'.bXbX0X`.).)./.0X0X4X6X6X^.M.N.u. .Z u > % < 9 v [ p.%X5X5X8XeXQ.T.T.-X9X4X0XW.9X=Xk.g.H.E.J.M.l.Q.9X=XL.W.4X4XE.Y.Y.R.R.7XcX4X/.E.8XY.M.f.k.5XnXMX8XMXKXFXiXwXW.g.<.d.x.H.H.J.z.L./.Y.x.Y.4XR.E.E.R.H.H.E./.0X4X6XxXzX6X).6X).^./.qXcX8XE.D.",
"W./.R.D.R.Y.H.R.Y.H.H.H.H.x.z.l.d.j.u. .v 1 1 w ' }.OXv.9.9.q.u.) 6.v.b.v.v.j.f.j.j.J.j.j.j.N.q.b.N.A.b.6.X.q.C.b.v.v.v.v.v.v.v.v.q.9.8.9.5.9.q.v.v.N.Q.=X=X4XwXE.H.H.J.J.W.E.2.K.^.!.L.l.k.M.| 1 5 q p Z ! 6.N.Y.R.R.R.(.)./.^.D.H./.(.(.0X(.).zXzX6X(.(.).xXvX6X).(.(.(.).).6XK.K.K.R.!.!.^.)./.6X0XR.3.l.K.R.^.K.R.D.R.D.^./.H.R.^./.xXHXHXmXuXpX*XO.C V H H W | t.i.N.k.8X4XW.E.x.z.c.D.E.6X^.6XR.^.R.D.E.H.l.E.4XcX/.E.D.H.E.H.c.l.l.c.c.D.S.R.R.H.c.l.l.c.H.D.D.Y.E.E.R.D.E.H.l.<.2.g.g.2.2.G.R.E.H.z.c.F.).^.K.v.T W h 8 1 h @.{.B.J.L.E.E.W.W.T.N.k.j.j.j.j.k.j.j.j.j.x.c.D.R.~.R.R.(.0X).).6XzX0XxXvXxX7X6XzXxXzXzXxXcX7X/.H.D./.4X=X8XQ.T.W.4X4XW.E.Q.Y.Y.Y.Y.W.W.R.H.H.^.R.R.4XY.z.R.L.R.8X5XQ.T.N.Q.9XM.j.H.L.W.^.R./.`.qX8XR.S.c.D.4X4X4X8XqXcXzX/.0X8X8X'././././.'.0X0X`./.).`.8XE.7X6X6XqXcX4XT.C.u.] V p 2 , < e V $.{. XT.=X4X8XT.Q.%X&X;XY.E.5X5X4X=X5X9X4XT.x.j.L.Y.l.j.J.Y.Y.Y.R.E.R.H.H.R.^.W.R.W.W.8XqXiXGXLXGX8XuXMXuX9X4X4XR.H.H.L.W.4XQ.k.x.Y.Y.x.z.l.E.R.H.L.E.4X0XqX6X/./.0XzX6X).6X6X6X/.^.7X6X4XR.",
"K./.^.R.R.H.x.Y.Y.J.H.x.z.f.d.g.S.T.|.[ h 1 1 8 A y.OXC.j.) ) X.X.X.R R 4.j.M.J.J.j.M.j.m.j.M.q.` | | I Y U Y D Y ]  .| O.i.a.u.q.8.9.4.8.6.5.) ) R R ,.7.9.f.k.j.x.k.1.<.Y.0XR.D./.^.R.H.Y.T.] 1 5 i l Z I O.N.Y.R.K.F.R.~.!.R./.4XcX0X/./.R.(.F.(.zX6XhXzXzX6X^.!.!.!.F.G.G.K.F.F.!.0XzX).!.^.D.H.^.R.D.R././.).(.6X(.0X).zX0X/.^.K.G.S./.xXnX9XtXOX! j v G Z W U O.C.T.f.Y.E.H.Y.W./.W.E././.0XxX4X/.R.S.S.g.E.6XE.D.g.H.R.E.R.c.c.H.R.R.R.E.H.R.R.D.c.c.S.S.c.l.l.c.H.R.R.H.E.4X0XwXcXDXcX4X^.7X6X6X8X4X/.(.!.K.4X9Xu.#.v 1 1 q ' y.B.-X4X7X/.W.E.Y.J.M.j.5.7.8.8.8.7.7.f.j.h.x.Y.E.R.R.W./.).^.).zXxXxXcXzXxXxXzX6X/./.6X6XwX0XE.E.0XqX4X4X9X-X=X=X4XW.R.Y.J.M.M.Y.E.Y.L.R.E.4XW./.0XW.Y.8X4XQ.W.L.J.=XQ.5XY.M.L.Y.L.R.4X4X!.(.8X6X^.R.E.7XqXE.R.6XcXzX).).'././././././././././.^.R././././.4X4X4X4X0X4XT.C.e.I v u 2 , , p G ..{. XN.T.=X;XN.b.q.w.M.M.W.M.Q.9X9XT.k.m.T.m.M.J.T.Y.Q.Y.f.x.M.Y.E.E.E./.4XwXwXwX4X8X8XwX5X8XcX8X4X8X4XW.R.7X4X4X4XW.R.W.5X5XW.=X=XY.J.Y.L.x.H.L.R.R.R.R.K.6X/./.6XxXzX6X6X6XzX/.K.K././.L.",
"H.E.7X/.R.H.M.J.J.J.H.H.x.l.z.x.7X5X@X@.z 1 1 9 A #.A.N.b.w.) _ 6.X.R 4.B.%XN.m.N.f.j.M.M.j.v.0.| I j f k I I N S S Y U U U U | R R 9.) q.q.q.) R ) R E R 7.k.k.h.M.T.M.7.7.D.R.K.E.F.L.E.9XT.Y 1 3 9 p Z I O.N.Y.R.R.F.F.!.R.K.R.H.^.R.R.^.R.^.R.6X6XF.F.).xXzX0X6X).(.K.G.G.G.).F.G.F.!.(.)././.R.R.R.R.E.E.D.!.!./.!.).^.).^././.^.R.K.E.R.J.%X&Xs.P k v m H ' ! O.OXC.f.H.E.E.E.Y.Y.H.K.R.^.K.R.K.K.H.K.R.E.E./.E.H.R.4XW.D.S.c.S.H.R.H.H.R.R.R.R.D.D.H.H.H.l.D.H.D.D.D.R.4X/.4X0X0X/./.0XcXzXlX6X/.4X0X/.K.^.R.W.T.i.oX( 1 7 y [ a.OX5X4X4XE.R.L.J.J.M.j.7.9.5.8.8.7.7.j.j.j.k.H.T.E.E.E.E./.R.^.wXxXxXxX0X^././.^./.0XcXmXxX0X/./.0X8X5X4X9XW.H.M.H.H.L.Y.Y.M.k.J.Y.J.L.E.E.R.L.W.4XY.J.5X9X=XY.k.j.J.T.&XN.-X9X=Xm.z.L.^.0X/./.4X0X4X4X4XR.L.L./.).^.^.zX)./././././././.W.^.^.W.^.4X/.W.4X4XW.R.R.R.Y.N.N.O.I v q , , < x G ' a.OXT.J.J.&Xb.q.) R 7.j.E.5X%XJ.M.M.M.M.v.T.N.j.5.7.j.m.j.M.Y.W.4X0XcXnXDXwX0XcX4XcXqXwX4X4X4XH.x.L.L.L.W.4XR.R.4X8X4X4X7XE.E.W.E.M.J.4X4X=X4X4XH.g.2.c.R./.^.^.6X0X6X6XzX).6X).E.R.R.R.H.",
"S.L.R.R.H.H.M.M.j.j.M.J.L.J.R.W.7XT.p.[ z > > 8 A #.u.4.4.q.6.X.6.X.R 4.v.M.v.8.5.8.N.%Xj.9.9.6.| ] I D N D P Y D D I ` ` U U T R 4.v.8.Z.%X;XC.N.N.v.5.5.v.M.m.M.M.N.N.v.j.M.4X7X^.z.g.H.-XC.D 4 , 3 y Z ! 6.N.T.R.R.K.K.!.R.R.D.D.^.E.^.^.K.!.zXxXzX^.!.~.(.).zXzX0X).^.^.!.R.!.R.F.S.F.^././.4XY.Y.R.R.R.R.S.!.R.!.G.F.F.).).(.(.).6X6X7XT.m.u.6.| C k h b K '  .O.N.b.j.Y.E.H.H.x.x.H.K.R.R.D.D.F.D.H.E.^.6XK.R./.6XwX6XR.l.D.R.E.R.K.K.R.K.R.R.H.D.D.R.R.K.l.D.R.H.S.S.R.8X0X/.4X8X^.H.R.xX!.).6XE.R.E.^.!.6X^.E.J.i.oXJ 1 1 h @.}.N.-XW.E.H.H.J.J.M.j.8.5.9.5.w.q.j.j.v.M.m.m.M.Y.W.-X=XQ.4XE.7XqXxXwXqX7XK.E.E.K.E.4XcXmX0X0X0XwXwXnXGXFXiX-XM.z.x.Y.W.5X;XT.Y.Y.Y.J.Y.W.W.L.H.R.4XQ.Y.Q.J.v.v.8.9.5.) ,.q.v.j.v.M.T.Y.Y.4XT.J.Y.Q.E.J.M.x.m.L.K.K.K.^./.)./.).).).)././././././.4X0X0X4XW.W.W.R.Y.Y.J.b.q.o.W v q , < 5 L G } y.B.v.v.j.b.q.i.0.5.w.f.k.N.-X5Xv.,.,.M.;XN.N.M.8.7.9.j.Q.Q.8XwXwXcXnXcXcXnX0XwX4XnX0XwX8XW.R.L.J.W.L.l.x.x.l.l.L.W.W.R.R.Q.Y.J.Y.E.5X8XW.4XwXnXwXR.D.L.R.K.R.E.^.^.^.).6X).^.^././.R.L.R.",
"z.g.c.D.x.H.J.k.j.j.k.J.L.L.L.R.J.j.o.W p - # 8 Z %.n.4.R 9.6.5.6.5.4.4.) ,.5.v.j.8.8.j.) R ) 5.+.0.i.a.t.o.+.+.X.0.0.X.X.0.i.q.C.%X-XN.Z.C.&X%X%Xb.v.N.b.5.9.5.v.j.,.,.j.T.=X5XR.E.L.L.Y.&XC.! 4 , > u Z ! 6.N.k.H.K.F.F.R.R.K.^.E.0X/.K.K.K.).zX(.).vXxX!.F.~.(.)./.R.R.(.!.D.l.!.0X6X^.!.!.R.l.h.D.E.H.H.E././.(.0X!.(.P.).lXhX).).6X6X4XT.v.X.U S B h y z K W | o.N.b.M.H.z.z.z.H.E././.R.F.R.K.^.R.K.R.D.H.R.R./.E.^.D.R.E.R././.R.K.R.^.R.R.R.D.D.D.R.R.H.F.F.F.F.K.R.^./.R.D.D./.6X^.R.R.^./.^.E././.^.R.F.L.W.9X+X}.l 1 1 l } y.v.T.R.K.H.H.Y.N.M.j.8.8.9.5.8.q.j.j.v.v.M.b.m.M.T.-X;XW.4X7X5XqX6X6X4XK.E.^.^.K.K.^.7X7X0X6XwXcXwXnXFXFXiX-XH.k.x.L.E.=X9X,X=XQ.T.E.W.W.0XW.R.W.5X8X-XQ.N.v.v.8.4.9.) 4.) X.) 9.M.T.J.J.;X;X9X9X;X-X5XrXJ.J.J.J.E.7X7X^.).6X6X6X)././.^./.4X/.W.W.4X8X8XW.4X5X5XW.Y.j.9._ ! A z 8 : , i a J @.#.| ) 4.8.) X.0.0.i.N.j.j.&X%XN.8.8.v.M.j.M.N.N.%XuX>X-X5X9XiXwX4XW.4X0X6XcXqXnXDXFX8X4XW.K.L.L.7X4XR.l.l.x.H.J.R.L.H.H.H.Q.W.9X9X8X9X8X4XL.R./.0X0X4XE.K.R.R.E.^.^./.).6X).R.K.^.^.K.R.4X",
"L.l.l.c.l.H.Y.M.N.M.k.M.H.x.x.S.L.v.O.A y % > 9 v %.XXu.5.4.5.6.4.6.v.N.B.8.8.f.N.8.R ,.R 9.9.6.&XQ.C.C.&X,X,X;X,X>XT.w.1.w.b.v.5X9X-XN.8.8.5.4.4.) 4.v.b.q.8.v.7.8.9.8.C.T.j.9.l.L.K.4X-X%XC. .3 < < u V P +.N.M.L.R.R.R.R.R.D.D.l.c.l.l.D.R.cXzX(.!.(.(.!._.zX).(.^.!.!.!.R.R.D.R.R.F.F.F.F.R.h.h.M.E.H.c.H.R.R.!.zX).).F.P.~.(.zXvXHXDX5Xj.X.U I V k h l b G W | X.OXC.J.x.h.x.z.h.h.c.D.R.^.F.D.^.^.^./.K.R.D.L./.E./.D.R.E.R.R.D.S.S.D.H.D.K.K.H.D.D.R.K.D.^.!.!.^.).0X0X6XcX0X(.!.^././.^.).K.S.H././.K.G.g.L.L.N.u.[ 7 8 1 h [ #.u.T.J.L.H.H.H.M.M.v.j.q.8.8.8.8.5.8.8.j.v.v.v.8.j.M.T.T.W.7X5X7XE.^.W.x.l.L.K.L.E.4XqXqXE.K.E./.R.E.4XQ.T.M.x.x.H.x.x.x.-X9X8XW.W.-X4XW.W.E.E.E.E.W.Q.M.&XN.B.u.i.C.A.OXi.N.b.u.j.4.R 8.q.v.b.v.8.6.u.N.%X%X=X=X4X5X6X7X6X6X6X6X)./.^.E.E././.W.E.Q.W.W.=X-X5X-XY.j.9.R U I A b 9 > , 5 a K @. .T 4.8.8.5.) 0.6.u.C.b.v.b.N.C.N.b.v.v.b.N.N.8.8.%X;X&X-X5XqX8XE.R./.6X/.D.E.4XcXcXnX8X4XqX4XH.x.K.E.R.4X4XwXuX8X4X4X^.K.M.T.qX9XE.J.E.=X4XR.x.z.H.W.7X4XE.R.K.R.^.)./.^.!.F.D.H.K.L.Y.E.",
"W.S.S.H.z.H.Q.Y.M.z.j.z.x.x.x.H.M.N.#.Z > + % 4 K @.t.6.4.4.5.q.q.4.4.4.8.8.8.8.5.j.q.b.,.q.q.b.j.M.Z.T.-X;XT.j.Y.k.k.M.k.j.k.Q.&X;X%X%Xq.v.4.4.) 4.4.9.5.8.5.,.,.9.4.8.C.b.j.J.M.x.l.J.N.b.b.] 9 5 3 p v C | N.Q.=X4X4X/.^.R.H.E.c.c.x.Y.E.R.E.E.0X0X(.).zX).F.E.H.H.E.E.K.R./.^.H.H.E./.E.D.D.h.1.h.Y.R.H.D.D.K.F.).^.~.G.~.xX_.).zXwX4XM.8.+.U ! A h h z F H [  .| :X%XT.k.h.1.h.x.H.Y.R.R.^.).^.0X/.^./.F.R.K.D.R.D./.E.6X6X0XR.S.S.H.D.D.H.S.D.D.D.F.F.F.S.S.F.F.K.R.!.^.E.K.6XzX/.(.8X).R.K.F.F.^.^.R.H.K.D.8X%Xu.y.@.w 1 1 h [ y.n.%XJ.x.z.z.z.k.M.M.M.v.b.v.u.6.5.5.6.u.u.i.u.+.| +.t.v.N.=X5XE.H.R.Y.f.f.M.J.N.J.Q.4X=XJ.m.Y.=XJ.T.Q.M.j.b.T.;X9X5X=XQ.N.&X;XT.%X;X5X%XQ.T.%XT.N.T.C.u.O.| o.O.t.XXa.a.XXXXXXa.u.| U 6.i.s.t.o.U Y T X.B.N.T.-X=XE.=X8X6X6X6X7X/.^.R.L.Y.=X8X;X&XT.T.N.C.C.N.M.j.9.) T | ] Q G p < < e F ' ..[ 6.OX&Xn.a.t.i.t.i.n.8.X.T Y U 6.N.n.q.6.5.OXC.6.4.X.) 5.v.=XuX9X9X4XE.z.S.E.L.H.z.5XwXnX5X5X4X4X9X5XY.J.=X4X=X=X4XwX4Xx.E.J.R.W.R.L.W.4X^.7X6XqX8X7XE.K.R.H.z.S.E./.E.L.D.D.S.c.x.H.x.j.",
"H.M.H.H.H.x.h.2.c.h.l.z.l.S.H.f.r.e.W z > @ % 3 h ..s.6.5.k.Z.Z.b.u.q.w.8.4.,.9.9.8.b.N.C.b.w.8.9.7.7.j.Q.5X=XY.E.=X4X8XeX9X9X&XT.%XC.q.9.8.8.9.8.j.j.5.w.M.k.7.9.) R 8.b.v.q.q.5.8.,.4.5.6.i.W 9 5 i x H A ! 0.n.-X-XY.R.0XwXW.R.Y.E.W.Y.c.D.E.H.L.R.E./.4X/.R.H.J.Y.T.W.Q.Y.k.T.Y.Q.Q.Z.M.M.T.Y.4X4X4X4XL.G.!.F.P.!.!.^.7X6X0XzX6X7X^.J.j.4.^ U I W B j c v Q ' ! ..<XOXC.w.w.h.j.j.z.x.Y.R.W.^.^.^.!.!.!.!.!.^.R.!.S.D.^.S.c.R.R.R.R.R.Y.Y.Y.Y.c.l.l.F.R.!.F.S.D.R.R.H.D.D.D.R.^./.4X/././.8X!.(.hXzX(.K.L.T.v. X|.! V b 1 - 1 z [ y.e.5.8.m.m.x.S.M.M.M.M.v.i.e.o.o. .! ] ..[ ! W A S C W O.6.M.T.Q.T.N.j.4.) 5.i.OX&X&X%XC.N.OX%X&X*X*XA.6.X.0.n.OXOXOX;X1XA.OXOXOXOXn.n.i.u.o.s.a.O...#. .V Z Z Z A J ' { [ ' { ' ( J J A @.[ W V B B C Y o.6.B.%X;X9X;X=XE.W.R.J.J.M.j.9.v.N.C.C.b.u.0.u.6.q.u.0.| Y U  .$.[ J G l 8 9 l V ~ &.{.{.y.y.s.%.y.%.#.e.t.O.^ N k N ! %.t.6.t.6.u.t.T D D | n.:XJ.N.&X9X9X;X;X5X-X=XJ.J.J.J.J.4X4X5X5X5X;X=XQ.=X=X=X5X4X=XW.R.nX7XE.K.^.7X7X^.qXcXnXqX7X7X6XqXE.f.d.L.^.J.E.6XL.L.M.k.j.h.h.w.",
"m.m.m.j.j.d.2.2.h.h.c.x.z.H.J.B.6. .Z q # X + > x [ t.6.w.N.n.b.5.9.9.5.9.,.5.5.5.5.q.b.b.w.5.9.1.j.J.=X-X4X4X=X8XE.R.qXMXeX=X&X-XN.q.q.q.8.8.v.b.N.b.8.7.j.j.j.9.5.9.5.4.4.4.4.v.v.4.T T | t.! 4 3 p m Q ! | t.b.C.T.T.Y.T.W.Q.;X;XJ.j.M.-XT.7.7.7.7.8.j.m.M.j.M.v.v.M.N.M.v.8.9.9.8.q.k.n.C.;X9XiXwX4X7XS.g.K.P.^.^.R.E.R.J.M.R.L.m.f.9.X.X.^ ! ~ [ V h v V W ! U | XXi.b.8.f.h.h.z.c.D.H.R.R.R.K.D.D.D.K.!.!.zX^.!.z.c.E.H.H.2.G.D.R.E.Q.Z.x.M.x.x.H.D.F.F.g.S.L.H.L.S.c.c.D.D.K.R.R.!.R.!.!.~.!.!.K.D.l.8.q.e.#.~ c q q - > 7 l J .. .o.6.v.m.m.M.N.T.C.N.b.%. .W W A B B Z V z l l l l z Z ! O.u.i.i.0.X.Y U ] ..@.%.t.t.O.#.$.#.@.$.$. .P I [ #.&.s.s.{..X.X}.%...] I A A S k Z A c c v l u u u p p z x x M M x z a p p p n l l p p l b V B P o.u.OXOXn.u.b.N.B.u.6.6.X.T U  .%.%...] I I I ]  . .W S A Q } K b n q 1 2 r j [ {.}.' V Z ' } *.*.$.@.&.@.' m z v J } @.#.%.#.#.| C j W }.#X@Xn.i. X*X<X*X*X%X X X X XJ.:X:XN.N.N.N. XOXOXOXOXOXOXC.N.M.v.v.J.J.J.E.-X7X5X5X5X5XuXqX5X5X5X5XJ.M.J.=X5X4X=X=XT.H.j.7.,.R R R ",
"V.V.8.7.<.<.d.h.x.x.J.M.z.m.J.B.X.P h 1 # + % > y A | ) ) ,.) ) 5.+.X.X.X.) ) +.X.) ) ) ) ) ) ,.7.l.R.6X4XE.K.R.^.S.S.E.4XR.L.J.9XC.v.v.v.8.8.q.N.v.8.6.q.b.b.b.q.6.6.8.9.R T 4.) 4.4.+.X.o.s. .w q l V W ! ^ 6.N.N.Q.=XQ.N.N.%X>X*Xu.X.u.*XXX_ U T T T X.6.u.i.B.v.v.b.N.v.q.u.v.q.6.5.X.X.X.9.8.M.M.m.S.S.S.K.g.z.x.x.H.T.=X%XC.n.6.O.| | ] ' H ' ' z q b F H | X.5.v.8.m.z.l.L.H.H.F.F.F.R.R.E.K.H.S.D.L.R.^.R.K.R.S.D.L.x.l./.E.K.H.k.z.k.k.h.7.k.H.H.D.D.l.G.S.F.F.S.F.K.^.!.!.~.^.~.!.!.K.R.L.H.j.,.R R X.t.! V 0 1 1 # 2 8 p b H W ~  .e.t.u.u.i.a.t.o.] V c h h q w w q u 9 8 q p p p q h v A W ! W A Z v z z z z v v c h l l y l z z y l z m m m b m m K Z z y 0 7 7 7 7 - 1 2 - - - - > > > > > > > , < < > > > > > > > , , < < 3 9 9 0 f j C W ! [ [  . . .] I S S B V V V v z h y h v B H J H Z G G x p 9 2 2 : < r L } -.' b 0 9 r b G G G G G G b p i 9 q z b Z Z V H A v Z *..X}.$.! !  .%.y.%.#... . .^  .#.t.{.! ~ P P ~ [ @.%.@. . . .| | | X.o.e.p.|.|.|.n.|.|.|. X|.n.p.u.r.v.N.%XN.J.%XJ.v.-X%XN.v.q.6.+.+.",
"9.4.4.4.4.5.j.M.Y.N.N.M.f.v.v.6.^ A g 1 % * & < y W O.6.) E E ) 6.6.5.5.X.X.X.5.) T R R R R 4.w.M.l.x.R.W.H.c.S.S.K.R.x.f.f.j.f.8.q.8.9.8.b.n.u.0.6.+.O.O.X.O.0.u.X.^ u.p.5.^ o.T X.6.6.o.o.| S q p l v W ~ ^ 6.v.v.b.C.N.q.6.t.a.@.W W [ @.[ ] ' [ ] W I W ] [ o.^ ^ O.6.| ^ | o.^ U U | ! | | ^ 6.u.r.m.%X&X&X=Xm.9.8.N.OXr.U | ! W A A Z Z b m F F p q x x G ^ X.8.r.8.v.m.z.L.L.L.L.H.K.K.R.7X7XE.J.K.L.L.L.L.K.E.J.J.J.H.k.j.z.m.N.N.N.b.v.j.j.M.M.k.k.x.l.g.z.z.z.z.G.L.K.K.^.^.!.K.K.P.K.J.C.N.q.R E Y  .&.} H 9 4 > @ < i i p l z V W !  ...%.s.&...A k 7 1 > 1 > - - > - # # - > > # # > 4 3 8 q p l p 4 > > > - - - - @ @ # @ # : > > - > > % # @ @ # - # @ # # # @ O # O O $ O O + O @ @ + + + + + + @ @ @ + + + + + + $ $ $ $ + @ @ - - ; ; w q l z l z z l y q q q q 3 4 > - > > > 1 1 8 q 9 9 9 5 , : # # @ $ 6 d K K L e 2 < , # : < e 2 2 2 1 - % % # # - 1 4 1 w q q 8 p x l 9 l q q h l l l l l h g q g l v V g 0 7 7 w q p l l y h h h h v V v V J Q W H A A H H H H A V c j f C P P ! #.t.#.#.#.t.y.y.&.@.@.",
"^ ^ T X.6.v.n.N.b.6.6.6.6.r.r.O.~ H p > + + % > p J #.u.6.T T 6.8.8.6.9.5.5.6.6.4.4.4.9.8.8.j.M.J.z.f.j.m.j.j.M.=X5X&Xv.4.4.9.4.T X.X.T T +.o.X.| |  .! C f j I ! Y Y ^ o.o.X.^ X.^ o. .^ ^ P j q p l b Q [  .#.O.O.O.O.O...| W Z l u z z u y x l x x z l x m G A B S H W B c B h f h V A H Q Q ~ ! [ !  .e.#.^ Y e.oX{.~ j N B 0 q q u p p a i i 5 i e e a a G P ^ 6.r.r.v.B.f.j.m.m.m.M.H.Y.T.E.E.=XE.E.L.D.S.K.P.L.m.z.j.k.j.R X.+.6.6.6.6.6.X.+.q.v.v.B.C.N.N.N.J.N.m.f.j.z.f.z.H.x.g.z.S.Y.OXXXa.#.! A A Q ' ' K e 2 < # , i s 5 3 8 u z z v Z Z K K m y 4 > % % % # @ @ # # # # + + @ + . $ + @ @ @ @ # # @ + X . . O O O O + + . . . X . . . X X X X + + . . . X + X .   X     .     . o . . . . . . . . X X . . . . X X X o X X X o . . . O @ @ # : # # # @ @ @ @ @ @ @ O O O + + + . . O @ @ @ @ @ O O O + $ $ + O 6 d L L d 5 + O O O . + $ + O O O . . + + O O # - - - - @ @ - # # # @ @ # - # # # # - # # # # # % > # @ @ O @ @ # # % # # % # # # - # - > 1 4 1 1 1 > > - > > > - - 1 2 2 1 > > 1 1 4 9 i a a a a a ",
"~ W W  .%.a.a.i.O.| | |  .#.#.! v p 3 % + + % 3 q v W o.u.e.6.6.v.v.q.9.9.9.9.9.5.8.v.N.N.v.j.j.v.q.8.5.9.9.f.N.%XM.8.6.5.X._ X.X.T U U U Y U  ...~ C B j k j c c P W N N P ! ~ ! ~  .[ ! [ S h 8 i p F K Q H A A A A V Z H b u 4 > > # > > > # O @ # - > 5 i a p p l n n q 9 9 1 1 4 8 p i p p 8 8 q l l G Z h c v V c l p q 4 > > > > > < < 6 < $ , 5 i a a K W ~ #.#.e.e.a.e.u.u.i.i.i.u.i.v.u.v.N.J.J.J.M.m.m.J.N.B.8.X.4.X.O. .! P P S P P N C U  ...#.t.#.y.a.{.a.e.O.o.o.e.u.n.u.4.4.8.n..X&.[ ' Q H b z p x x < , 5 & , s 5 < > > 2 8 8 8 8 8 3 4 , % % % % % % * % % % & < 6 & & * $ $ o   . . O . . . . . . . . . . . . . . . X o X X X X X X X X X o X . .           .             o . . . . . . . . X X X X X X X X $ $ o o o . o o . . . . . O O O O . . . O . . . . . .   . . . . $ $ @ O O O O O . O $ $ O $ 6 d d L F d 5 + O . . . . . . . . . . . + O O @ @ - - @ @ - # @ @ , O . O O . . . O O . X X X X X X . . . . . . .   X . . X X . . . . . . . . . . . . . . . . . . . . . . O + O + + . . . X X X X X ",
"V V V H Q ' { { ] A A S V A A c 7 > # @ X * & 5 9 z A  .p.s.e.t.u.v.j.5.9.5.7.5.f.j.m.M.m.f.f.f.8.8.4.4.) 4.8.8.4.T R T X.| T U P C C P ! ]  .&.' V h h b H F b v H W V c V H H Q H [ Q Z Z f 7 < s i a F L p 8 1 4 1 - # > % @ @ + + + + + + . + $ + O + + + O $ $ # $ # @ O O O . + + % % % & # @ , 5 i d F d e 5 , @ O O # # + + X . X X + + * + , < i d d L K G J H Q H Q H Q Q Q Q J A A A P P ! ^  . .| ^  .e.#.y...A A V h z b Z b z g w g g c v h h h 0 l l b b z l c c ' } @.[ W A W [ ' G b x x l u 8 2 2 5 , < 6 & 6 6 6 < , > , 2 > 3 3 < > % % % % % % % % % , , < , < 6 , $ $ $ + o   . + + O @ + O O . . O O O O . . . + $ * & & % * * $ + X X X + + . . . . O X + X . X $ $ X $ + + + + + O O O + + + + + + $ $ 6 = = & $ $ o o $ o o   . . @ $ + @ O + + + O + @ O . . . . + $ @ # # O O O @ O O @ & : , , 5 e L L K K L 5 @ O O O O . . . O @ O O @ - > ; 9 n K K K b 8 - @ O + . . . . . . . . .                                     X   . . X . .           o . X .         X X + + + . . . $ + + . X . X X ",
"8 8 9 q p p y y p q q 8 7 8 8 1 4 > # + + * & < > l H Q .. . .o.X.9.6.4.9.8.B.B.B.v.j.8.7.9.f.v.v.8.4.X.4.8.4.T E ^ +.T Y ! U Y W Q W A W [ ' H l z b b x x F K K b b K K V b G b p b q 7 y q p 3 5 s i L a 9 4 - > # @ + + + + . . + + . . . + + + . . . + + + . O + . . X + . + X . X X X X + + . + $ O O % @ O O O . X X . . X X X X + + + + + @ , , e L x L F p p 8 u 1 9 4 - > 1 1 1 > 1 1 8 7 7 7 w w 0 0 y b l z 9 - 1 > > > > - - - - - - @ - - - > 4 > O @ # # # # > 4 3 e p p q q p x q q q 9 4 > 4 3 e 2 , , 3 3 , a 5 5 5 3 < 3 3 > # - > > % % & < s 5 3 2 , 2 3 2 e e i 5 5 5 < & = $ + + # - - 1 > - - # - - - - 4 > - > 4 2 2 , 4 > 2 > > > > > # - > : # # - : : : # # < : # , , 1 2 2 1 - - - - - - - - 1 2 2 < 3 5 5 5 < < 6 X o * * $ @ @ @ # # # : - @ # - @ # - - - - @ # - 4 4 > > 4 2 4 4 2 2 9 w 9 w 7 q n K } F 3 - > 2 > > - # # # - - - 1 q z G } .X$X$X#X-.Q H Z x 6 $ . . . + X . . . .           o o             .             .     . .       .     . . .   . .   . . . . + @ O O O + + X X X X ",
"# @ @ # # % % # % > > % # # - > > % % & * * & 5 s i y c J @...W |  . . .| o.O.o.u.n.OX|.n.B.r.9.8.8.8.9.6.8.6.4.T T Y U o.o.|  .' G l l z z z z l p x K K F L L L n 9 1 4 8 4 - 1 - 1 4 4 1 9 a < 3 < a x L L 3 4 - @ @ @ + X + @ @ O O O O @ @ O O O # @ O O # O @ O O O $ @ . . + + X . X + + @ @ @ O O @ @ O O @ @ @ @ + . . % + O + + @ @ % # - - 2 r n G K x x a 3 > # # # # # # @ # % % + + + + @ + + + + + + + X X X X X * X X X . . + . + O O O O @ + @ + . + + + . + % # # % > > - - 4 4 4 3 3 3 3 3 9 9 9 9 2 9 a a i p x a p a q 1 3 3 3 9 3 3 3 s i x z l l z z z z b z l l n q 9 e < e 9 7 0 c c B V V V V v v V V Z Z Z v Z H J Z J J Z v v Z Z v v h v l h c f h h f f l c c V V H Z Z H H Z V v B V V v v V v f 0 z c h b b i 3 3 < % < > 9 1 l Z H J ' ' Q Q Q Z H H A H H H H J ' ' ' ' J v k k c Z A B c j B c V A W Q H v h z y 0 h v z h h h k W }.#X#X1X<X3X1X#X+XoX#X#X-.( d & . O $ $ @ & @ . . + + X . . $ + + $ + . $ & O + . . O O $ . . O + + . . O . . + $ + . + + $ O O O O O O # # @ O @ + $ + + ",
"% % % $ + @ + + % % % % % % , < 5 , & 6 s s 6 < i a p l b J Q H H Q Q H A W I P $.%.s.}.}.{.y.#.| o.o.o.O.e.o.^ Y U P ~ @.@.' ' G x q 3 3 1 1 1 8 8 w 9 q 9 3 3 @ - - > - - - > > - > 1 1 4 u p z z z m K H K l q 8 7 4 > # # # # - - > > - - - - - > 2 2 > > 2 9 2 2 9 a L a 9 9 e 3 > - 4 3 4 - 1 4 1 - - ; - - > - # > 3 5 i > # # > 3 > # # 1 1 7 0 c H W G K G M i > # # @ @ @ # @ # # # + X X X . X X + + X X X   o       o           .       . X + + + + + . O O @ $ , 5 , 2 3 i i 9 3 3 q q q q 9 9 q q p y p l l q p z v H Z b Z z y l y u u u p p z x J Q Q  .@.&.}.}...[ ~ ~ W c g c p q h S !  .e.|.|.|.XXXXXX@X@X*XXX@X@XXX@X+X+X+X1X1X3X3X1X@XXXXX$X+X1X+X+X+Xa.i.|.a.t.s.a.|.+X<X<X+X<X1X3X1X<X#X+X@X@X+X@XoXXX|.s.y.] P I C h z u 4 4 p G [ W #.oXXX.XXXXXoXXXXX|.XXOXXXOX@X@X@X+X+X#X+X@XoXi.%.t.i.XX@XOXa.u.t.s.a.a.a.XXoX.Xs.s.%.s..X.X{..XoXoXt.n.*X*X;X>X-X%X%X&XOXC.OXOX}.L d 5 , : , e i # - > - # @ # % # : @ @ e L r - - @ 2 e e 9 - - 2 , > # # # # # : @ # > # O O O O O O # : # # # @ - , > # @ # > ",
"# % & % # + % & % , , , , , < 3 5 5 5 i a i i i 9 p p 9 w q l l z x x p p p p p y y h l b V v h V Z Z Z Z H V v h c h l z l q i 5 , # # # @ - ; 1 7 7 ; - ; 1 ; ; ; 1 1 ; - - 1 4 8 8 8 8 z m J W ] ] #.O.#.t. .~ P A S V V Z K J K H Z Z Z Z H Z H J } } } *.-..XoX.XoX$X$X$XoX.X.X&.Q W &..X.X}.&.[ S k k B A j H Q } }..X-.}.} H v h z v b Z v B S ~ y.oX@X{.&.*.[ A c f 0 8 8 u l z l p y 9 i a L L a 3 > - > % % # + + + + X . X X             o & < < 3 3 < 1 > 2 q r p l p q w w 0 0 q g l l l l l z z z b Z J Q W H ' @.s.}.%...[ W Z S W A A A W ' { {  .#.s.n.|.@X*X<X3X<X@X|.y. .! ~ v h I XX2XOXM.-X-X;X;X;X;X;X9X9XuXtXpXiXiXVXSXSXiXiXSXSXtX&XQ.>X9X&X&X&X9XSXVXKXMXiXMXMXMXMXMXMXtXtXtXiXtX9X9X>X%XC.%X;X;X&X-X9XtX>X%X%XOXu.| { ' M x Z &.oXXX%X;X&X&X;X>X>X-X%X-X;X-X-X-X5X9X5XC.C.%X&XrXiXtX9XuXrXtXiXpXiXtXiXMXpXtXtXtXyXtX2XtX>X,X>X2X2XtXVXVX,XQ.&XW.W.4XE.H.R.W.E.k.M.Z.u.K i - @ ; x } ;.} G l 0 w w 8 1 8 q w g } oX}.} } Q Q Q Q ' Q } G K K H G G b g q 0 q z b b b b a e e a L F K K F F F F x a i 3 ",
"> < 3 3 < , < 5 3 3 3 i i a a a a x L x a q i a p x x u 7 ; ; 1 # # # @ O @ # # > - - - 1 1 ; - - - - - - - - - - - # @ # # O O X . . O @ # 1 q 0 h v v v V Z v h 7 ; 0 h z Z ' *.-.-.=.=..X$X3XOXOXOX<X>X<XpXrX2X*XOXOX@X+X1XfX1X3X$X$X#X#X#X#X3X$X3XfX3X3X$X3XdXZXKXZXyXaXyXdXZXKXdX*X*XZXKXZX2XyXyXyX2X<X*X*X2XyX1X+X3XyX1X3X#X#XoXoX.X{.{..X+XoX@X<XyXdXdXyXdX3X1XoX{.}.}.s.&..XoXoX.X.X.X.X.X$X$X$X#X}.@.' B v v h y 7 1 - % + + + . . o     o & 5 a F K ( H H J [ *.&.*.@.[ ~ W W W !  ...W ~ [ } @.@.&.&.}.$X3X#X+X3XZXfX3XyX3X1X<X@XoX@X@XoXoX@X+X$X1X1X1XrXtXtXrX5X5X9X5X;X5XrX2X2X3X1X[ B U OX>XJ.J.5X^.^.W.E.E.E.^./.4X8XwX8X0X0XwXcXqXwXnXcX8XR.W.8X4XH.x.z.Y.0X0XwXwXwXxXcXxX6X/.^.4X4X4X4XW.R.R.R.x.x.H.Y.Y.Y.E.4X8X9XeXGXGXuXOX@XoX( Z B .XOX%XT.Q.E.E.W.4X4X4X/.4X4X7X^././././.W.-X=X4X8XqX9X-X9X9X9XeXeXiXMXGXnXnXMXMXiXeX9X-X9X&XN.Y.&X5X8X9X9XT.x.D.D.K.R.!.K.!.0X/.H.H.Y.b.K 3 # 4 b -.#XoX{..X.X&.] ] =..X$.$.$.y.oX#X#X+X3X1XdXAXAXZX#X$XfXfXfX3X$X$X$XoX{.oX.Xs.}..X{.}.*.} } *.-..X$X$XfX$X$X$X$XoX-.@.",
"x z z l p p p u p p z b G K K K K K G b h 0 q v z v b l 0 1 ; - # # # @ # - > > # - - - - - - - # @ # > > > > 1 - 1 > > , > # @ .   . O @ - p G W ..%.y.y.{.{.a.#.! U  .#.%.s..X.X@XoXt.t.XX1XtXrX9X;XuXiXMXLXLXKXiX9X5X>X;X;X;X>X2XyXyXVXyX2X2XyXyXtXyXtX2X2X2XuXuXuX5X=X=X5X9X9XMXKXMXpXSXiX;XiXuX9X5X9XpXKXKXtXpX,XC.%XOXN.OX2XrXaXyX2X*X*X2XyXyXaXVXtX9XuXKXKXKXZXpXyXZXZXZXZXZXZXZXZXZXZXZXVXZXKXKXKXZXpXaXrX2X2X*XXXt.| A z 8 > # + X + X + $ , i M K } &.#.#.t.|.<X2X<X<X+X*X<X2X2X3X2X<XyXdXZXAXAXAXAXZXAXPXPXZXVXKXKXKXKXSXVXpXtX2X2X2X2XyXVXVXpXpXiXpXKXLXLXFXnXqX6X6XnXiXiXuX;X;X:Xi.S k U A.-XT.E.7X/./././././.8X0X6X6X6X7X/./.6XqXqXDXHXHXDXDXcXcX8XR.R.R.^.6X!.R.6X6X).^.!.~.(.).^././.^.^./.6X0X/.0X0X/./.4X6X4X4X8XwX0X4X9XtX1X.Xv k k .XN.T.L.E.R.R.R.^.6XzXcXzX0X6X6X6X6X6X6XxXcXcXwX0X4X4XE.E.4XqXwXwXqX8X4X/.7X4X0X8X4XW.E.E.Y.Y.E.W.4X4X8XQ.Q.R.R.R.K.K.!.K.^.0XzX/.^./.C.} 3 - 8 G }.#X}.#X@XoX+X1X1X1X@X+X+X*X*XOX|.%X2X%X:XZXKXPXZX*XOX1X2X1XOXn.XX:X1XyXyX1X*X2X1X:X<XOX|.|.:X<X2X;X;XrXpXKXZXpXyXyXtX",
"W H H H H H Z Z J J Q [ ..@.$.@.*.' W A A A A A Q J ( K H b h 0 - - - - # - - ; 1 1 1 7 7 7 w q 8 9 p x b b b b G K ( K K x 4 O X   . O # e K &..X@X*X*X2XrXtXtX%X:X*X*XC.0.6.0.n.C.C.b.k.T.eXiXMX9X=XuXiXnXLXHXPXHXFXFXFXiX5XQ.N.N.Y.T.&X,XeXeX9X9X9XeXiXiXiXMXnX4XE.W.4X8XwXqX4XwXnXqX4X-XQ.J.E.E.W.8X9X-XN.j.M.M.N.b.j.b.N.N.5X9XuX9X=XT.;XtX;X;X9X9X;XY.5XSXiXiXuXuXiXSXSXVXVXVXVXVXpXpXiXiXiXMXMXMXmXMXnX9X9XuXiXpXpXrX;XOXs.[ Z p > # % $ $ # 3 l Z P | 6.B.B.N. X:XsXsXsXrXpXMXBXKXKXKXKXpXdXZXpXrX;X;X2XyX>X,X9X9X9X9XGXGXiXuX9X&XQ.Q.T.>XuXMXiX9X4X4X0XwXqXwXqXxXzXzX6X/.E.4X=X=X9X;Xt.7 0 ! @X;X-X7XK.7X6X/././.^././.6X7X^.^.E.R.^./.6XcXnXxXxXnXmXcX/.R.W.R.^.qX).0X6XzXlX).(.(.(.(.(./.(.E.^./.0X0X6XxXxX6X).0X0X4X4X4X6X^.H.W.,X@X[ 0 y k oXOXE.E.D.R./.6X0X0XzXxX)./.(./.).).).6X/.6XxX0X0X0X6X4XR.4XeXqXeX9X9X8X/././././.E.R.E.M.W.wXwX4XE.E./.W.4X8X6XqX7X^.7X!.^.6X6XE.K.Y.v.} 9 - 1 h } .Xa.i.OX*X:Xn.i.Z.OXOX%X;X%XN.;XuX9X=XY.Q.T.T.T.v.b.j.N.&XT.M.v.N.T.N.v.w.C.9X&X&XKXuX5X=X=X=XJ.H.m.L.R.E.E.4XqX9X9X",
"a.s.{.}.}.}.}.}..X.XoXoX#X+X+X@X$X.X{.|.@X+X@XoX$X$X$X#XoX}.-.-.' ' ' J J Q Q Q $.@.....$.$.$.%.y.y.}.{.{.t.t.y.p.oXoX|.{.#.C t @   . O > b -.$X3X2XrXuXiXuXwXiXz.H.=X=XJ.j.9.1.j.Z.T.Q.E.8XJXFXFX9XQ.iXGXMXFXGXnXwX8XwXwX8XE.Y.E.E.R.R./.wXDXLXHXFXDXDXDXnXwXqX/.H.l.H.4X4XW.Y.W.W.Q.Y.x.k.Y.Q.8XE.Y.W.;X-XW.T.-Xb.k.5.Y 5.%X;XE.qXFXFXnX8X5X8X9X9XeX=XY.L.E.4X4X0X0XqXnXGXSXiXiXpXVXiXiXMXMXiXiXGXFXFXFXMXwX9X5X;X9XtXVXKXKXZX3X1XoX=.v 4 2 > > 2 l A ! T 4.8.&X;X5X-X-X5XuXuXSXKXKXSXMXSXLXLXFXKXFXuX&XJ.T.-X=XN.Y.8X8XW.4XnX0X4X0XeX8XeXiX9XeXiXnXnXxX0X).6X^.R.R.!.0XcXbXxXcX6X0X5XQ.,XT.U 0 8 W {.N.=X9X7X8X8X0X4XW.W.W./.7XJ.K.K.K.L.L.K.^.^.E.K.R.E.4X0XwX8X8XT.Y.W.^.0X4X0XxX6X(.^.^.!.6X4X/.E./.4X6X/.4X4X6X4X6X0X0X0X4XR.^.7XE.=X&XA.A 8 y B oXOXT.7XE.7XwXnXDXnXcX0X6X7X4X0X0X4X6XqXxXxXcXqXqX8X4X4X5X5X5X=X;X9XiXiX4X4X4X4X=XY.Y.Q.Y.5XiXwX^.H.z.z.J.-X=X=X8X5X7X0X/.7X6X7XL.k.m.u.J 4 1 8 h ' y.| u.q.6.q.b.C.&X,X9X-X-X=XJ.=X4XL.^.R./.W.E.Y.j.j.7.j.Y.=XT.k.k.J.Q.Q.M.T.8XQ.Q.SXiX9X=XQ.J.H.M.H.K.D.c.c.R.qXqX4X",
"ZXZXZXZXdXyXyXdXdXdXZXZXPXPXPXPXPXPXPXPXPXPXPXPXPXPXAXAXfXfX3X3XfXfXfXfXfXfXfXdXfX<X<X<X<X:X*X*X Xn.r.6.^ T T >.B.=XsXsXpX<Xu.~ , + . O 2 G {.dXaXrX9XiXiX8X4X7XW.^.7X7X4X5XW.Y.H.Q.eX0X0XbXJXDX9XJ.z.=X9X9XwX4X0X4XW.W.E.R.R.R.D.K.R.4XqXcXDXDXcXcXcXcXcXxX8X^.R.D.D.E.4XW.Y.H.x.H.T.W.Q.Y.T.8X/.E.Q.W.8XW.Y.M.w._ 1.,.E ) &X&XE.6XzX0X/.E./.4XE.8X4XY.R.4X0X/.H.R.R.W.8X9XqX5X9XeXeXeXiXMXMXwX9XnXMXnXnXnXFXLXqX9X=X;X>XrXtXtXtXVXZX$X' l 9 2 2 r Z ..e.8.j.M.H.-X9X5X5X9XMXMXnXKXLXLXFXFXKXKXFXFXmX4XL.x.J.4XW.W.4X4XW.R.R.E.8X/.0XwX8X8XwX8XqXwXwX0X6X).^.~.!.D.G.D.).bXbX0XcX).qX8X-XtX;XU 7 7 Q oXOX&X9X4X4X4XW.W.W.W./.4X4X=XE.=X4XW.R.E.H.x.H.R.L.x.H.R.E.E.4XE.H.R.R.4X6X0X7X!.K.^.6X0XE.E.E.E.4X0X0X/.wX4X7X0XwX6X4X0XwXL.L./.^.=X:X.XZ 7 0 C a.N.J.5XnXwX0X0XwXcXcXwXcXwXwXcXcXwX8XqXcXxX6X6X5XwXqX7XuXiXuXuXiXpXtX9X4X4X4X8X5X4X-X5X9X5X4XW.W.K.S.g.H.T.J.H.4X4X^.7X6X6XwX8XJ.M.T.OX&.u - - 7 A %.T Y T ) 5.w.b.C.&X9XM.M.Q.J.M.H.c.l.g.D.H.H.M.h.j.M.k.x.H.x.h.x.W.M.8XE.h.J.W.T.-X&X=X=X5X4XQ.Y.Y.l.x.c.h.c.W.qXwX",
"J.rXKXBXMXKXKXpXKXaXpXKXPXPXKXPXPXLXKXKXLXKX9XM.OXN.u.6.| | | X.e.r.B.:XsXrXuXKX;X8.9.%XrX;XC.%XC.8.5.j.8.9.j.J.J.qXMXuXiXKXZX{.x @ # < - ' @XsX7X7X4XuX5XM.Y.qX4XwXnXnXnXiX8XT.M.8XW.Y.8XcX8XY.E.J.Y.4X0X4X/.0X0X4X^.R.H.H.R.K.R.K.4X4XR.4XxX/./.4X6X6X).^.^.^.^.E.E./.7X4X/.E.H.W.W.H.H.W.4XW./.4XDXHXnXW.Y.k.h.j.1.9.q.b.C.b.M.4X4XE.E.K.D.R.W./.H.x.R./.R.H.D.4XH.c.H.L.R.E.7X4X4X8X9X9XW.Y.Q.W.W.4XcXnXDXmXnXwX4X=X-X&XT.M.%X%X2X Xy.f x 5 5 2 V o.r.M.J.5X=X-X4X5X4X8X6X4X4XcXnXwX8X9XMXGXwXnXqXqXwXY.g.x.W.W././.E.L.H.R.Y.D.h.h.x.x.Y.8X4XwXwX7XE.E.^.E./.!.R.R.(.(.).`.`.zX`.4XeX&X5.Y ; w $.a.&X8XnX4X8X4XW.W.Q.W././.4X^.E./.7X4X^.4X^.E.K.L.R.E.K.S.Y.Y.D.H./.7X^.^.^.^.^.^.7X0X6X^.xX/./.0X0X4X6XcX6X7X7X0XcXnXcXwX4XcXDXxXxX4XN.#.Z 1 8 O.N.-X5X9XnXcXnXcXcXcX6XnXFXmXmXnX6XcXmXnXcX7X/.6X0XE.R.W.4XwXGXiXiXFXFX9X0X0X4X/././.4X4X4X4X/.E.R.R.D.l.x.H.E.7X/.E.^.6XwXE.W.Q.W.-XQ.,X$.q > # 4 J %.6.6._ _ 0.b.k.b.C.T.N.v.j.m.j.f.z.j.k.k.7.<.j.M.7.j.k.k.k.z.z.x.H.Y.J.M.M.T.Y.N.Y.=X5X5X4X=X=XT.N.N.J.J.J.J.K.W.6X",
"m.E.f.z.MXuX=XMX=XJ.-X5XuXMXpXMXLXFXMXuX9X4XJ.j.R E E R 9.8.4.R R 9.V.m.J.5XMXMX7XE.J.=X=XJ.f.,.h.,.7.j.j.k.R.4XxXqXnXmXFXKXKX1XG : @ , 1 @.*XsX^.(.7X5X5X=XE.W.4XcXnXDXGXMXqX=XM.Q.W./.4XY.S.E.4X=X4X4X4X4X4X/.E./.4X6X7XE.K.D.K.W.4X4XqX6XE.H.^.7X0X6X^.!.^.^.7X/./.4X4X4X/.E.7XR.H.R.E.E.E./.DXmXFXHXnX4X4XE.9X;XQ.9X,XN.N.Z.Y./.E.H.R.H.D.H.L.E.R.R././.R.R.R.8XR.H.E.E././.qXcXnXwXW.M.M.J.R.R.4XwXcXcXmXHXmXcX4X/.E.E.Y.J.m.v.=X%X|.h p , 5 i W #.N.;X=XJ.;X=X=X5X4XE.E./.E./.4X/./.8XwXnX0XwX7X/.wXcXcXDX/.4X4XW.L.Y./.8X8X-Xx.d.g.x.E.qX8X4X4X4X4XR.K.E.^././.^.^.).).!.).0X).Y.Y.Z.6.Y 7 7 $.@X9X6XxXxXqX8X'.-XeX0X0X4XR.W.4X4XR.H.L.E.R.4X7X4X7X6X^.L.L.L.S.L./.7X/./.^.^.^./.6XxXxXqX/.6X6X^./.0X0X/.cX0X/./.7X6X0XqX0XzX0X/.K.L.b.s.y 1 h t.Q.nXuX9XnXcXnXnXFXHXcXcX7X7XcXmX7XL.6XHXcXnXmXmXwX^.D.l.E.4XwX9X8XwXnX8X4X4X6X0X4X7XE.E.E.4X0X4XR.D.K.^.H.R.4XwXxX0X6X0X4X/.8XW.T.W.T.%X#.q # + 4 J t.6.n.u.0.u.b.k.b.Z.M.b.j.j.M.M.j.m.T.j.8.7.7.8.j.j.k.M.Y.Y.Y.Y.Y.Y.W.W.Y.N.J.N.M.N.Q.4X4X5X5X-XT.v.C.T.T.T.T.W.7X8X",
"5XJ.m.T.9X5XJ.m.T.-XuX-XT.=XM.m.MXnX5XJ.m.m.H.M.T.T.N.b.b.B.N.N.v.%X=XH.J.qXuX7Xz.J.J.x.x.Y.H.7.7.j.&XiXuX9X9X8X0X6XwXMXMXrXOX#.K , @ , 9 *.*X5XS.7XqX5X-X;XW.R.wXcXwX4X8XwXnXwXwX4XY.D.c.d.D.cXE.W./.W./.0X0X4XK.R.R.H.D.D.D.H.E.E.l.g.R.K.c.R././././././.^.^././././.7X/.E.R.c.2.<.c./.wXcXcXcX6X4X4X/.4X8X8XMXiXiXKXSX;X-X-XE.Y.x.z.H.x.z.H.H.E.W.W.W.Y.H.Y.E.8XE.R.E.E./.^.0X0X4XW.Y.J.Y.T.R.L.E.0X4XE./.cXmXnX0XE.H.H.J.Y.T.f.m.v.p.j p i 5 a Q  .v.5X;XN.&XT.=X9X0X/.0XmXDXcXwX0X4XW.E.E.D.4X6XE.R.E.E.W.4X4X4XY.H.Y.=X4X5XMXMX5XE.E.Q.5X4XW.W.W./.E.R.R.R.).8X/.8XqX0X~.F.).8XE.T.C.6.D 7 0 s.*XrX6XxXxXqX0X8XW.W././.W.H.E.7X4XK.L.R.4XE.7X7XR.R.^.W.L.W.R.L.K./.^./.lX(.(./.^./.7X7X^.R.6X0X/./.wXqX/.^.4X0XxXxX6X^.K.(.R.R.^.^.K.v.s.z 4 k i.-XnXMXMXFXFXFXqXnXFXnXnXnXnXmXMXqXqXwXqXcXnXnX0X4X0XwXwXW.4XqX8XE.E.W.W.wX0X4X/.7X0XcXnXE.E./.6X0X0XwXnXwX4X/././././.0X0X0XwXW.W.eX,X&Xy.l > # 4 J #.6.A.n.i.u.b.N.C.C.M.M.j.j.M.m.j.z.J.f.f.N.J.M.M.m.M.J.Y.J.M.x.x.x.Y.E.Y.M.k.N.T.T.=X4X5X9X9X9X%XM.b.M.M.M.M.H.J.E.",
"=XM.M.m.v.5XuXT.M.J.=Xm.f.m.m.J.4X8XqX5X=XJ.z.f.7.v.%X;X&XN.v.q.%X-XJ.m.H.=XK.d.S.E.E.l.x.4X8XE.E.W.9X9X-X9XiXuXFXMX8XJ.M.&XOX@.G , @ , 9 *.@XsXS.7XqX4XT.T.W.E.4X6X^.L.R.4XwXqX4XW.Y.x.D.R.~.E.H.H.H.R.E.4X0X4XE.K.S.l.g.l.D.E.R.R.H.E.0X7XR./.0X/.R.^.6X0X6X^./.E.E.^.4X4XE.R.H.L.c.z.E.nXnX4X7XR.H.D.D.E.wXnXqXGXGXGXGXiXuX-XQ.H.j.j.z.l.l.k.x.H.Y.E.W.H.x.E.Y.4XR.R.E.R./.R.7XE.H.H.R.W.=X-X5XW.W.4X4XW.^.6XcXnXwX/.H.x.x.H.m.f.M.N.|.A e , i a H N R b.&XT.&X=X=XW.L.D.K.7X6X^.E.4X4XE.R.E.R./.E.c.l.H./.qX8X8X4XE.Q.-XW.M.z.Q.9XiXFXGX8X-XL.4XW.H.D././.D.R./.6X4X8XqXbX`.F.!.`.4X&X%X6.N 7 c oX*X5X0XxX/.bXcXwX0X8X/.8XqX/.W.R.R.E.W.^.4X7X4X7X4XW.^.4X7X4X^.K.K.^.R.^.zX(.(.^.^.K.K.L.S.^./.6X0X0X6X6X6X/.4X6X6X7X^.^.^.^.F.D.E.6X7XB...m 4 k OX9XwX9XGXnXLXLXqX6XnXcXmX7X7X^.7XqXHXHX8XnXDXFXnXcXcXwX0XwX8XwXwX=XE.Q.W.4X0XcXnXnXcXwX0XqXqX0X4X0XwXwX0XnXwX/.E.R.E./.qXwX/.E.M.Y.-XT.N. .f > # i } a.OXn.n.A.b.M.T.C.C.M.N.m.k.m.z.f.k.M.f.j.Q.=XY.J.J.Y.J.M.k.j.h.l.x.H.Y.Q.M.j.N.Q.T.M.H.J.T.T.N.v.8.5.5.5.f.j.z.m.M.",
"N.5X%XM.;XuX5X9X-Xm.7.,.7.M.T.9XLXnX4XH.j.k.J.Q.T.M.j.q.b.N.Z.N.j.j.j.l.x.S.z.d.^.7X/.H.D.R.H.g.Y.Q.-XW.T.5XiX9XL.=X5X;X:X*Xa.I l > # , 3 } |.rXL.E.W.Y.J.Y.E.E.H.E.^.E.W./.W.Y.H.H.c.l.S.^./.S.E.H.H.R.E.R.R././.E.^./.^.R.E././.R./.wX4X/.4X7X7X^.R.E.7X0X6X/./.^.R./.0XxX0X/.qXwX6X^.6XcXnX6XcX0X4XE.H.E.wXnXqXFXGXGXMXwXqXY.E.J.M.k.j.h.z.k.h.j.M.Q.5XW.Q.8XE.4XE././.E.6X^././.E.Y.H.H.T.=XY.Q.W.E.R.R.^./.4XwXcX4XY.H.H.M.m.m.H.v.p.~ p 3 d i V N T 8.N.v.J.Q.W.J.S.H.E./.^.H.D.R.E.Y.R./.4X^.K.H.H.E.W.4XL.Y.Y.J.Y.Q.Y.M.Q.j.7.N.uXeXJ.j.E.4X4XH.D.E./.R.8X/.(././.^.).0X).U.R.E.Q.N.6.Y w B @X*X5XqXxX).8X8X8X/./.4X0XqX0X/.R.R.R.E.R.D.H.H.E.0X0XE.R.E././.E.E./.E.!.).!.^././.^.R.K.K.^./.4X6X6X^.E.^.^./.4X7X^.E.E.E./.(.E.R./.4XN...z 1 B 1XMXcX-X9X4XnXHXnXnXFXnXDX0X^.4XwX0X0XnXLXHXFXnXnXnXwX0X0XcX0XwXnXwXqXwXwXwXcXcXcXwX4X/.E.E.wXcX4XE.4XwXcX0X8X0XqX0X0XwXcXcX/.E.Y.H.M.h.q.#.c > # p @.a.N.n.OXOXN.M.M.k.w.f.M.M.k.m.k.k.J.J.M.M.M.k.M.Y.T.Y.Y.Y.J.L.Y.R.E.E.=X8XQ.j.M.Z.j.z.M.J.J.M.j.j.j.9.9.9.8.j.M.M.M.",
"rX>XtXSXSX9XJ.f.-Xf.9.9.z.J.j.z.R.K.R.W.Q.J.k.j.j.j.M.M.M.q.9.,.f.z.J.J.x.g.g.H.L.R.4X4X4XE.x.2.d.x.=X9X9XtXuX=XE.m.M.N.i.O.] A 8 - % < 3 J t.;X7XL.x.M.Q.W./.E.R.^.4X/././.E.H.R.x.c.D.c.D.^.W.E.D.D.R.E.H.K./.4X/.7X0X0X4X/.4X6XR.^.E.g.l.E.R.K.R.^.E.R.R.^.6X^.R.R.^.7X6X6X4X6X^.^.7X0X6X0XcXcXcXcXqX^./.wXwXcXnXcXHXFXwX4XR.Q.Y.E.H.h.z.M.M.j.M.Y.-X9X9X-X5X4X4X4XwX6X4XxX/.H.D.c.x.H.Y.Y.Y.M.W.4XH.l.c.H.K.E.4X8X4XW.E.R.L.J.J.z.:.X.W p a L e H ~ OX:X:Xv.j.J.J.H.L.4XcXwXxX^.H.D.D.c.S.R.K.R.6X0XR.l.l.h.h.k.M.N.M.N.T.&X;XM.7.j.M.h.1.h.9X=XW./.E.H.R.7X).!.R.^.^.R.!.0XzXU.R.4X&XN.6.N 0 k |.2X9X6XxXxXzX^.Y.H.R.^.^.R.E./.4X/.E.R.H.D.H.H.H.E.R.x.c.D.R.4X4X0XxX0X^.^.!.!./.7X/.^.E.^./.qXxX4X^./.^.K.R.^.6X0X6X^.K.D.F.4XwXqXzX8XOX%.u 8 V OX5XnX9X=XwXcXnXwXDXHXnXcXFXFXHXmX6X6XnXFXHXcX0X0XwXcXnXFX0X4X9XwXqXwXnXwXFXcX4XE.R.E.4XwX/.0XwX4X7XwXcXwX4X4X8X8X4X/.6XxX/.E.8X4XT.M.j.Z.t.V 4 % x @.t.v.v.C.OXC.N.M.j.h.z.L.L.m.k.k.k.J.m.M.J.M.j.J.Q.Y.Y.Y.E.Q.W.W.R.Y.R.R.4XW.j.j.M.7.H.R.=XW.J.M.M.T.j.w.8.8.j.j.j.w.",
"rXv.N.&X8.j.T.7.,.,.j.z.M.H.d.<.l.z.z.H.H.m.M.M.M.N.J.v.7.8.v.T.j.k.N.M.h.1.d.x.z.H.4XwXwXwX8X/.Y.Y.Y.T.N.T.T.M.j.8.v.C.u.U C k 8 > % < 3 J O.N.J.S.l.m.Y.T.R.K.R.^.^.E./.0XqX4XR.c.R.qX/.R.R.D.c.l.l.D.H.H.R.E./.R.R.^.7X/./.4XR./.qX0XE.H.L.c.H.R.R.R.K.K.R.E.L.H.R.H.L.K.E./.7X^.^.^.R.K.K.R.R.R././.E./.6X/.4X0X0XmXnX6X0X4XW.Q.Q.M.7.k.Y.k.Y.W.Q.Y.W.W.Y.T.=XW./.8X/.E.6XK.c.g.2.g.L.=X=XQ.8X8X=XY.H.H.H.R.R./.7X/.W./.E.H.x.H.J.m.u.! 7 9 a p } #.2XyXtXC.M.J.H.x.D.K.K.D.R.S.3.g.S.D.H.H.K.K.E.H.g.L.8XqXQ.T.Q.&XQ.T.T.&X9.w.j.k.j.7.j.-X4XJ.H.W./.H.K./.!.R.!./.^.~.(.`.`.R./.qX&XC.O.k 0 k a.;X5X6XbXbXDXbX/.W./.4X6X/.E./.4X4XW.W.E.E.8X0X/.H.D.H.R.R.E.4X6X4X0X0X/.!.!.!.^./.^.K.E./.6X0XwX8X/.^.^.^.cXwX6X^.R.E./.8XD.^.qXcXmX9XC.#.y 8 B u.J.cXiX9XnXwX4XE.qXnX0XwX6XcXnX6X4XDXHXnXwXnXnXDXnXcX0X/.0X0XwXwX4X4X0X4X/./.4X4X0X0X0X0XFXcX4X8XwX0X/.R.wX4X^.R.R.R.E./.K.D.E.H.x.M.k.N.o.j - # F }.|.%Xq.v.N.N.M.M.M.J.L.W.L.x.x.k.j.k.f.z.J.J.J.R.W.L.H.J.Y.R.R.L.D.c.H.x.E.W.k.k.N.j.H.L.Y.E.J.k.M.N.M.j.8.8.q.q.w.6.",
"q.N.b.9.) 9.5.9.7.T.MX4Xm.H.x.H.l.z.x.S.k.j.j.m.J.M.k.j.7.7.,.,.j.7.7.7.j.k.M.M.k.M.Y.H.Z.Y.Q.W.cXqX9X9XT.v.9.E R R R R E Y I V y 3 > < u J | v.7.z.x.j.f.f.l.l.l.H.E./.0XcXcXqX0XR.R.^.R.R.~.D.2.g.g.g.z.D.L.D.E.H.K./.6X7X/./.R.wX4XK.E.R.H././.R.L.H.E.^.R.D.c.H.R.H.l.g.D.^.E.6X7XK.K.!.R.D.g.l.D.R.R.E./.K.H.0X0X/.^./.qX/.W.Q.T.j.<.k.T.j.T.Q.N.h.j.M.N.T.Y.L.L./.H.S.K.g.D.H.L.L.H.Y.W.8XiXQ.k.M.E.W.Y.H.R.W.E.R.R.E.R.D.K.E.^.J.n.! 1 p a x -.#.OX%X>XC.T.M.x.H.R.R.K.D.K.G.l.D.^.8X/.R.^.S.d.2.D.cXFXW.qXY.j.N.T.j.,.R w.w.8.8.j.j.k.M.x.z.l.D.R.E.R.R.!.).0X`./.^.~.!.`.!./.Q.v.v.O.N 7 j |.N.E.lXvX).zXqX0X4X^./.xXDX0X0X/.R.R.W.W.R.E.0X4XH.D./.4XL.E.4XE.D.K.^.!.F.K.K.!.^.!.R./.0X8XR.^.qX0XR.R.wXcXxXqX0X0X0X8X8XwXE.H.E.6XW.q.] y 1 j n.Q.0X9X9XE.E.E.E.4X6XE.6XqX4XqXcXwXwXcXnX0XnXDXwX0XcXcX0X0XwXGXcX8X0XwX4X/././././.4X0XqX4XR.R.0X0XW./.cXwX4X/./.6X/.^.E.qX^.R.l.x.W.Y.M.u.V > > G }.B.N.u.v.b.b.k.k.M.Q.L.E.H.l.M.H.m.m.J.k.k.m.x.H.L.H.H.M.H.H.L.R.L.H.R.x.W.4XJ.J.Q.M.J.L.R.Q.R.J.N.T.j.j.8.j.N.C.OXC.",
"v.9.) 9.8.7.7.j.f.=XY.f.l.x.S.^.H.L.H.l.x.Y.Y.k.j.Q.Q.j.h.M.j.R R 7.j.w.8.1.7.M.Y.j.h.w.w.w.1.k.0X4X5X9X-XN.8.9.,.R E E D N Y @.b 1 < 3 3 H e.8.z.g.j.j.7.d.g.g.z.l.S.E.0XxXwXqX(./.^.U.D.R.R.H.R.R.L.D.K.E.E.K.R.K.!.0X0X^.K.E./.7X7XR.L.R.E.D.D.l.D./.0XW.D.c.E.wXR.l.H.R.z.l.4XcX/.E.D.z.K.z.c.l.c.E.0X4X^.E.R././.R.K.^.^.R.W.Y.M.H.J.M.j.7.k.M.j.j.7.,.k.Q.Y.k.D.l.D.4XE.^.4X7XE.L.Y.E.Y.M.x.d.f.J.J.k.J.8X4X4XR.L.L.E./.7XL.z.7XE. X~ q a i F W D ^ i.0.b.j.f.z.Y./.E.R.R.R.).(.D.S.K.K.l.S.g.c.R./.0XwX8X=XJ.j.w.,.E E R b.b.w.j.,.j.j.Y.h.1.g.L.D.D.R.R.K.(.).U.D.R.~.R.R./.E.H.j.:XO.f k j @XOXqXzX!.NX).^./.0X4X^.^.7X4XE.R.E.E.E.R.H.c.D.D.D.H.R.E.E.8XE.H.D.K.H.F.K.!.R.K.R.R.!.^.^.DX^.D.^.0X/.R.R.R././.xXDX0XD.R.E./.^.c./.9Xq.] y 1 B @XnX6X4XQ.4XH.S.R./.E./.8XwXwXwXwX0XqXcXnXnX0XnXnXnXnX/.8XqX8XwXDXDX/.R./.0XcX4XE.8XwX4XR.l.D.0XcX8XR./.0X/.4X4X0XqX0X0X0X0X/.R.Y.E.E.W.T.u.A - @ ' @.6.B.8.v.v.8.f.x.T.=X4XL.S.x.z.L.Y.j.J.f.g.H.L.z.z.L.x.H.L.H.L.D.D.D.R./.W.4X5XT.T.M.M.R.R.Y.W.W.Y.Y.k.M.k.w.8.q.N.C.",
"w.j.8.8.j.N.J.k.Q.=Xm.j.H.L.x.H.L.L.H.z.x.H.H.z.M.M.k.j.z.T.Y.M.,.,.) ) 5.5.,.,.) 9.w.) ,.k.k.j.<.l.Y.;X&XC.C.Q.N.-XJ.4.+.n.|...B 1 > 3 i H e.8.f.d.f.j.f.g.S.S.K.D.L.R.^.^.!.!.).0X`.D.l.l.R.^.H.K.E.7X4X/./././.wXxX6X^.^.6XzX^.E.R.H.L.E.E.S.D.R.R.H.D.L.E.W.z.E.H.x.W.E.c.c.E.E.R././.R.H.l.D.L.H.c.L.4X4XH.E.^.^.^.^.^.^.^.4XQ.Y.Y.Y.Y.k.h.h.M.j.7.R R j.=X4XW.4XE.E.6X^.7X4X4X4XW.W.W.T.J.h.j.j.z.x.x.k.z.H.E.W.W.E.W./.^.7XK.7XH. X .q 3 a F A N E T U ) 9.M.5XwXwX0X0X0X/.cXDX0X^.(.0X0X0X^.R.E.R.E.W.E.R.H.k.j.,.R ,.w.T.;XT.&XN.Q.J.H.x.x.L.R.L.^./.G.F.!.^.R.R.R.R.R.^.!.L.T.m.n.^ f f $.1X%X^.(.hXzXzXzX0X4X0XwXcXmX0X/.E.H.x.x.H.E.D.c.l.c.H.R.H.D.c.D.R.R.K.S.F.!.!.!.!.!.R.K.R.E.^./.6X/.R.R.R.R.R.^.R./.DXmX/.K.4XE.E.D.K.R.6.%.u 4 B *X8XxX9XiXwXE.R.8X4XH.R.4X/.4X0X0X0X0XcXnX4X/.0XwXwX0X/.qX/.0XcXqX0XqXqX8XwXDXDX0X/././.8X0XR.R./.4X4X0X0X0X4X/.E.^.^.).6XD.R././.E.R.R.T.e.S > # ( @.r.B.q.C.OXb.M.=X=XM.K.L.E.L.j.k.J.M.j.j.m.H.H.S.S.S.D.H.L.R.R.E.E.E.E.0X0XqXW.j.z.z.H.R.L.x.H.J.E.-XW.J.N.C.M.8.8.k.",
"v.7.7.M.N.f.f.M.m.f.<.f.L.L.L.K.L.H.D.x.x.x.z.j.x.d.1.7.h.j.j.k.N.N.w.9.w.q.,._ 5.,.5.7.w.j.w.k.g.d.1.<.R ,.j.T.=X5X9X%XN.B.n.y.' 0 > 4 y J t.q.m.l.z.m.j.z.D.G.D.S.S.D.D.F.F.K.F.(.0X8X).^.R.K.c./.wX6X6XcXqX/./.0XxX).!.!.^./.6X^.E.E./.qX8XE.H.E.4X4XR.Y.E.4XY.H.1.1.z.H.W.nXwXR.H.L.H.H.H.^.R.L.L.E././.E.E.4XK.D.R.6X6X^.R.H.x.x.H.L.J.H.M.J.9X9X=Xj.,.j.M.4X4X8X/.R.E.E.4X0XwXwX4XW.Y.M.j.1.7.h.z.M.M.j.7.Y.Q.R.L.E.6X6X^.7X4XqXJ.v.P q 8 9 l S D U 4.5.b.;XMXFXnXcXwX6XE.^.).).).6X0XxXxX0X/.6X6XR.S.l.2.H.z.z.k.h.7.h.N.Q.-XT.T.Y.9X-XY.Y.H.H.S.S.E./.F.F.K.R.!.R.R.R.R.!.K.K.5XT.n.P f k $X2XuXwXlXvXzX).zXcXqX8XcXcX0X/.8XcXcX8XE.R.E.H.c.c.H.Y.H.c.c.H.H.R.E././.!.!.^.).0X).!.R.R./.^.8X8XR.D.D./.cX8X/.D.S./.cXcX8XD.R./.E./.=X5.I u 4 B 1X9XmX5X5X0XnXnX8XE././.R.4X/./.4X0X0X0X4X0XwXqXwX/.D.R.^.).qXqX/.).0X0X).R.8X0XqXcX0X/.8X^.R.'.cXcX0X8X/.E.E.^./././.(.(.R.E.^.E.R.Y.R.Q.u.V > # x W 6.8.C.%XN.j.M.W.W.M.R.L.L.L.H.J.J.j.:.f.k.g.g.S.L.S.H.H.H.R.^./.6X6XcX6XR.W.E.k.x.k.x.E.R.H.x.l.h.c.R.Y.Y.Q.Q.M.j.w.",
"-XJ.M.=XW.j.g.J.x.l.x.S.z.l.x.S.L.S.x.D.x.z.h.h.M.h.f.x.H.k.z.k.M.T.C.b.N.C.Z.Z.C.w.j.b.x.x.h.H.l.g.7.7.8.j.j.m.M.z.J.5X%X8.6.n.{.A 7 8 y V t.M.R.S.M.M.k.k.D.G.S.c.c.S.G.G.K.^.6X(.~.(.zXcXqXE.R.E././.6XxXxX6XzX^.!./.).R.K.R.^.R.R.^.4XwXcX0X/.D.H.4X4Xx.h.x.j.j.7.k.Y.M.H.8XE.H./.E.R.E.D.E./.R.E.0XwX/.E././.E.K.R.^.E.R.K.D.H.R.W.4X4X4X5XJ.9XeX9X=XQ.;XQ.W.4X4XE.K.E.7X0X0X0X0X4XY.x.h.7.1.<.h.Y.T.j.h.j.k.W.8X4X4X0X6XR.W.=X4XJ.u.C q q a x ' O.6.u.q.C.tXuX8X4X0XcXcX0X6X).^.6XxXcXcXxXxX6X/.^.S.z.c.S.H.l.l.J.Q.Y.M.J.J.M.j.k.J.4X=XY.D.l.c.H.K.H.K.!.R.R.!././.R.R.!.!./.7X5XN.|.U w 0 %.6.9XnX).).).).0XwX8X4X4X^.K././.W.E.R.Y.E./.Y.H.E./.E.c.x.R./.R.H.R./.6X).!.F.!.(.!.F.D.D.K.3.3.D./.'.U.S.R.^.^.R.l.S.R.`.qX/.E.L.H.^.Q.6.I 8 4 I 1X8XxXW.=X4XDXDX4XE.0XqXE.0XE.R.E.0XwX/.H.wXDXqXcX'.D.^.^.qXqX0X0X8X/.)./././.^.8XqX/.R.Y./.W././.~.R.8X0XE.W./.4X6X/.^.R.6X(.!.R.E./.E.Y.p.V 1 # 8 S 6.8.&Xb.q.M.Y.H.M.Y.E.L.H.H.J.Y.M.j.7.k.M.f.g.L.E.K.R.H.L.R.^./.6X6X6X^.R.0XqXR.M.j.z.Y.R.H.H.x.l.c.l.R.W.Y.Y.W.T.j.",
"W.8X8XY.H.Y.L.l.D.H.E.R.x.D.H.D.D.c.x.H.H.c.h.h.h.l.x.L.Y.J.L.Y.M.Q.T.M.M.b.v.M.M.M.J.j.k.W.E.Y.R.Y.J.N.N.N.M.j.f.d.g.z.J.E.v.4.XX[ y 8 y B t.%XJ.m.m.M.k.x.K.F.K.K.K.K.F.F.!.).xX).!.).cXJX8XK.4Xl.2.D.7X7X6XcXDX0X^./.6X).6X0XS.g.l.D.L.R./.E.W.l.<.h.z.1.<.h.7.7.j.Q.&Xk.7.h.x.z.E.H.K.4XR.E./.0X7XH.H.E./.R.D.4XwX4XR.R.E.E.R.E./.4X4X4X4X=X=XW.j.7.k.&XeXQ.J.R.R.R.R.E././.^.E.E.L.x.j.f.f.<.f.M.Y.M.7.7.j.k.=XqXW.H.R.6XwX4XM.l.m.n.P q 8 p x [ t.u.v.q.n.%XQ.W.=X/.7XwXDXxXxXcXxXzX(.(.0X0X).6X0X^.K.E.R.H.c.c.R.4XW.E.W.E.M.H.Q.8XW.H.l.l.D.^.6X4XR.L.K.(.~.).qXqX/.(./.6X7XW.=XB.n.~ f f ] 6.>XnXzX(.vXvXwX4X4XW.R.^.6X/.H.c.D.H.R.R.R.R.R.E.4XE.D.D.E.H.R.R.H.D.H.!.^.F.R.!.K.F.K.R.H.R.l.3.l.D.D.R.8XD.U.R.^.D.l.G.U.qXE.L.4X0XY.q.] 7 4 @.OXW.L.4XMX0X/./.0X0X4X8XcXwX8X8XwXDXDXcX4X8XwX/.wXwX/.cXcXcXqXqX0X0X0XqXqX0X0X/.R.R.R./.cX0XW.R.R.R.W./.~.wX0X4XE.R.R.R.R.!.R.^./.4X4XE.M.p.B > > 8 Q |.%Xb.u.b.&X;XY.b.Z.L.R.E.J.M.j.j.N.N.M.M.m.x.L.K.K.R.L.D.K.^.^./.6X6X0X4X0XR.h.H.Q.=X5XW.H.H.L.D.D.c.W.4XR.L.Q.W.J.",
"D.R.R.c.l.D.D.l.l.D.D.x.H.E.R.D.D.D.D.D.D.D.x.z.d.h.z.z.z.x.H.H.E.W.L.m.M.k.j.j.M.j.x.l.D.E.R.R.4X8X5XT.j.7.f.j.d.g.d.d.S.E.L.9.p.@.k 0 k V n.;X=XL.H.J.M.H.K.F.K.L.D.F.F.F.!.(.F.!.).zXcXzX/.R.R.S.2.2.L.wXcX0X/.0XzX).).zXxX6XE.D.D.H.c.l.c.c.H.H.x.d.7.h.z.j.7.1.1.7.j.j.j.M.Y.M.z.d.x.7XW.L.4X4X7XE.H.L.D.D.l.R.4X4X8XnXwXW.D.L.K.K.R.L.H.H.8XE.1.:.h.T.=XM.H.R.H.R./.E./.K.E.R.H.H.x.h.7.7.R j.T.M.f.j.j.j.M.M.H.H.R.E././.Y.j.f.M.N.C h q i y ' t.v.C.C.%X-XQ.=X9XcX0X6X6XcXxXzXzX6X(.!.!.^.!./.6XE.R.E.E.L.c.D.K.R.H.E.0X0XR.E.4XwXR.L.S.H.wXxX^.K.R.K.K.).~.(.`.8X/.^.^.^.K.L.9X%Xn.C 0 0 V t.N.H.^.!.zXxX8X5XeX9X4X4XcX/.R.H.E.4X4XR.D.E.H.D.R.E.R.H.H.H.H.H.H.R.^.!.K.!.^.!.R.R.(./.R.D.^.^.R.R./.'.^./.R.~.8XR.S.l.l.S.0XnXwX7X4XC.I u 1 =.i.4XK.R.R./.R.R.^.4X8XqXcX8XwXnXnXcXwX0X0X8X8X/.0XqX'.qXwXcXcX0XR.R.0XbX8X/./.R.R./.qXcXDX/.'.qXwX/.W.~.R.4X/./.E.R.R.K.F.F.K.!.^.R.R.R.Y.t.V - % 8 [ XX%Xq.B.C.C.T.T.T.M.L.E.L.H.M.j.j.M.M.v.m.T.Q.R.K.E.R.L.L.R.^.^./.0XqXqXW.E.D.l.R.W.=X5XW.R.E.K.S.S.R.R.^.4XE.R.W.9X",
"R.D.S.H.K.c.S.R.R.R.c.c.R.H.g.l.H.H.H.z.l.x.D.D.c.c.x.H.H.x.H.H.S.S.z.H.E.R.R.5XR.g.c.H.R.K.G.K.D.Q.eX9X-XT.N.M.L.S.G.L.K.L.L.=Xn.y.v 0 k C A.-X4XR.J.J.M.S.K.D.S.z.S.F.F.F.!.(.F.!.(.(.!.^.8XcXR.6X/.S.H.xXxXK.g.R.).).6XzX6XK.6XR.H.R.H.S.c.c.z.R.W.J.x.H.M.j.1.5.9.8.j.Y.T.M.k.M.M.E.W.R.L.g.E.R.E.6X/.x.l.H.H.x.x.R.qXMXwXE.R.R.K.K.R.R.R.E.L.H.h.x.W.eXiX-X=X4XR./.0X4XqXE.R.K.H.Y.H.h.<.,.,.z.J.k.j.N.N.j.1.1.j.W.cX6XD.<.z.H.Y.%XB.j y p x b %.|.C.;X&X%X%XY.R.5XnXDXcX0XmXxX6X0XbXvXzX^.6XR.G.G.g.D.6XxXR.K.K.R.H.S.K.6X0XE.^.E.4XK.R.K./.nXqXD.S.K.K.R.!.!.R.!.!.R.R.R.D.S.H.9X;XOXP t f V XXT.E.6XxXxX/.4XqXuXuX9X7X7X0XE.H.D.H.Y.R.E.R.H.c.D.R.R.L.D.R.H.D.R./.0X(.F.R.!.F.G.S.K.R.D.R.^.R.l.l.D./.8XqX^.^./.R.R.R.c.c.0X8XR.z.J.;X] y 4 &.OX8X7Xx.f.R././.R.^.wXcX8XR./.8X4XE.H.D.D.8XW./.8X/.W.R.^.qXqX).~.~.`.0X/.qXqX8X/.qXwX/.R.0X0XwX8XD.U./.qXH.R.E././.^.!.R.R.!.R.K.D.D.R.Q.e.V # % 9 [ n.N.b.OXA.v.j.Y.T.Y.W.E.x.k.Y.M.8.w.M.M.T.-X4X4X4X8XE.R.R.^.^.R.^.6XK.^.E.4X0XW.R.h.1.k.Y.E.4X/.!.!.R.F.R././.E.W.qX",
"R.K.K.L.L.H.L.D.H.R.D.R.0XE.D.4XH.Y.D.2.2.l.D.D.c.h.z.Y.E.H.x.H.L.D.L.K.K.x.M.5XL.H.R.D.K./.K.c.R.E.T.T.Q.=XQ.L.cX/.L.P.6XxXxXuX:XoXV 0 h V A.&XR.x.l.x.z.x.F.F.K.D.D.F.K.K.R.!.K.^.zXzX0X)./.0XnXxXcXmXcXE.L.R.F.S.S.^.0XzX7X^.L.2.2.S.L.H.H.H.H.H.L.Y.L.x.h.d.M.M.j.w.j.Q.&XM.k.Y.H.W.Y.j.E.4Xc.L.R.D.D.R.E.R./.E.E.Y.H.x.J.W.4X/.R.H.K.R.E.E.R.4XW.8X9XeXiX9XQ.W.z.x.L.R.4XR.D.c.H.E.E.k.1.,.x.H.H.Y.T.Y.x.j.f.h.x.H.D.g.S.R.H.Q.Q.%XC.C h 4 i z &.@X:XtXrX&XT.=X5XW.E.4XqXxXzXxXxXzX0XzX0X).G.G.!.6X6X6X0X).xX/.^./.).!.R.^.E.^.0X^.6XK.K.l.R.6X4X^./.R.S.R.!.!.R.R.R.R.R.K.F.R.H.J.N.<X .f 0 k t.&X9X6XvX(.0XcXwX9X5X5X4XW.E.E./.4X/.R.R.E.H.Y.H.D.x.H.Y.H.x.H.H.H.H.R.R.F.!.^.R.G.G.D.H.D.U.D.R.~.R.R.R.^.R.R.'./.R.R.R.g.c.2.g.4X^.f.t.] 8 h #XyXW.E.H.5X0X4X6X8X8X6X8XqX4X4X4X8X0X4XE.R.Y.c.W.E.R.^.H././.R.~.cXvXzX`.cX^.cXDX8X/./././.R.Y.R./.~.^.W.Y.^.E.E.E.^./.).6X(.!.!.^.^.^.K.k.#.V @ % i *.n.OXOXC.C.C.T.Z.N.Z.M.Q.Y.N.N.w.7.v.v.N.J.J.M.H.L.E./.^.^./.^.K.K.^./.0XE.H.D.H.4XE.H./.4XE.E.R.K.R.R.R.E.E.E.E.E.R.",
"D.D.H.K.L.S.K.4X0XR.D.K.E.R.K.E.H.H.H.z.l.l.x.x.J.x.x.H.H.M.x.H.c.H.Y.R.Y.J.M.j.k.N.Y.Y.Y.R.H.c.Q.-X-XM.j.k.Y.Q.R.W.4XqX5X7X7XqX;XXXC 0 y Z #.q.d.l.S.D.D.H.D.F.K.D.F.R.^.^.^.^.!.0X).^.).).6XDXcX/.qXcXR.2.<.<.g.R.^.R.qX0XD.E./.R.K.^.^.K.D.K.D.c.H.E.R.g.g.c.x.4X=Xx.M.Y.J.Y.Y.J.J.Y.x.d.z.4Xd.x.R.E.L.L.R./././.0X/.h.f.z.7.R.R.R.R.R.R.W.4X4X4X5X5X4X=X=X5X8XQ.x.f.x.Q.Q.H.l.1.x.x.x.l.d./.^.^.^.^.E.D.z.g.x.L.K.H.z.x.R.4XD./.W.%Xt.N 8 3 a l [ n.;XrX;X>XQ.R.R.R.E.4XxXcXmXxX).(.(.)./.^.G.).xX6X(.6XxXxX/.6XzXzXcXmXxX^./.R./.0X/.E.D.2.g.^.4XR.L.R.E.H.R.F.R./.E.D.D.!.).F.E.Y.N.XXW 7 0 k %.OX=XW.R.0XxX/.W.qXeXY.H.R.H.^.4X7XR.L.R.W.W.=XW.Y.M.M.M.k.j.f.x.W./.D.D.^.^.^.R.D.l.l.c.D.c.Y.D.D.4X/.D.H.R.H.^.6X!.D.D.K.l.c.E.nX7Xf.t.W k j XXrX5Xk.j.k.E.4X4X4X4X4XE.D.D.R.E.R.wXcX/./.^.R.^.0X0X/.^.^.F.D.K.!.R.^.).R./.W.eX8XW.8X0XR.D.D.c.c.R.'.`.R.R.D.E.0X/.^.6X/.0X6X/.^.R.K.K.M.e.b > O a } a. XN.B.b.N.M.j.q.i.T.T.j.j.k.j.M.w.j.N.T.N.j.j.x.H.!.!.!.^.(.!.!.^.^.6X/./.4XR.H.4X4XW.E.E.^./.E.H.R.D.D.R.W.W.E.R.",
"E.H.z.z.D.L.E././.E.L.c.c.c.D.H.R.H.Y.4XR.g.g.H.Y.H.H.H.L.H.H.H.c.x.x.M.M.j.7.,.7.j.M.N.Y.E.R.J.Y.Q.Y.j.h.k.Y.T.f.j.H.E.=XJ.L.J.rXn.j 7 z K  .R <.2.g.z.S.D.D.D.H.K.!.(.!.R.R.^.^.6X(.!.).(.R././.S.D.E.R.D.D.l./.^.H.D.4X4XR.qXcXmXmXzX^.R.^.^.R.^.^.H.S.L.E.^.K.L.g.l.H.z.j.Y.M.m.g.<.:.7.z.S.x.x.L./.4XE.K.L.E.K./.4XH.k.M.H.H.H.E.4X4XE.R.R.H.Y.W.8X5XY.x.z.T.Y.H.k.k.M.Y.Y.M.M.Y.W.8X4XJ.R.K.lXmXxXK.g.d.z.6XE.L.S.K.W.R.x./.4XE.T.6.v 9 3 a q ~ p.%X5X&X-X5XH.g.z.E.6XxXxX0X/.!.!.).6X/.R.^.6XlX6XlXzXzX6XzX6XzXvXcXwXxXmX6XE.^.4X/.6XqX/.K.^./.E.K.H.L.R./.^.E.E.E.E.^.).).!.7X=XN.a.A 7 0 B i.XXN.W.E./.cX4XW.W.W.T.Y.R.0X^.E.7XR.g.h.Y.Y.E.Y.M.M.M.N.Z.k.j.h.j.c.c.K./.K.^./.4X/.R.x.h.H.R.c.c.H.R.R./.^.K.K.R.^./.^.D.H.c.g.S.H.%X.XB 0 B OX&XT.M.b.w.M.x.H.R.D.l.H.0XE.D.D.E.0XE.c.7XE.E.E.R.R.E.^.^.qX/.^.(.(.).0X6X0XW.8X0XW.W./.R.'./.^.W./.8X).R.6XK.R.7X^.R.^.K.S.K.R.K.S.S.K.W.p.V > @ a *.|.:Xv.u.v.N.T.C.b.i.Z.n.5.q.Z.N.k.) 7.w.j.j.k.M.H.H.R.P.!.(.).(.(././.0X4XE./.E.H.R.R.K.H.R.E.E.R.Y.D.H.R.E.R.H.R.W.",
"R.R.H.H.E.^.E.R.L.K.H.z.g.c.K.R.H.E.4XW.W.W.Y.H.x.z.z.k.z.l.l.x.x.x.z.k.x.j.7.,.,.7.j.M.H.H.H.M.k.j.w.1.1.h.x.x.M.k.j.f.f.f.z.m.m.e.B 0 y m  .6.x.S.F.R.^./.^.!.R.R.^.(.^.R.F.F.F.!.^.^./.^.R.^.E.S.D.E./.0X0X^./.H.S.K.0X4XH.8X0XzX/.F.K././.D.R./.^.H.c.S.K.R.K.L.g.d.H.J.J.J.j.j.d.7.l.L.L.x.Y.x.c.H.R.H.D.K.K.l.D.E.H.h.j.x.R.E.E.7X4X/././.8X4XW.W.Y.J.H.J.j.k.J.T.Y.z.7.<.H.4X4X4X4XW.0XwXD.^.0X0X4X4X/.R.H.E.R.H.H.Y.R.H./.E.l.j.X.k 8 i a l [ B.%X;XC.T.J.l.g.L./.6X).6X^.!.K.^.8X0X4X!.!.!.(.6XlX6X6X).^.^./.6X/.R./.cXxX6X0X0X/././.R.^.K.K.^.E.D.D.E.^.^.E.H.Y./.4X).(.^.6X=XB.t.V 7 0 W XXn.j.R.E.!.0X/.H.z.j.k.z.h.E.H.E.qX4XH.x.H.M.Y.T.Y.Y.N.k.j.J.Y.J.M.D.D.D.S.6X/.K.D.D.H.L.Y.c.H.x.c.D.D.D.R.E.H.c.g.S.E.L.g.Y.x.g.f.f.B.}.H 0 B |.N.j.j.n.b.M.j.x.4X4XH.x.L.W.W./.R.E.W.H.E.K.W.E.H.R.4X0X6X/.R.E.R.D.D.^.qX0XR.W.0XW.D.R.W.R.Y.Y.R.W.W.~.E./.L.D.R.E.^.^.R././.^.^.^.).6X4Xe.n # O i *.|.*X XN.b.8.9.,.) _ R 5.9.j.n.N.T.M.j.j.k.M.E.=XW.E.^.^.(.).).^.^.E.E.0X4XY.E.E.H.x.R.R.R.R.E.^.E.R.^.R.H.R././.E.R.",
"c.E.4X/.R.R.R.H.c.D.D.S.c.D.E./.R.W.E.x.Y.8X4Xz.H.H.L.H.x.h.l.H.x.x.x.M.M.M.j.j.7.j.k.k.k.z.x.x.j.7.1.,.<.h.j.j.Q.J.j.f.d.f.f.f.4.O.H y 8 z  .OXJ.L.K.^././.!.!.).R.K.!./.!.F.g.l.K.^.^.E.R.E.4XE./.8XwXwXcXwX8XH.D.R./.wX0XH./.)./.K.S.!.xX0XR.E.K.K.R.D.l.S.^.7X^.L.H.R.4XQ.M.j.9.<.z.H.x.l.z.L.l.l.c.z.g.S.^.E.L.H.Y.L.k.k.H.E.E./.7X/.W./.4XW.E.W.4X4XW.E.Y.8XY.h.h.j.j.j.z.Y.qX4X4XE.D.4X0XL.R.H.x.Y.W.H.1.d.R.4XR.x.H.R./.R.D.d.f.X.h 8 i a p ! u.B.M.8.9.f.g.S.E.E.D.F.^.K.K.K.~.).0X0X).6XlXxXxX7XK.K.^.!.6X6X^.R./.4X/./.6X0X6X/.^.^.K.K.c.c.R.E.D.D.E.K.R.R.R.E././.!.!.!./.J.b.t.V 7 w  .OXB.k.R.^.^.qX4XR.H.Y.Y.L.H.l.D.R./.4X4XW.J.M.J.Y.Y.T.N.M.j.Y.W.4X=XR.D.l.g.D.K.R.E.R.H.x.h.z.c.x.x.x.c.c.D.D.H.S.g.g.z.G.S.T.M.M.J.q.X.' J h k y.OXN.w.q.b.Z.k.h.j.k.M.x.x.Q.4X4XL.H.W.R.W.W.W././.4X0X0X4X4XR.E.4X^.W.8XwX0X^./.qX8X~./.qXqX/.W.W.R.Y.Y.R.R.L.D.R.^./././.K.K.F.R.).xXzX-Xp.V - O 4 ' e.N.N.C.C.w.9.5.u.i.b.C.C.N.w.9.j.j.M.M.J.Y.W.4X4XW././.4X6X/.^.E.E.E.W.E.Y.Y.Y.Y.Y.R.R.R.^.!.E.E.E.4XR.H.R.4X8X/.R.",
"D.E.E.D.z.c.D.D.S.l.z.L.L.S.D.R.4XR.H.H.H.D.c.D.D.H.R.H.l.d.g.D.l.x.x.M.k.k.k.M.j.k.k.k.k.z.x.H.x.j.1.,.7.j.j.j.f.f.j.m.H.H.m.f.v.o.v 4 u M ] u.m.S.G.R.^.^.^.^./.!.!.(./.R.F.l.D.D.H.H.D.H.R.R.E./.4X4X0XwX8X/.R./.0X/./.4X^.0X6X6X).^.^.^.^././.R.H.H.D.H.7XnXcXE.R.5X4XM.f.k.H.z.l.z.z.g.z.S.l.g.l.H.H.D.D.R.R.R.H.x.H.H.H.Y.R.E.6XqX4XR.H.L.D.c.x.H.Y.R.W.=XwXW.H.J.R.E.W.8X4X4XD./.0XL.S.g.H.W.E.k.h.h.z.h.Y.4X8XW.W.4X/.E.^.^.H.J.6.k 8 i i u ' p.B.B.9.4.f.j.x.L.c.d.G.^.K.!.!.~.^.).0XxXxXxXvXmXxX6X6XxX/.(.R.D.R.4X8X^.zXxXzX^.!.R.R.R.S.c.D.R.E.R.K.R.R.K.H.E.W.E.R.!.!.K.R.m.b.y.B 7 f O.OX%XJ.K.!././.R.R.4X8X4XW.W.H.D.c.l.D.E.Q.Y.E.H.k.j.j.N.Q.5XT.Y.E.E.H.c.D.R.R.R.R.H.D.D.H.Y.H.z.h.h.h.c.H.L.x.H.L.L.K.L.K.4X-XM.k.M.b.#.A h 7 0 y.:X;XN.q.5.7.j.j.j.j.k.Y.=XW.x.J.E.L.M.M.5X8XW.E.-X4XW.Y.H.8XR.W.wXJXcXwX'.R.^.^.R.R.R.R././.^.^.).^.R.R.^.E.^.^.^./.^.E.^.S.K.E.R.K.K.R.J.e.A > # 1 ' e. Xu.N.C.N.M.Z.C.Z.Z.C.b.M.N.N.Y.M.f.z.x.x.H.L.J.R.R.E./././././.W.E.R.R.Y.x.k.Y./.R.R.R.R.!.!.!.^.R.^.(.^.^.^././.",
"H.H.D.D.D.L.c.g.S.g.g.H.R.D.D.K.H.R./.E.H.c.D.R.c.D.D.c.g.<.2.l.l.x.M.M.j.j.k.M.M.k.k.k.j.f.h.z.k.j.7.1.7.7.f.7.7.f.f.m.J.T.J.m.N.| h - 3 m W 6.J.L.L.^././.).).^.).zXzX^.F.D.R.R.l.2.l.S.R.E.H.E.R.S.S./.0X/./.^./.cX/.R.^.^.).6X^.!.^.K.G.S.F.K.^.^.L.H./.0X7XL.S.K.W.L.z.f.d.j.Y.W.L.L.R.E.L.D.l.g.c.R.E.R.K.R.W.H.l.k.M.M.H.4X6X0X0X/.H.H.R.W.L.x.l.l.x.E.8X=X8XiXnXwX4XW.4X/.E.D.E.4XR.H.H.Y.-X-XY.k.M.W.8X-X4XW./.4X0X4XR.4XqX4X;Xu.k 1 < 9 p ..|.C.N.q.u.m.m.H.K.H.D.S.F.^.).6X).(.).zXmXvXlX6XxXmXDXmXmX).F.2.l.D.R.R.(.6XvXxX).^.!.D.D.D.H.R.E.^.^.E.R.^.K.D.Y.Y.H.K.!.!.!.K.z.N.s.V 7 f t.OXT.J.S.F.!.K.S.D.E.E.H.x.H.R.c.g.c.H.H.H.L.Q.L.k.k.k.N.T.=XT.Y.Y.E.L.S.D./.l.L.E./.E.H.D.x.x.h.j.z.z.H.W.R.Y.Y.H.L.4XL.S.=XT.M.k.5.u.t.Z 1 ; h y.n.N.C.C.8.7.7.j.Q.-XY.Y.W.Q.M.E.Q.Y.Q.W.5X8XE.H.E.W.R.H.Y.c.D.'.qX'.W.W.R.D.!.R.G.F.R.D.S.3.l.D.R.^.^.W.W.R././.^.7XE.K.R.E.^./.^.^.^.E.m.X.B - % 4 } t.OXC.N.b.j.k.M.i.0.N.T.N.N.N.M.M.j.m.L.R.K.L.L.L.L.H.R.E.E.E.E.W.W.W.H.H.H.d.7.k.W.R.R.R.R.^./.).)./.).)./.).0X0X0X",
"D.D.D.R.R.H.c.l.x.l.c.H.R.H.H.L.l.R./.K.D.R.E.E.R.H.L.L.D.c.c.c.x.x.x.k.z.j.k.x.M.k.z.k.j.d.7.7.h.h.w.w.7.7.7.7.j.j.f.d.f.m.M.M.r.~ h - , M W i.J.L.L.R.^.!.^.6X).zXvXcX!.F.H./.^.c.g.l.c.R./.R./.^.S.S./.6X^.6X^.R././.^.^.R.R.6X!.K.!.!.F.S.D.D.E./.R.E./.R.l.<.l.K.H.f.H.Y.f.<.k.R.R.R.^.K.g.D.c.l.l.D.R.E.K./.4XW.Y.Q.Y.J.=XcX0X/.E.E.R.R.W.E.4X0X8X4XE.R.W.wXnXwX4XL.H.R.W.L.R.E.R./.6X0XDXqX8XQ.Y.Y.H.Y.D.D.D.Y.R.R.R.R.^.^.0X4X-Xt.k > > > 8 ' t.u.q.6.q.v.J.R.^././.R.F.).6XxXzXzXzXxXvXHXcX6X).6X6X).^.6XR.F.R.R.R.~.).G.^.).(.zXzX^.^.H.K.R.^.^.R.R.!.!.^.E.Y.H.H.H.F.K.!.R.k.C.s.B 7 f p.C.J.L.G.D.R.(.E.R.H.x.k.x.x.H.c.l.L.W.R.H.H.Y.Y.Y.E.T.J.k.k.Q.E.E.Q.E.Y.H.D.R.H.x.l.g.c.H.E.k.h.k.M.k.M.Q.Y.J.Q.M.l.L.x.d.j.j.k.Y.8.6. .c 1 1 h %.6.8.j.N.j.N.h.1.h.J.Y.Y.Y.Y.L.4XW.L.8X0XW.4XW.E.R.E.E.E.W.l.R.wX0XR.Y.~.~.~.0X^.F.~.(.R.K.R.R.^.^././.R.H.D.R.K.K./.^.D.H.D.S.l.S./.wX0XJ.p.~ 1 > 4 ' U 4.C.b.q.j.k.b.b.b.) j.v.N.J.N.Q.Y.J.E.7X4X^.^.E.K.R.E./.E.R.E./././.R.E.H.d.h.H.Y./.^.R.R.^.'.8X8XzX0X)./.0XcXzX8X",
"D.x.D.D.c.g.c.R.H.L.H.D.x.D.D.c.E.z.g.D.H.x.c.R.R.D.l.c.H.H.S.l.l.j.g.g.h.j.z.j.z.j.z.x.H.x.k.k.h.j.k.k.j.j.j.j.7.f.f.7.7.f.f.4.r.P h # , M H t.M.S.L.^.7X6XzXmXzXcXvXxX(.F.K.^.0XE.E.R.l.D.W.E.8X0X/.^.4XE.R.6X0XD.K.^.^./.R.(.R.^.).!.G.2.G.K./.R.R.^.7X^.R.H.S.z.L.E.H.M.Y.H.H.m.x.K.E.K.S.g.g.L.E.R.H.R.K.D.H.L.H.R.4XY.Y.qX4XR.H.R./.^.R.H.W.4X0X9X8X4X8XwX8X9X4XL.H.L.H.D.L.R.4XE.wXHXcXcXnXqX/.W.W.Y.D.D.D.c.l.D.R.D.F.F.F./.^.T.6.j 4 > 3 y [ t.6.4.+.0.v.Y.R.L.L.^././.!.(.6XzXzX6X6X6X/./.^.R.R.^.).6XR.).8X^.R.^.~.R.~.zX).!.6X0X).6XL.S.D.R.R.D.K.^.R.6XqXW.T.E.R.S.G.K.K.k.C.s.v 0 j  X%XM.L.L.^.(.R.E.Y.h.d.x.Y.R.H.R.H.z.H.Q.E.M.Y.H.H.T.E.J.x.k.Q.Q.Y.M.L.W.L.h.l.c.x.D.H.H.x.l.Y.k.k.j.<.h.Q.=XM.5XY.f.m.z.d.j.j.7.M.v.i. .0 7 - 0 %.n.v.,.5.8.1.H.Q.Y.R.4X4XL.Y.d.H./.R.L.H.K.4XwXwX/.R.R.R.D.R.R.~.R.R.0X`.F.!.).R.F.^.^.F.F.R.!.R.D.R././.R.F.R.D.S.E.R.l.z.R.E.E.L.L.R.R.m.u.A - < u *.| 5.u.b.C.C.k.1.) 0.%X%Xb.N.Q.T.J.f.<.l.H.E.^.7X^.E.H.E./.E.^.4X0XzX0X6X4XE.c.Y.4XE.4XW.Y.Y.R././.^.^.8XqX/.R.^./.8X",
"R.H.D.H.L.D.c.c.D.D.H.H.D.D.c.c.D.L.R.H.H.R.R.R.E.H.S.c.x.D.c.l.h.f.h.z.z.h.g.h.x.z.x.H.M.M.M.M.M.M.M.M.M.M.k.k.M.z.f.7.,.R R ,.^ P b # < a J O.b.L.E.^./.7XzXvXvXDXDX0X/.0XwX8X4XR.c.c.x.c.x.H.K.F.F.F.l.!.zX).!.F.F.K.^.!.R.K.K.K.K.!.D.G.S.R.4XD.c.R.R.l.g.c.L.l.x.W.4XR.J.Y.z.x.S.H.P.^.K.G.D.D.E.R.4XR././.L.R.4XE.z.M.Q.J.D.H.R.R.R.4X0XE.W.E.R.R.W.4XW.E.E.M.x.Y.W.E.H.x.E.E.E.L.H.E.qXnXDXcXwX0X/.R.D.l.l.3.2.3.F.R.!.R.!./.E.v.s.v - > 3 p A | 6.9.6.q.v.j.l.x.E./.!.F.K.zX0X!.^.).).zX6X^./.^.D.R.8X6X8X8X8X/././.).).K.).6X).).0X0X/.7X/.E.R.K.K.K.K.R.R.R.E.E.E.R.R.!.^.R.T.n.s.k 7 N n.N.J.R.7X^././.R.H.E.W.Y.D.x.x.Y.R.L.L.E.Y.M.M.M.H.Y.Y.H.J.Y.M.H.R.W.Y.H.J.W.Y.M.l.k.c.c.c.x.x.Y.f.J.M.1.j.<.7.J.k.f.z.f.f.7.j.M.z.j.u.! f 1 1 0 ..p.4.7.5.9.f.l.x.R.W.W.E.K.^.4X8X8XqXqX7XK.E.^.E.R.K.R.(.(.).`.`.).(.).(.!.R.!.K.R.F.F./.R.R.R.R.R.K.K.F.D.!.R.K.D.D.R.^./.7XR.H.R.L.D.H.T.B.A 4 + L *.| 6.%XOXq.n.&X&X*Xi.b.%Xb.8.N.T.N.-XJ.E.E.H.L.6XcX/.^.4X6X/.6X).^.).xXlX).E.D.l.x.R.4X8X8X4XW.E.E.W.R.4X4XR.R./.E.l.",
"D.c.c.D.H.D.x.D.D.D.H.H.D.x.x.D.l.x.D.x.c.x.H.H.g.l.D.K.R.R.H.x.J.x.z.j.l.g.h.l.l.l.l.x.x.k.k.M.M.J.Y.T.T.Q.Q.Q.5XQ.J.M.k.j.j.v.B.$.K > > i Z ] b.J.R.R.H.H.!./.6XqX0X6X6XqX0X4X/.H.c.Y./.0XwXcXqXS.G.^.(.^.(.^.(.R.F.K.K.F.F.K.P.K.P.!.K.D.G.D.g.l.c.c.D.R.H.l.g.l.L.7X4X7XQ.R.R.J.L.J./.6X(.K.K.K.^.R./.L.R.Y.W.J.W.9XY.h.k.J.H.l.l.H.H.R.E.R.R.=X4X4X9X9XQ.h.h.d.j.Y.4X4XY.x.W./.H.l.d.D./.wX4X/.~.~.^./.(.^.D.F.G.F.F.U.!.!.^.^.R.v.t.c > > < p S U R ) 6.b.M.J.L.L.H.H.R.^.).^.R.).mX0XK.R.6XK.H.E.^.0XwX/./.`.8X0X8X^.R.F.!.).6X).^./.^.R.W.E.R.R.K.K.!.R.K.H.H.Y.E.W.4X6X(./.R.M.u.t.k 0 f n.N.J.L.E.F.K.3.D.W.W.x.g.c.R.x.Y.R.L.Y.W.W.E.H.x.x.H.J.J.M.J.J.k.z.M.Y.Y.H.k.M.x.k.M.R.R.R.H.z.T.k.k.<.E f.m.7.m.f.j.M.f.f.z.j.D.x.z.v.] q 1 - 7 [ p.9.f.f.8.j.l.x.L.L.L.R.^.4X7X7XqXqX6X6XcXK.F.K.^.)./.).6XzXvXvXbX`.`.zXzX^.R.R.6X(.F.!.R.!.!.!.!.!.R.R.R.R.R.R.R.E.7X0X0X4XcXwXE.R.4X/.M.6.P i + 1 K %.*XOX0.X.b.&Xn.0.0.0.%XC.u.N.N.M.T.-X=XQ.R.K.^.7XP.K.^.).).6X).^.).6X).^.^.R.R.E.-X9X;XW.T.M.k.k.k.j.x.Q.4XE.x.c.M.",
"l.z.x.x.x.x.H.Y.x.H.H.H.x.x.x.H.Y.E.R.x.g.d.d.d.d.g.z.H.H.H.L.L.Y.M.j.j.l.h.h.l.c.c.x.x.x.k.k.x.x.M.H.J.J.M.M.M.H.k.k.J.Q.;X9X>X:X{.*.e < 3 v ! u.m.J.L.L.L.!.^.R.R.R.R./.4X4X/./.R.R.4XcXnXnXcXcX^.S.l.G.R.).!.^.^.(./.^.R.R.R.!.!.!.!.!.!.D.g.c.D.S.l.l.x.l.<.g.L.W.W.W.R.H.g.^.R.L.L.E././.P.^.!././.4XE./.W.L.x.W.eXQ.k.M.Y.R.g.1.z.E.8X4Xx.Y.9XiXQ.M.W.8XW.J.k.j.M.E.Q.Y.J.z.H.H.x.x.H.R.R.R.K.K.R.(././.(.!.^.(.^.!.!.^.(.E.E.R.v.t.c 1 , , l A Y E ) b.C.Q.Q.E.H.c.c.H.^.E.E.c.2.S.E.4X0XE.D.S.R./.0X8XR.~.~.).0XqX`.~.~.(.).6X).R.H.H.L.Y.L.H.H.K.K.R.^.R.R.E.T.Y.Y.R.R.0X6XR.M.q.%.v 0 j n.N.N.M.L.c.S.l.c.D.z.l.c.H.R.W.=XQ.J.H.J.J.M.Y.M.k.M.Y.Y.H.H.H.J.J.H.M.M.k.j.h.l.z.x.R./.E.D.l.R.x.x.<.R f.x.M.J.j.J.Q.m.M.J.x.H.D.M.B. .h > - 1 Q e.8.f.8.7.f.j.M.Y.Y.J.W.8XnXnXqX4X4XW.^.4X/.K.L.^.6X/.6XcXxXzX6X).).0X).^.R.E.^.0X/.R.^.K.^.^.!.!.!.!.^.^.R.^.^.R.R.R.R.H.H./.R.<.<.L.W.m.6.A 9 @ - K y.@Xn.u.t.+.9.q.X._ X.n.b.6.q.q.v.C.N.m.M.Y.J.J.E.E.K.^./.).7X^.K.P.(.^.^./.4X4X4X;XT.N.j.q.w.q.j.j.Q.M.j.J.T.M.M.N.",
"l.l.z.x.x.x.H.H.H.H.x.x.H.H.H.x.x.H.L.x.l.j.x.M.H.M.x.k.x.k.H.H.x.l.j.k.x.x.z.l.D.S.c.x.x.z.l.k.L.L.L.J.H.H.M.M.J.M.M.M.J.J.T.N. X{.} 3 , 3 v ~ 8.m.J.J.Y.R.^./.R.D.c.D.Y.R./.8X0X4X8XcXnXwX/.R.R.).0X^.R.(.).R.F.F.F.K.K.K.K.R.!.(.(.^.^.^.K.l.S.g.z.R.E.x.l.H.l.L.W.W.E.W.E.J.K.K.L.S.S.D.F.F.K.F.K.R.R.H.H.L.W.qXeX-XY.Y.x.7.H.Y.Y.M.J.9X5Xj.f.Q.8XQ.M.Z.W.W.=XT.M.k.k.M.Y.Y.k.k.Y.4X8X/.L.H.D.H.R.^./.^.R.K.^./././.^.R.^./.K.H.J.r.#.c 4 , < z A U ) q.Q.,X&XY.M.k.z.x.L.H.R.0X0XE.E.4X4XE.H.R.E.^.E.^.^.^.^.R.R./.0X8X0XbX).).^.^.R.D.x.M.M.M.x.D.D.K.R.^.^./.4X-XT.H.D.S.!.!.D.j.O. .0 7 N |.N.N.M.H.c.D.R.Y.k.z.H./.E.L.x.H.H.x.M.Y.Y.Y.E.J.M.J.Y.Y.J.Y.H.Y.Q.Y.M.H.M.k.h.k.x.k.H.W.R.l.c.Y.x.x.d.<.l.m.L.M.f.z.m.f.z.z.c.x.x.m.u.] p > - 1 H #.e.v.8.8.8.j.M.=XQ.N.J.;X-X9X5XJ.Y.5X9XW.^.R.K.E.E.K.R.^././.^.!.(.).(.!.D././.R.K./.wXK.E.!.^.^.^.^.!.!.K.!.R.D.S.z.g.2.<.2.c.L.Y.H.z.7.u.S 4 + > } oXXXa.XX1Xu.5.v.O.X.O.0.X.U R R ) v.N.m.J.T.J.J.R.L.L.^.^.^.).!.K.K.^.R.R.E.W.&XY.v.6.+.X._ X.6.q.v.b.9.R R 5.v.v.8.",
"l.j.h.l.x.H.H.x.H.x.z.x.H.H.x.z.d.j.x.z.j.j.M.M.Y.Y.Y.Y.Y.M.z.f.j.h.h.k.H.D.D.D.c.l.l.z.z.l.j.z.S.S.x.x.S.H.H.J.L.L.J.M.k.j.j.j.r. .K - % < z P u.N.J.J.J.L.L.L.E.H.D.H.H.H.E.8X0XqXxXcXqX/.R.F.R.R.(.6X(.D.F.).^.R.G.G.G.K.^.(.!.).).).(.6X).^.E.S.K.wXwXY.H.W.E.R.K.L.x.z.l.H.S.L.K.K.S.G.F.F.!.P.K.R.L.x.l.l.Y.eX9XJ.Y.5XQ.h.z.W.eXY.j.M.W.T.N.j.7.7.j.N.N.M.j.M.M.M.j.k.M.Y.Y.h.f.J.E.x.h.l.l.D.R.E.E.R.R.R.R.R.R.R.R.Y.H.H.H.k.M.8. .h 4 < 3 z I +.v.T.&XT.T.J.M.k.x.x.H.H.R.H.W.wXiX5XY.M.Y.W.4X/.^.R.W.'./.R.U.R.~.~.).`.).^.R.R.R.H.x.k.M.M.x.x.D.H.R.E.R.E.W.W.W.E.R.K.K.R.H.M.t...0 7 C |.n.B.M.J.D.R.Y.W.4XW.E.E.R.D.x.x.M.H.H.L.J.H.J.H.H.J.H.M.H.H.L.H.k.x.T.;XQ.k.j.H.L.x.D.R.K.S.c.L.H.g.:.:.x.W.L.L.f.d.7.d.z.7.h.h.h.8.X.A i % O @ z [ u.|.n.n.v.v.b.C.C.v.j.b.N.-X%XN.T.;X&XM.L.7X6X7X7X7X^.E.z.L.K.R.R.R.E.E.H.Q.Y.x.x./.cX/.E.^././.).^.!.K.K.K.K.D.S.S.c.l.L.l.h.x.x.j.k.J.r.H 2 O # K #X3XoX{.<X+XOXn.X.#.XXt.| U T E T 6.%X%X;X%XN.J.M.f.S.K.E.^.7X7X(.7XE.K.H.M.N.v.4.U U U Y Y Y U X.6.U U U Y T +.6.u.",
"z.l.z.x.H.Y.L.x.H.x.z.z.x.x.z.g.z.x.x.j.j.j.j.j.Y.M.k.k.k.k.j.h.j.f.d.d.g.g.z.D.l.l.l.c.x.x.k.H.z.z.g.g.g.g.g.l.d.l.x.k.z.k.M.M.r.^ G - > 3 l C u.N.T.J.J.J.H.z.x.x.x.H.H.x.D.R.E./././.(.^.^.).).(.F.G.F.F.R.6X^.!.K.F.R.!.!.!.!.(.).).).6XxXxXmXcX4XW.R.R.=XqXnX6XE.S.d.:.:.<.l.S.K.E.K.F.K.P.(.!.K.^.K.L.x.x.7.j.h.f.Y.5X5X4XJ.k.M.N.k.N.&X9X9XM.,.) ,.7.b.Z.h.j.M.j.j.j.M.Y.Y.f.7.M.Y.k.h.x.z.M.J.H.x.x.J.Q.T.J.M.M.M.M.k.j.k.f.v.6.] q < < i z W t.C.Q.Z.j.k.J.R.L.x.x.H.E.L.M.H.x.h.j.M.N.H.R.Y.R./.^.R.^.~.R.U.U.!.^.~.!.(.^.K.H.H.H.M.j.M.M.M.M.H.L.R.E.K.L.x.x.M.Y.E.^.K.!.E.=Xn.%.h 0 C |.i.B.N.Q.T.-XQ.-XW.Y.x.c.L.R.R.Y.E.Y.Y.H.k.l.k.k.k.x.z.h.h.z.D.x.x.k.M.J.M.j.j.M.H.z.l.D.H.H.H.H.H.z.g.z.H.L.L.L.z.f.7.f.J.f.k.h.j.8.! Z i % X O q H #.{.s.a.i.u.q.u.i.i.b.b.N.b.v.C.C.b.q.j.f.M.H.z.z.J.E.J.H.x.x.H.^.0X/.H.Y.M.h.k.z.x.4X/.R.E.^./.).^.K.F.P.R.R.K.H.K.H.D.g.l.x.H.M.x.j.8.e.W 2 + # p $.a.oXy.#. .+.6.^ U y.] Y U U Y U X.6.u.b.v.8.m.m.7.J.W.^.^.6X7X/.6XE.Y.J.b.u.6.T D N B S S Y P U | O.U Y U | ^ X.e.",
"x.x.H.H.H.L.H.c.x.x.x.x.z.l.g.f.1.7.h.h.k.N.T.T.N.k.j.7.7.h.j.j.j.f.d.7.2.2.g.S.S.c.x.H.H.H.H.J.R.K.K.L.L.S.x.z.c.D.x.z.j.z.z.f.r. .H 1 < i z C 6.B.N.N.N.J.H.l.h.h.j.k.k.x.D.H.H.R.R.!.!.(.).6X!.xXzX^.zXvX6X!.F.K.K.F.F.F.F.G.!._.(.).).).6XxXwXwX/.x.z.E.9XiX7X7XW.L.x.z.x.x.l.z.L.K.P.K.F.P.F.F.G.R.D.H.z.x.j.j.7.7.k.M.M.Q.&Xj.7.M.T.T.Q.T.k.b.b.w.8.5.w.j.N.T.T.b.j.j.M.M.N.N.T.5X9X-XW.W.M.M.k.j.f.j.j.m.M.m.j.j.v.v.j.j.j.7.j.6.! q 3 < i z ! i.T.N.j.j.k.H.R.L.H.x.x.L.H.4X8Xk.R ) 8.,.h.D.x.D././.R.~.D.U.D.D.R.).).R.!.^.^.H.x.x.k.j.k.M.M.M.H.L.R.R.R.D.l.h.k.H.H.K.F.K.L.T.u. .0 7 B y.t.b.C.=XY.W.8XT.k.h.z.S.D.K.z.k.H.Y.Y.Y.Y.Y.k.z.z.x.x.h.g.g.l.x.H.M.j.7.7.j.k.j.j.h.l.x.H.K.E.R.J.J.^.7XK.z.f.f.f.z.d.d.m.d.M.j.b.q.U v s * o X 4 c ~ ..!  .O.6.+.+.0.u.i.u._ U T O.6.X.6.N.%X%XJ.M.J.=X-X=X=XJ.m.J.5XiX5XJ.Q.M.j.M.k.f.H.D.H.R.^.^.^.!.K.F.!.!.!.R.K.R.H.L.H.H.x.g.g.M.Y.T.e.W - + > 8 S P t.#.C j N T o.! ] I P I Y Y U Y Y Y ) 4.4.5.j.f.Y.=X4X4X7XW.L.Y.J.T.C.b.6.X.Y N k j C A W ! ]  .t.! C C Y U Y Y ",
"j.M.H.M.k.j.h.7.h.k.M.k.g.7.d.f.d.f.d.f.j.x.M.j.j.k.b.M.j.j.f.7.h.j.z.z.l.d.g.S.D.D.D.H.H.x.x.H.L.R.E.W.E.R.L.H.H.H.x.j.j.k.j.8.o.! H 1 3 i z A O.u.B.v.v.v.q.9.w.w.7.w.j.J.Y.Y.Y.R.E./.7X4X/.^.^./.^./.0X/.E.0X4X6X^.D.S.K./.6X(.!.!.^.^.K.R.^./.0X0X/.L.H.x.l.S.E.R.m.l.m.l.7.S.z.S.K.K.K.G.G.^.^.L./.L.R.k.k.j.N.j.7.v.M.M.&XC.Z.C.N.w.5.8.9.w.q.5.) ) 8.k.q.b.C.%XT.T.N.j.9.8.N.Q.T.J.J.J.J.m.j.8.8.8.8.8.5.6.5.O.6.6.6.6.6.q.4.r.O.W 0 9 < i z ! p.N.j.j.M.M.k.k.k.M.m.z.g.k.1.7.7.R ) 7.7.d.H.Y.R./.^.R./.S.D.G.3.l.!.~.F.K./.7XL.j.j.j.8.w.q.j.m.M.H.L.L.R.H.z.k.M.Y.L.H.R.W.E.%Xi...f 0 f  .| O.b.N.v.M.M.j.k.J.L.x.z.x.k.k.M.M.M.M.x.x.M.k.z.x.H.x.h.d.z.d.f.k.M.j.j.j.N.j.j.j.x.M.L.R.^.7X6X^.K.E.K.J.z.g.f.J.m.d.H.j.M.j.b.t.P h 3 + X . @ 9 G J v Z ] ....] [  .] I C C C C N C U O.p.r.e.p.n.u.^ Y +.u.N.v.6.6.i.N.C.%XZ.C.M.j.M.<.Y.R.E.^.^.^.!.R.F.K.R.R.R.E.R.L.x.k.x.H.H.x.k.v.e.Q - O > 1 V  .~ A j P ! Y y.oX.X.Xs.%.#.y.i.O.X.T X.6.4.X.9.8.M.T.Q.Q.&XY.M.M.v.M.b.0.X.Y N k B C I ] ..O. .| P  . .U U | | P ",
"N.M.k.k.k.j.j.w.w.j.j.h.7.h.k.k.M.j.z.l.:.R 7.M.b.0.q.b.q.9.d.L.x.x.R.W.D.H.R.L.L.D.H.K.R.H.H.Y.J.J.J.T.W.Q.Y.x.x.M.M.b.q.q.5.|  .W b 8 3 a G H [ #.O.o.e.#.[ P T q.B.b.N.;X;XT.=X-X5X-X=XQ.Q.=X7X6XqXqX7X7XW.W.5X4XH.x./.7XR.^./.^.R.^././.R.L.6X0X/.R.Y.c.h.l.g.z.H.L.L.S.S.S.L.S.z.S.K.^.L.S.K.K.P.E.J.H.z.f.9.8.q.v.v.b.N.OX@XA.u.6.5.6.q.b.v.q.5.) _ X.q.b.N.%X%Xu.9.8.v.u.6.8.v.v.N.J.T.%XN.r.X.o.o.^ ~ P S C C A W { ..#.O...@.@.H 8 1 q q z } XXOX%X-X%XN.v.8.8.j.j.j.f.7.7.7.7.7.<.7.j.2.D.^.R.R.^.!.K.F.K.!.R.F.G.F.F.K.K.S.f.f.5.X.X.6.6.q.v.M.M.M.H.=XT.Y.Y.T.J.J.Y.T.N.B.B.s...B 0 7 l J ' ! | e.B.b.N.N.v.j.M.M.v.N.k.k.Z.M.j.d.h.h.j.j.j.z.k.M.M.j.8.8.8.w.q.q.w.v.b.b.M.b.v.b.M.R.L.4X7Xm.J.4XL.x.H.L.J.L.m.l.f.g.j.6.| ! H p # O . O + , 5 5 9 p h l l l p p l u q p p l l z G A V V Z H H V c ~  .~ ~ [ W A W O.X.+.i.OX%XC.N.T.M.J.Q.4XW.W.4XW.E.Y.Y.R.W.W.W.Y.Y.Y.Y.M.z.x.C.s.H 4 - - 1 b } b c c Z Q [ $.}.oXoX.Xy.y.|.+X+Xa.i.t.u.u.u.0.O.| | +.u.n.N.C.N.N.b.T E X._ Y ` | u.OXXXn.i.t.O.| | U ^ | | T Y ",
"M.b.b.j.q.w.8.5.8.q.j.j.j.k.k.z.m.j.l.z.2.1.j.b.i.t.O.t.6.^ 9.m.=XL.J.R.H.L.R.L.L.L.L.K.L.H.S.H.k.j.j.k.H.H.D.z.c.x.k.j.q.q.5.| A v q 4 8 p b Z A ~ W C A H Z Z P ^ e.a.XXOXOXn.B.n. X XN.N.N.OX%XJ.N.N.%XN.v.6.b.N.v.v.%X%XT.=X5X=XJ.k.j.k.M.J.N.T.M.k.M.j.w.j.,.9.j.m.J.M.m.m.z.V.m.m.J.J.m.V.z.m.m.m.m.v.8.8.X.X.O.6.t.t.t.t.%... . . .O.t.s.u.t.O.o.O.t.a.{.|.s.#.o.#.#.#. .O.e.a.@X*X*X:X@X{.%.^ ~ A c q 8 9 9 q y x m K J } } } } G q 2 q p b [ }.a.B.n.v.i.6.+.+.6.6.5.5.6.9.8.8.9.4.9.7.k.L.E.R.W.4X4XW.^.K.D.H.L.J.H.S.S.L.m.v.B.6.^ U U U | t.b.N.N.B.N.n.C.%X&X%XN.N. X|.|.}.&.W h 1 > 1 q l c S #.oX6.e.r.6.6.u.i.u.b.q.q.b.b.q.8.q.w.q.u.v.q.q.q.q.u.q.q.6.8.6.5.5.u.u.b.v.q.8.6.9.T.m.N.J.v.N.-XM.N.N.M.v.M.m.v.v.N.v.O.] [ ' x # O . . . $ 6 6 , > 4 4 4 , , , < 5 5 3 3 2 > 2 9 8 8 9 9 9 3 2 1 p z l q z p 8 p 0 k C W  .O.i.OXOXOXC.N.N.N.b.b.b.N.C.T.T.C.N.N.T.T.T.C.b.j.v.n.*.F 4 - - - q L F x x G K J Q } -.&./ S C ~ %.}.#Xs. ...a..XO.I A A ] ..t.i.a.n.t.u.X.T o.] P ] i.*X1Xn.a.@XXXt.e.! D S | O...U ",
"f.f.7.7.8.8.8.8.9.7.j.j.k.H.x.j.f.f.z.z.z.M.M.q.t.| S N N Y o.B.;XM.k.j.j.M.J.M.J.J.J.J.H.k.z.x.z.f.l.l.S.S.G.S.F.D.x.z.j.f.9.T B q 1 4 9 p z b V W A c c v b G H V B W W W W  .! ! ] ! W I I W ~ P P W W W C j B A I W  . .| O.p.n.n.i.u.t.u.i.u.u.t.t.a.a.i.i.O.6.t.p.i.u.o.^ X.6.u.n.n.n.n.n.u.e.e.e.e.o. .] I P I W [ [ ' H Z V V Z Z V V A H A S A W ' ' Q K z y l x x l p l x G K J K Z V l q w 2 4 > % % % % % % > 3 s 9 1 w q p e 2 2 9 e p G } ..#.#.O.#. .] [  .| |  .O.O.t.t.t.O.O.6.t.6.6.6.i.n.n.n.%XB.6.6.v.n.v.8.B.B.6.o. .! C V Z S W [ %.t.O.| ] ] ..#.%.#. . .$.&.*.} K x 9 > # @ > 9 u y V [ .. . . .O.#.%.%.%.#.#.%.%.#.#.%.t.t.t.t.%.%.%.t.t.6.6.6.0.t.u.u.n.n.n.XXA.n.u.0.t.| | O.| O.t.O.s.t.O.O.O.e.#.O.t.O.W A H F s O + . . . & 5 5 < > > > % % % & & $ + @ $ # @ @ # @ # > % # @ @ # # > > - > - @ - # ; 7 w 7 0 f B A ! ] !  .%.y.#...#.%.#. ...t.a.XXoXXX{.s.s.s.&.K a , @ @ # > , a i i a x p p l n n r t ; q z b K H b b Z Z v y h h v Z A W ' [ [ @.[ W } } *..X$X$X#X}.s.}.&.W }.@.[ @.&.&.[ Z ",
"5.9.,.,.4.9.6.8.) 4.4.9.f.m.m.j.9.8.m.N.N.%XN.6.] A k 0 f H $.{.|.u.6.5.6.u.B.v.8.8.8.8.8.9.4.8.f.f.z.l.l.l.z.c.D.S.z.l.j.f.,.Y A q 1 4 e i p l v H H v z z a x x 8 1 7 w 7 7 q f f q 0 7 7 7 7 7 7 w 8 1 1 1 1 - 1 4 8 8 8 y h j B H Q H A A A Z S Z Z ' ' J J Q Q ' ' Q H v f f c V H W W W W W W J H H Z V b w 7 7 8 u p 9 1 9 2 2 9 9 1 - - 1 1 1 7 8 8 9 1 4 > % % # # $ , % % % > > # # @ # # @ @ O . X X X X X X + + + + - > 4 > > , , - e e n b G H A A J Z Z K H H H Q } @.*.&.&.&.&.&.[ ~ A ~ [ [ ..@.y.%.@...@.@.#.$.@. .W V Z z q 9 8 y y x m v h 0 8 7 7 8 0 7 7 w p p p 9 > % + + + + % < 3 1 4 q m v h v B B v v m M M m m M m Z J Z Z Z Z Z J ' W I I I ] [ ....W W ]  .......] ' Z Z J J J J J { ' ' ' ' ' ' J Z Z m p 9 < & + + . . $ 5 a i 5 # # # + @ + + + . . . + $ $ $ $ @ $ % % + + + % @ # + + # + + + # @ O O # - 1 1 1 7 7 7 0 q f 0 y h h q 0 q b K H K K Z Z K K F a 5 % + + + % % 6 < , , , > - - @ # : @ @ # # @ > 3 i e 4 1 3 9 3 4 4 4 8 q q g z V b b K ( } ;.;.-.} *.} G z l G K } } ( F y 1 ",
"o.o.o.X.| | | ^ ^ | X.o.6.r.e.6.^ e.N. XN. Xs.| j h w 7 q b G H H A S B C A A P C C C P P P P ^ X.4.8.8.f.d.f.f.j.j.j.j.v.v.6.^ H e > 2 3 3 i a l z l 0 8 2 > , % + # % < , % # - > - # # # # # @ # # # @ @ + # + + + + + % % # - - > > > > > > > > - - 4 4 > > > < 6 6 < % # # @ + % % % % % # 4 4 4 4 4 2 < , @ @ @ @ # # @ O O O O @ O O O O O O O O O O O O O @ $ . . . X + X + . . . + + + @ @ @ + . .   .     X X + + @ @ % , , , , 6 6 , i i e 9 9 8 8 8 3 3 3 9 9 9 i p l x b G G F G G x p r n n p n L x L L n n l n b l l p p a i > % # % < 3 4 1 1 - % @ + @ @ @ @ # @ + . .     o o X X X + # % > 4 1 - - > 1 > > > > > > > > > > > 4 > > > > 3 i a i 9 8 8 8 9 9 9 4 1 4 9 y p y i 1 - > 3 1 > > 4 > > 4 3 4 4 > > 9 i i < % + $ * . + $ 6 a L L a 3 < % % * * * * * * * * * * $ + + + + + + + + + X X X X X X X X o     . + $ $ @ # @ @ # # @ @ @ O @ # # # # - : # # # @ # > > @ $ $ + . . + * * 6 & $ + + O + + X . X . . X + + + + + $ & & & & & $ @ @ # - - - @ - > 2 5 5 5 e a e e x a < : 2 > 3 i e , # # # ",
"A W ~ ~ ~ ~ A S H ~ ~ [  .[ ~ A ~ ! #.t.#.#.[ A f 9 3 > 2 2 2 2 1 9 7 1 7 ; ; ; 7 7 w q l l b Z ~ ^ o.O.6.6.6.6.u.u.u.e.t.e.O.! b 3 - , 3 5 i a a p 7 - - # @ + X X o X + & * + + + + + + + X X & + . . + + X . o X X X X + + X + O . . . O O . . + . . + + . .     X X X   X X X . X . X X X . + O O O O O @ O + @ + + + . + + . . . . .           . . . . . + . . . . . X .         . . . . . . . . .   . X X X X X + @ @ @ @ O O @ @ & 6 6 6 5 i 5 > > > # > # @ @ # @ @ @ # @ @ # - - # - # # @ @ # # O @ # @ @ @ @ @ @ @ @ - > - # > % + + % & < < > > > > + X X * * + + * X X X X o o     o X X X + , < > - # # # % % % + # + + + @ @ + + @ @ @ @ # @ # % % + + + + @ @ O % # # # % % % # + # % % % + + % + # % % + @ # % # # # + @ + + + O $ < a F K G b a i 3 < , < & & * & & * * * $ X * + + o * * + o o X o o X X + X   o o o   . . . $ O @ & < & & , $ $ @ @ @ + @ + @ @ @ O @ $ @ O . + + . . X * & 6 6 * + . . . X           . o X X . . . + + . . + O . O O @ + # O O O O O O O . O @ # @ @ + + + O O @ @ @ @ + + ",
"8 q p x x x p q q p x x x l p 9 l l V V v v c 0 l e 3 , & & & , $ , % # & $ @ $ # @ % , , < 5 i b m H J ' ' ' ' [ [ ' Q H H V z i < 2 e a a a L L x 9 > > # + * * o o     X + + + + o X o o     * + . . + $ X . + . X + X X $ .         . .       . .   . . . . + + + X X . O O . . . . . O + O $ @ @ O @ O O . . . . . . . . . + . . .                 . . . X $ + . + $ $ X . . . . X . .     + $ + X . X . . $ + + @ @ @ # @ 6 & & , , , , , 5 a e , < > # % # @ @ @ @ O O @ # @ @ @ # @ @ @ O O O O O O O O O O O @ @ @ @ @ - : @ O O O + + % & , , > - - # + X . X X . . X . X X X .       X + % < 3 < > > - > > # % > > # + @ + @ @ @ @ @ O O @ @ @ O O O + + + + + + + + + + + + X X X O + # # @ @ @ O O + @ # @ O O @ % - # @ # # # # # , 3 p b G J W H b a 9 4 > > % # # & & % $ & & & & & & & & & & * = + * * X + & +   o = = $ & 6 6 , # # # # @ O O $ @ O O O O O O @ @ @ @ @ + O @ @ O O + @ @ & , 6 6 6 & $ + + +     . o o o X X $ = = & $ $ * & + + + @ @ @ @ @ : # # O O @ & $ O @ @ O O @ @ O O O O O @ @ O O ",
"# # # # # # @ @ O # > # # # # @ - - - - - 1 1 - # O @ $ $ . . + . + . . + + . + $ + $ $ + + + % < 3 9 i p x z z p l p q 9 8 4 > 9 9 i a L F L F L L a 3 < % # % X o * * * * $ * + + o o $ $ o o . + $ & $ $ $ & * + & & . + $ . X o X . . . . . . X X . + + O $ + + O . O O O O @ @ @ @ O O @ @ O O O O @ @ @ @ # # @ # # # # @ O O O + X . o o         X + . . + . . + + . . X X . . .   . . .   . . . X $ $ X X + + @ # , 2 < , & , 6 5 3 e r e L x e 3 > @ # # @ @ # # # # : - @ @ @ @ @ @ @ O O @ @ @ @ @ @ O @ @ @ @ @ @ - - ; 1 - 2 > > < 3 3 9 i p p q q 3 < % % # # # % # % % # @ @ % , > - > 9 i 8 8 p w y p 8 4 9 9 > 4 3 3 3 2 8 9 3 2 2 9 2 1 ; ; 1 > % > > > > > > - > > > > % > > > 2 - # - 1 - # > > - - - - - - 8 8 9 9 8 9 9 9 r l b H W ] ! W ' G z p y u q 9 3 9 i 3 2 < 3 5 < < < 3 5 3 < < < $ & & + % , # $ & , , , < < 2 2 9 3 1 1 2 2 - # - 2 2 2 - - - - # # - - @ @ - - - # - > > 4 3 5 e i 5 3 , > # O + + $ $ & & 6 , < 6 5 3 3 3 3 , , % > > : - - @ # > : @ # % @ # @ # , , @ @ # @ # # @ @ @ @ # ",
"@ @ @ @ @ @ @ @ @ @ @ @ @ . . & O O @ @ O O @ O & O O @ # @ O @ . $ & + + % $ + @ @ % $ O @ $ + # % # @ # @ @ > - # # > > # # > 4 9 x x m K F F K F M u 4 < < > , & % , < < , , @ < & & . = = $ $ & & & & & & & & $ & & & + @ $ . . $ + . . + + O O O + @ O O & @ # $ # O O O O $ O @ # O O @ @ 2 ; - ; r n x l F G G G G V l 1 - 4 4 # % + . X   . . . O $ % # & $ + + O X + $ $ $ . X $ $ o o     o o o $ o + . + & , , , < 5 < e a r e 2 r b L L L r 9 2 1 @ - ; ; 9 p n b b L n n x b n l b r p r 1 - ; w q r r l l r q r l v Z G G V b G G Z K J H H ' } ' K G x l y q q q q l z l l l l h h H @.-.*.@.&.}.&.&.&.-.-.*.&.-.-.*.} } } -.-.-.}.$.$.-.$.$.$.} [ Q W Q / [ @.&.&.@.[ } } [ [ } [ ' Q J G V G J } ' [ } [ V V [ @.@.$.-.&.$.*.-.-.}.{.{.y.{.+X{..X&.[ [ ' A A J V z l l q 8 q x q x l 8 l l q 9 < 3 % % i # 1 1 4 q q 0 q l c h c B Z Z A A H J Q Z V z c h h h f h f 0 0 f h f t w 0 w 0 q l l 0 r l l q 9 7 4 - - 4 3 3 4 3 q 8 q u u y p y 8 9 9 8 8 8 8 8 7 7 w 8 7 1 1 1 1 - 1 4 1 1 1 1 1 1 1 1 1 1 1 1 1 ",
"# # - - # # # - # # O O # # O O % X .     . X O O O # > 2 , 3 5 > 2 2 4 4 3 3 3 - - > 4 > > > - > - # - 3 3 1 - 4 1 > > 1 > 4 9 y z K J Q ' J Q K K F x p 9 8 9 4 4 4 8 7 9 8 8 p 9 , i 6 6 * = & & = 6 6 6 & & , & # , , & % , , : : - : : @ @ - - ; 1 1 ; ; 1 q 8 4 4 4 4 1 ; - ; 9 p l b K } J [ *.&.$.*.-.}.&.}.{.oX$XoXy.! } [ K K K a @ O + @ $ , 4 > - - # # # # @ @ @ O # , , , + O + & $ + + X . . + $ 5 , # , 5 e e e n l r n L V V b H H H G v q 0 q l c c V H $.}.oX$X}.*.-.}..X.X.X#X}.}.}.}.&.}.$XfXoX.XoX.X-.&.}.{.oX$X3X3X$XoX{..Xs.%.y.s.y.oX3XfX3X$XoX{.}.}.{.}.}.}.}.}.{..X{.3X<X<X<X1X3X3X3X3X3X$X1X1X$X$X3X{.|.#X1X@X{.|.@X@X{.|.|. X#X<X<X<X<X<X<X<X<X2XdX<X@Xp.e.a.<X2X<X3X#X#XfXfX3X1XfX1X3XfXAXfX|.y.@X2X3XdXZXKXKXAXAXAX3XdXZXZXZXZX1XyXyX1X#XoXoXXX{.oXy. .[ $.@.' Z Z V k j B j h Z l M i 4 p 1 f f B P ] ! |  .#.O.e.t.i.XX@X+X+X+X#X#X+XXX|.a.y.#.e.t.t.#.O.t.y.y.y.s.y.s.s.y.}.s.s.&.$...Q W H H v v v k h f f k k k N C A W ] W W J Q Q Q ' W W W { { ' J ' ' J ' ' J J A Z Z J A A J A A H H J ",
"b b b v c h h h v V l w h z l 8 , + . . X X X X O > 9 9 8 p b G ' Q W H A S S A A c B A S B j f h q 0 0 0 0 w t 0 0 7 t 7 0 h h v Z } @.#.$.#.&.}.*.@.@.' J Z J B Z A S B B S A v q 1 e 3 > @ 6 6 & $ & 6 , 6 5 5 3 < < < , , 2 1 t ; t w l v v H Q ..*.&.}.}.}.}.{.|.oX|.{.y.e.#.p.@X<X@XoX:X2XdX1X@X|.OX@X*X*X*XOX|.:X2X2X<X:XXXs.s.$XCX;.x 2 - # 1 l b z v Z g l c z z b n l q q q q p p r q 8 8 8 8 q p p p G x z b H G v n V c B C W H W W ! ~ W ~ ~ ~ @.{.y.|.|.{.|.@X1X3X3X|.t.a.@X<X3XfX3X<X<X3X3X1XyXKXZXyXaXyX3X2X2XdXKXZXdXdXdXdXdXdX2X*X<XyXyX<X<XyX2X2XaXyXdXaX3XyXyXyXyXyXZXKXKXdXdXrX%X%X*XrXaXrXaX2X2X2X3X3X2X1X*X XOX*X:XN.B.%XgXN. X:X:XsXsXsXrXaXrXsX*X%X%X:XB.B.v.r.r.B. X%XsX:X:X%X:XsXpXBXKXPXKXsX;XsXpXKXPXPXPXKXKXdXdXdXZXaXpXPXPXPXKXZXVXPXPXVXrXaXrX:X<X2X3X1X3X3X1XoX3X#X{.XX@Xa.#.@.' } ( K ' } s.i.i.OX;X:X%X%X&X%XN.N.T.&X,X>X;X&XN.%X-X;X;X9X;X%XN.N.N.N.N.M.N.%X:X*X*X<X2X2X2X<X2X2X3XaXyX3X#X+X+XoXXX.XA.a.n.A.A.A.OXOX1X3XyX3X3X3X3X3X1X1X1X1X1X3X1X+X@X+XoXA.@X1XCXCXZXAXZXCX3X3X3X3X3X3X3XyX",
"3X3X3X3X1X1X1X1XoX3XfXCXCX3X#X.XF a & * * o + & 3 L ' } *.}.#X#X+X@X+X<X*XOX@X1XOXu.i.:X2X3XyX3XXXoXoX{.#.t.|.#X{.}.y.O. .@.#...s.s.+X1X2X2X2X3XyX3X$X$X#XoX@X+XXXXXXXXX|.|.|.|.#.[ H b p 8 < 5 5 & & , 6 < 3 e 9 9 e 9 9 9 i p V ~ ~ [ $.y.oX1X1XfXdXyXyXyXaX<X*XrXpXaX*X:X=X;X:XsXpXMXMXuXrXpXrXN.9.8.%XtXVXtX;X%X&XuXMXuX5X-X;XZ.OXCXAXoXH 7 l q b } }..X#X#X#X1X1X+X#X3X<X#Xa.y.y.t.y.}.%...@.' W W @.}.}.s.#XoXoX$X#X|.{.|.{.}.{.{.y.e.e.e.e.p.@X1X3X1X<X1X2XrXaXrX2X;X:X%X*X%X XN.N. X*XaX>XrXtXrXtXpXpXpXtXKXKXpX9XrXpXpXKXKXKXKXKXKXSXpXSXMXpXtXrXtXpXpXrX9X9XuXuX;X&X%X>XtXtXVXSXLXFXMX-X=XJ.N.J.%X-X;X;X;X>XrXtXtX>X;X9XJ.m.J.N.f.f.J.-X%X=X-X=X5XsXsXrXrXrX;X%XN.B.v.m.V.B.:XN.8.8.J.=XuXKXMXuXMXMXsXuXMXMXsXuXMXMXKXFXLXLXKXSXKXpXrXrX9XuXuX-XN.T.&X%XuXiX9X;X9X5XT.J.;XpXpXyX2X2X3X2XyXyXaXpXZX3X+X.X.X*.} %.a.OXOX%X;X5XQ.L.H.D.D.H.H.H.R.R.Y.H.x.x.R.W.R.W.4X4XR.R.S.x.H.L.x.x.J.M.N.J.T.-X-X-X%XJ.T.-XrXpXpXpXtXVXpXtXtXtXVXVXiXVXSXSXSXSXLXFXSXSXVXVXtXtXrXrXtXtXtX>X1X,X*XC.b.OXCXKXZXZXKXZX>XCXCXCXtXtXtXtXtX",
"aXrXrXpXKXKXKXKXKXKXaX2X2X2X3XZX}.} a > , % % i L } }.#X1XdXZX2X%X-XuXKXKXpXKXPXPXSXtXSXKXKXLXLXKXKXKXrXB.B.=XsXrXpXpXaXrXaXtX>X2X2XVXKXKXLXSXKXZXKXZXZXZXKXKXKXZXVXpXVXKXKXKXZXyX1X#X&.J y 8 9 5 3 s a a i q u q l Z H H K ' } }.1XyXdXZXyXtXaXVXKXKXpXuXuX5XT.%X-X&XN.j.j.T.;X;X9X5X5XtXuX9X9X-X5X8X9XqXwXqXqXnXcXcXnXcX4XE.E./.Y.N.N.a.%.H h v V Q }.1XZXZXyXaXaXrX;XsXuXuXrXMXKXKXMX5X&X%X%X:XOXu.6.u.C.:X:X:X XN.N.N.v. X*X2X*XOX*X3XaX3X3XKXZXrX%X%X;X;X&XY.J.Y.5X9X9X9XiXiXiXiX9X=XQ.;XuXSXKXLXKXKXKXGXuX9XSXLXSXMXKXLXFXMXMXMXiXMXMXFXKXGXFXGXiXiXVXSXSXFXcX9X5X5X-X&X&X&X,X9XeXGXGXDXwX4X-X=XE.T.T.=X&XT.%X;X>X>X>X>X>X-X=X-X-Xk.<.j.5X4XT.J.H.J.4XMXMXrXrXrXrXrXrX;X%XN.4.X.r.v.4.4.V.5XuXuX5X5X5X7X7X=X%X7XMXLXuX7XqXwXeXQ.J.E.5X5X4XM.=X-XN.j.w.j.k.j.k.M.N.T.=X=XY.J.k.v.T.&XN.q.6.n.%X>X-XT.-X2X1X.X[ A ' ..s.N.C.5X4XW.E.E.E.^.E.K.R.R.R.Y.U.Y.H.R.^.^.^.^.6XqX0X0XR.D.K.E.K.D.H.R.J.Y.E.W.W.E.R.R.J.L.J.J.Y.-X9X8X;X-X-X4X8XW.E.4X4X4X4X0XqX8X/.4XW.T.Q.W.T.W.,X8XQ.T.;X9X;XQ.Q.;X9XiXVXSXLXLXSXSXSXSXGXiXiXiXiX",
"9X5X5XuXGXGXnXGXiX9X9XtXpX-Xq.9.t.&.A u i 3 < a G [ #.e.i.%X;X-X9X9XGXFXFXGXGXLXqXW.E.4XwXnXHXLXLXHXHXnXE.=X5X=X=X5XuXiXMXpXiX9X%XC.;X9XnXHXFXFXSXKXKXVXpXSXMX9X9XeX9XwXnXFXKXKXKXyXyX$X-.h 7 i 3 q p x b G Q [ ..%.{..XoX#X3X3XyXKXVXpXKXSX,X;X9XwXwXcXmXmXmXcXeX9X8X;X5X8X9X9XiXSXMXMXLXFX9X4XR.8XDXHXHXDXHXHXnXcX8X^.R.U.R.!.F.D.x.j.6.e. .C f B ~ {.2XyXrX;X-X=X=X=X5XwXnXnXmXFXFXnX7XW.R.J.M.T.Q.N.j.j.m.M.m.8.9.8.v.v.B.N.N.B.B.N.%X*X2XrX:X%XT.M.M.Y.M.d.R.R./.cXFXFXDXDXwXcXwXwXqX0X0X8XGXiXiXKXKXMXiXnXwX4X5XMXmXnX6X4X=X=XW.J.J.7XcXFXnXwXwXGXVX>X&X;X8X7X4X8X9X;X%XC.C.Q.Q.W.-XeXeX8X4XQ.J.H.Y.Q.%XT.M.N.N.n.n.C.%X&X;X&XT.b.7.7.M.-XN.M.N.J.M.T.-X=X-X%X-X;X>XrX;X%X%X%XT.N.M.N.M.M.J.m.T.MXLXuXJ.V.J.=XJ.L.E.=XH.j.k.Z.x.7.R R 7.z.j.Y.Y.M.Y.T.Y.Y.j.h.h.k.M.H.H.H.J.7.1.M.T.j.9.4.OXv.M.=XW.Y.N.u.O.B h S ] a.N.Q.M.x.l.l.c.H.R.R.R.!.~.R.D.D.H.Y.K.R.R.E.^.6XcXmXcX^.K.R.^.R.L.H.E.R.R.E.^.^././.cXwX8XW.R.Y.T.W.Q.Q.W.W.4X4X/.R.E./././.).0X).^./.E.R.E.E.R.E.W.4XR.Y.4XwXqX8X4Xj.7.k.eXGXwXwXGXnXnXwXqX0X0X0X0X",
"9X9X4X8X4XE.E./.0X4XR.Y.Q.N.7.9.8.n. .V z p q x J ~ ! T 8.Q.iXSXLXKXFXLXLXGXGXnXiXqXqX8X4X4XqX0XcXzXvXmX0XmXLXxXmXmXKXLXFX9X/.Y.M.N.=X^.zXHXHXHXnXGXSX9X-X4X/.K.R.R.R.E./.6X8XuXpX2XyX$X.Xm y p q Z Q ' ..s.oX+X<X3XaXyXpXZXKXPXSXKXuX;XiXiX0XnXcXcXzXzXbXxXzXzX8X8X0XwXcXcXqX4X8XDXmXmXLXHXxXqXDXDXJXcXcXbX0X'.!./.0XqX0X8X).!.).(.7XJ.8.e.^ j f c ! |.<X:X&X-XN.b.N.&X9X9XeXeX9XqX8X=X=X5X&XN.j.T.9X;XT.C.N.M.8.4.4.8.b.N.v.q.m.m.B.b.b.v.v.B.N.v.7.<.l.R./.8X).cXDXDXDXHXDXqXqXqXqXwXcXcXqX0X4XE.E.8XnXqX9XnXFXnXnXmXnXE.S.S.M.Q.8XwXwX4X^.E.cX8XY.x.k.b.C.Q.-X4X8X,X&Xn.b.i.C.C.C.C.Q.W.W.Q.&XY.M.M.T.&X&X%XN.Z.n.b.b.Z.Z.Z.Z.b.5.R ) b.Z.b.b.b.C.T.N.C.N.j.J.E.=XE.E.E.Q.E.L.4XuX5XW.Q.E.J.=Xm.m.%X5X5X=XT.f.&X=Xm.M.%XM.5.) k.,X9XZ.7.j.J.W.8X&XT.W.Y.k.k.Z.k.k.k.k.j.z.z.k.k.M.Q.Q.N.N.%Xv.) 7.Q.4X5XT.0.%.S k v D t.q.j.M.x.m.H.L.E.E.^././.W.W.E.E.E.E.0X7X^.7X^.E.W.4XqX7XE.E.W.E.E.E.Y.D.D.Y.R.R.(.0XcXzX0X6X/.W.R.H.Q.E./.4X0XwX0X4X7X7X/./.).0X6X).6X/.(.6X/.R.H.R.E.R.H.L.7XwX4XR.x.M.W.qXwX4XE./.0X0X8X4X4X6X6X6X",
"qXeXqX8XE.D.S.R.R./.R.x.H.W.-X;X;XrXi.C h y l J @.e.u.v.M.W.8XnXwXeX8XeXGXGXwX0XGXnXDXcX4X4X4XE.6X(.zXzX^.lXmX7XxXxXnXFXmX4XK.H.M.E.4X!.(.NXvXvXcXwX4XE.R.R.^.).!.E.^.E.R.E./.7X=X-X>Xi...v h 7 B $.#X1X1X2XrX;XrX5X;X;XuXKXLXKXGXLXGX/.8X/.^.cXcX0X).`.kX(._.).0X0X8X/.(.).cXmXDXHXvX).zXzX).vXcXwXqX8X/.^.~.R.).8X).(.`.bXcXzXzX).(.L.8.e. .c w f H t.u.9.f.=XC.n.C.>X9X;XQ.Q.Y.5X9X&XT.T.Q.Q.M.N.M.k.M.T.C.M.b.b.u.q.v.N.N.N.,.R R 7.T.-X%XN.M.j.f.x.H.D.F.!.!.bXcX~.~.cXDXcXbXcXwX0X/.W.~.E.R.J.H.H.J.7X7X^.7XqXFXFXnX6X6XqXwXMXGXGXnX0XE.R.H.E.Y.7.w.Q.,XZ.Y.H.M.k.w.q.A.*X+X,X>X,X&XQ.Q.Q.T.N.N.N.N.C.C.C.n.b.b.i.b.i.q.5.) q.q.5.q.C.C.q.k.q.j.8.9.w.b.j.k.L.E.L.D.H.R.E.W.K.R.4XwX8X4X4Xk.T.T.j.j.=X;XT.J.v.j.J.T.f.j.;XeXQ.Q.C.T.C.Q.;XQ.&XY.T.T.j.7.M.x.Z.Z.x.k.x.Y.Y.Y.E.-XW.T.N.C.T.v.N.-X=XH.R.&XB.t.A v v B a.N.N.f.l.H.Y.W.W.W./.H.H.R.E.4X4X4XW.E.K.R.7X4XJ.R.4XW.E.R.K.L.L.K.E.W.R.R.R.R.R.(.zXDXcX`.^./././.W.E.W.4X4X0XwXqX4X/.^.^.R.^.6XzX0X)./.6XxXzX/.E.E.E.7XE.H.4XDXnXE.x.5XqXE.Y.4X8X/.R.R.R.K.K.R.^.^.",
"M.5XeX-XqXnXwX8XH.E.4X4X4X4XcXFXiXpXi. .k h Z [ O.u.m.4XwX6X9XnXGXDXDXnXcXwXwXcX0X4X/.E./././.R.F.R.!.!./.0X8X(.).qXcXcXqXqX8X/.4X0X/.K.R.0XxX4X4XE.D.x.H.E././.xX^.E.4XE.E.4X4XE.4XT.v.y.W 0 l s.#XZXKXKXKXLXMXMXiX9XiXFXLXFXnXcXcXcX8X4X6X/.R.(.).).!.R.~.(.^.0X/.^./.6XzXcXmXcXxX0X6X(.^.!.!.E.R.R.^.8X0XcXcXcX/.(.^.~.).0X(.0X~.D.c.j.X.Y j 0 l H ~ C 4.-XJ.T.,X>X;XT.b.k.T.Q.N.j.8.b.%XN.8.j.j.k.J.T.T.Y.M.T.Q.N.7.5.v.N.b.) ,.E R T.9X=X5XQ.M.l.l.S.L.K.^.8XcXcXqX'.8XwXnXW.4X0X8XY.h.h.Y.Q.T.Y.Y.E.W.E.E./.qXDXFXcX^.E.^.8XFXFX8X4XuXnX4X=XY.k.k.M.M.M.j.j.j.k.b.M.C.&X,X>X>X>X&X%XQ.C.N.Z.M.b.N.b.j.q.q.q.v.b.C.%XOXZ.b.j.N.Q.T.N.j.j.M.j.j.k.k.M.M.M.k.T.J.H.E.W.T.Y.R.D.H.Y.Y.4XcXqXW.M.Y.Q.M.f.j.k.7.j.Q.-XJ.f.j.Y.;XQ.Z.k.Z.;XT.T.tXN.T.M.z.J.H.l.m.x.x.Q.Y.Y.E.Y.Q.8XW.Q.&XW.T.Y.Q.%XY.J.H.Y.R.L.M.o.W l 7 V t.N.E.R.R.4XK.4X^.E.c.l.H./././.8X0X8XD.E.E.z.g.D.L.H.H.D.R.0XxX/.R.R.!.R.!./.)./.8XxXR.D.R.0XcX0X8X0XwX4XE.W./.W./.0XE.R.R.(././.).).(.xXwX8XcX0XE.E.0X4X0XW.R.wX5XW.T.Q.J.J.4XnXwX^.^.4X^.6X6X7X7XK.",
"k.k.h.h.M.J.M.H.W.W.E.L.D.H.4XwXiXsXe. .S Z ' s.e.OX=XE.8XLXPXLXLXFXnXcX0X^./.qX0X7XE.K.K.^././.R.(././.`.0X0X`.qXbXcXcXvXHXHXDXmXcXqX0X4X/.4XwX7XH.2.<.2.L.4XcX(.K.^.0X4XE.R.R.^.0XnXuX3X&.l c }.2XKXPXLXLXFXcXFXnXMXLXLXmXcXcXwX0X0X8X4X/./.).!.(.).).).).).).^.^.^./././.0XxX).)./.^.R.K.K.R.D.Y.W.4X/.E./.qXDXxX0X(.F.F.F.S.U.U.D.x.M.q.P f 7 q Z [ | 8.=XS.=XT.N.N.N.w.8.b.9.5.8.j.B.B.8.,.j.k.M.M.M.Y.Y.M.N.Q.&XQ.=X;XT.w.:.7.,.8.Q.Y.k.Y.M.z.l.z.S.x.x.D.D./.wXJXJXcX8XW.qX8XQ.J.M.J.J.M.N.N.Y.Y.W./././.7X/.6XcXnXcXwXwXwX6XW.W.5XuX5XL.J.Y.Y.J.m.k.M.J.k.M.N.Z.Q.,X>X;X&XC.b.5.5.q.Z.C.N.M.b.b.j.8.9.9.q.b.v.q.q.u.v.v.T.Q.Q.T.M.j.j.j.f.M.T.J.f.f.M.=XW.W.T.H.h.1.d.z.H.z.h.x.R.4X0X8XwX8X5X=XJ.Q.Q.M.k.k.k.H.N.M.k.j.Z.%XZ.w.b.M.v.M.v.T.J.j.f.9.7.m.j.h.x.H.Y.T.Y.T.-X=XW.T.N.M.M.Y.J.m.k.Y.R.D.l.j.e.W l 7 Z a.Q.4X6X4X4XS.H.D.^.^.0XE.K.R.4X0X6X/.D.H.R.R.H.l.l.D.L.E.^.K.S.S.R.).F.(.0XzX0X0X6X(././.qXmXDXnXcXnXwXnXwXW.D.H./.wX/./.).0XxXzXzX0XcXcX/.H.^././.wXFX0X8XW.R.=X4X9X=XN.j.j.m.J.E.W.8XqX^.7X7X/.7XK.",
"8Xk.,.,.f.f.h.J.z.H.E.W.E.R.L.J.T.%Xe.y.' V A @.i.:XpX4X9XPXFXiXFX8XW.4X8X4XW.E././././.).6X).^.~./.8X8X8X0X0X0XcXbXzXzXcXDXDXcXcXxXqX0X/.K.K.^.K.K.R.^./././.^.^.^.^.4X0X4X/.6X6XxX6X%X:X$.z b }.2XKXKXMXnXnXwXnXwXnXGXGXnXwXxX/.E.^./.^.R.R.4X/./.).0X6X(.^.^.!.R.^./.6X)././.6X6X6X/.!.K.K.R.D.H.E./.^.E.E./.^.R.^.^.R.R.(.^.R.'.8X4X9X;XO.k 7 w Z &.XX:X9XJ.m.5.R ) 8.8.9.w.9.5.q.v.v.8.8.j.v.Z.C.M.j.k.M.j.N.T.W.Q.W.4XQ.M.j.T.T.T.Y.j.j.=Xz.z.z.x.S.z.z.D.R.R.^./.8X0X4XE.E.H.f.<.7.M.M.j.j.M.M.J.L.H.R.R.E./.6X6X4X0XcXFXFX4XL.L.H.x.z.m.g.M.Q.5X=XY.M.k.J.-XuXiXiX,Xw.E ) ) ) ) 5.8.q.q.v.v.N.C.C.N.C.%XC.&XOXb.q.b.N.N.j.w.8.8.j.v.M.M.m.k.l.j.j.k.H.Y.H.T.E.H.x.H.E./.E.H.H.W.4X/./.0X8XW.W.K.x.H.L.J.Q.x.f.f.7.7.f.M.j.C.Z.q.b.C.N.N.M.N.v.j.m.M.M.Q.j.7.k.M.T.W.T.-XT.-X-XT.M.M.Q.5XY.m.M.W./.D.l.m.e.A q 1 m a.-X0X^.K.R.K././.qXxX6X^.!./.cXHXmX0XcXE.l.c.H.L.x.z.g.H.E.H.K./.!.G.!.zX0XK.F.6XxX0X/.0XcXmXnXcXcXcX/.wXnXqX4XE.R.S.6X6X0XcXcXzX6X).wX0X/.4XwX4XE.^./.L.4X4XE.J.H.H.j.f.k.=X4XR.L.E.S.E.E.7XxX(.K.g.",
"Y.k.f.H.4XQ.H.H.Y.L.L.Y.E.E.E.Y.v.*X+XoX@.V J &.@XOXSXiX9XuXM.N.;XY.k.j.k.H.Y.R.R.^.4X6X6X0X(.!.^.(.).).).8X8X8X0X0X0X0X0X8X(.!.^.qXqX^.H.R.R.S./././.^.^.^././.lXxX6XW.4XR.l.F.6XxX8X-X*X$.h l #.*XpXuX9XqXwXwXnXFXGX9X4X6X/.D.R.R.^./.R.K.R.^./.^.!.(.^.K.R.^.6X!.R./.xX0X/.R.^.!.!.R.R.K.K.L.D.c.l.c.R.R.H.D.R.R.(./.^.(./.^./.0X0X8X9X:XO.j 7 1 z &.+X:X5XH.j.5.) ) 8.j.q.v.b.v.v.b.v.8.8.v.q.q.q.q.w.w.j.j.N.Y.Y.H.x.L.W.=X9X&XM.M.5X-XM.j.k.k.z.l.l.z.H.R.D.R.^.8X0X8XR.c.c.z.h.7.f.k.N.J.N.Y.E.Y.H.H.H.R.R.^.^.E.H.R.wXFX8XE.L.L.H.l.x.R.J.x.j.j.M.Y.T.Y.9X9XT.j.j.C.T.M.j.j.j.q.q.b.b.b.j.v.M.N.M.v.j.b.N.%X%Xb.q.b.n.v.C.b.w.7.j.v.m.k.J.f.<.d.M.R.L.x.T.E.Y.H.Q.W.E.H.E.Y.E./.W.R.Y.E.8X7X4X4XL.x.L.Q.L.H.M.M.M.j.7.7.9.5.w.k.n.b.b.C.%Xb.8.8.v.v.j.8.v.7.w.k.Y.Y.Z.&XN.W.W.Y.k.J.Q.=X=XJ.J.T.R.H.H.N.o.B 8 1 v y.-X0XcX^.E.7XnXcX0X/.E.6X0X^.!.).(.D.H.4XwX4XL.H.H.z.z.H.D.z.H.4X/.D.F.(.).!.!.0X0X!.R./.0X0X4X/.E.Y./.4X4XE.R.R.R.H././.0XxXcXzX6X).cX6X/.4X0X/.E.4XE.E.4XL.x.W.W.R.Q.H.M.Y.L.l.g.z.7X^.L.L.^.7XxX7X",
"W.H.d.<.c.E.0XnX8XW.R.E.W.W.L.j.8.:XXX$.' v ' .XoXu.rXrX=XT.w.C.N.T.b.R E R f.H.H.H.K.F.K.!.~.!.~.!.!.^.).8X).).(./.8X0X8X/./././.zXcX)./.0X8X!.qX6X/.!.R.(.qXcXzXmXnXwXnX4XD.F.6XxX8X&X@X .0 f ~ n.2X;X9X8X8XqXcXDXGX4XE.4XR.l.D./.0X/.R.E.^.R.R.F.F.!.!.R.!.).6X/./.6X0X6X^.E.R.K.K.R.E.^.R.L.H.D.D.H.E.E.R.c.R.R.^.6X4X4X).!./.'.8X4XQ.b.! k 0 w z &.+X%XE.L.J.Q.C.k.M.T.C.N.v.8.q.v.v.6.) ) X.T T 5.u.q.v.T.M.M.H.H.L.K.E.W.7.Q.9X-XJ.k.j.z.f.j.g.d.d.g.H.E.W./.'././.W.E.Y.h.1.:.,.R R R 1.h.z.k.z.l.l.H.R./.R.D.c.H.W.0XwXqX7XW.W.W.H.f.7.m.j.d.g.k.J.Y.J.7.k.Z.Z.T.&XQ.N.;X;X;X;XQ.Z.j.w.w.j.v.M.M.j.w.w.j.b.b.q.q.b.v.8.v.j.w.8.w.j.j.k.f.k.J.J.L.L.K.E.W.W.E.Y.Y.E.Y.c.Y.E.E.H.H.E.0XqX7XE.^.4XR.M.M.H.W.Y.M.H.=X9XJ.,.9.) ) 5.5.) ) 4.q.8.8.q.8.6.8.8.B.8.v.N.T.T.v.J.T.&X=XY.Y.Q.=XE.R.R.Y.x.D.H.L.N.| c 8 4 h %.&X6XcX^.K.6XnXmXxX0X/.6X).!.G.G.F.R.D.W.4XE.H.H.J.H.k.Y.E.H.D.H.R.^.!.!.!.!./.6X/.!.E././././.^.R.c.D.Y.W.E.D.c.R.0X/./.0XcXvXvXvXcX6X/.6XqX6XR.R./.R.R./.H.x.R.E.L.W.R.H.H.L.L.L.S.D.R.K./.6X7X6XP.",
"l.H.E.R.^.W.R.L./.W.W.4X4XW.z.<.8.n.e.A H z J @.#.o.OX%Xv.N.b.i.b.b.8.) R ,.7.<.l.c.D.F.U.!.~.!.(.!.R.^.).8X).).).).`.8X)./.8XzX8X).8XzXcXqX0XcX8XqXzXbXzX0X8X).^.zXwXwXnXnXcXzX).6X7XN.i.W 7 0 P u.C.M.Y././.cXcX0X8XeX8XY.D.c.c.^.0XE.R.^.^.K.F.K.R.(.(.^.^.(.^.4X0X0X/.K.E.7X^.E.R.R.E.R.D.l.D.R././.E.R.D.c.S.S.R./.4X0X0X/.^./.8XW.T.q.P h 0 q b &.#X:X4X4XN.-X&XZ.N.C.N.N.8.9.9.8.q.q.8.8.+.T ) q.N.b.M.T.M.j.d.j.L.R.K.H.M.j.8.j.Y.&XM.,.d.g.z.g.g.l.H.L.wXqX'.R.Y.R.4X0XqXH.7.7.1.:.R ,.:.,.<.d.g.l.H.E.4X4XE.L.H.L.R.E.nXnXwXW.l.d.<.<.d.k.R.4X=XY.M.k.k.N.Y.N.N.T.Q.&XT.T.-X,X&XN.w.9.j.j.v.N.C.N.N.N.v.v.q.w.q.b.v.q.) 4.9.9.7.8.j.k.7.M.W.7XR.L.K.^.Y.E.E.Y.H.Y.E.W.H.W.4XW./.qXcXcXqXE.^.8XwX9X4XE.W.=XY.H.Q.9X8XN.k.q.q.q.) 5.5.T ) T X.0.8.u.i.u.6.+.q.u.v.q.4.9.j.v.M.J.Y.E.E.J.M.J.Y.M.D.R.L.v.! q 4 4 h ..T.E.L.E.^.cXwXxX0XxX6XR.!.zX6XF.K.8X0Xx.<.1.x.M.J.T.J.Y.W.4X/.E.^.7XcX).!.!.^.^./.6X^.^.^./././.R.H.c.z.H.E.E.R.R.4XwX0XzXcXvXcXxXxXR.R.0XcX8X^.R.R.R.c.E.4XE.H.g.x.S.L.L.L.W.8X0X7X^.^.S.z.z.S.^.P.",
"R.6X6X^.E.R.H.R.4XW.Y.H.H.M.M.k.B.OXe.P ' h m } @.o.i.v.5.8.q._ 9.) T 8.M.M.j.1.x.H.!.(.).).).~.).^.^./.).)./.).8X)./.)./.!.!.^.~.~.).`.).(.).zXzX0X0X).).(.(.~.)./.^.R.H.^./.!.G./.wX5X*X .7 0 Y i.C.m.Y.E.^.cXDXeX'.W.Y.h.2.c.H./.4XE.R.R.E.R.R.E.^.^.!.!.!.R.E./.6X6X^.H.K.^.D.L.L.H.D.c.g.g.c.R.E.R.D.D.c.c.R.R.E.^.R.R.E.R.R.~.R.x.j.6.U f ; 7 h } XXOXQ.E.M.M.M.M.N.j.9.8.8.q.q.6.9.8.v.N.0.q.b.n.N.N.b.j.v.7.7.j.M.M.M.m.J.f.7.j.k.k.m.m.g.l.z.j.l.x.H.H.H.W.8X0X8X8X4X/.nXW.x.M.H.z.7.1.2.h.c.H.H.R./.4XW.0X0XW.D.l.c.x.E.4X8XW.l.g.L.4X4X4X=XE.L.L.Y.Q.k.M.J.T.T.T.Q.;XT.N.M.M.M.M.Z.Q.T.M.j.v.v.j.8.8.j.8.8.w.w.8.8.q.v.v.v.v.j.j.j.f.j.k.H.L.K.K.K.K.E.Y.Y.H.x.l.z.x.c.H.W.4X4X4X4X4XE.D.L.R.W.4X4XY.l.R.4X4X8X9X4XY.Q.N.n.n.q.q.b.q.6.T | 6.X.| X.^ _ T X.T R R E R ,.,.9.f.l.z.z.x.x.M.Y.Y.Y.H.H.v.! w > 4 h #.N.D.K.6XqXnX/.6X^.^.xXzXcXmXzXF.g.S.c.l.x.J.x.7.h.T.eX-XE.R.E.4XwXcX/.).zXvXxX).^.^./.E.R.^.E.R.E./.0XY.h.g.D./.6X8XzX0X0XzXzX6X).(.6X^.).).R.^.6X7XcXR.E.^.E.E.E.6X5X5X^.z.g.L.E.E.L././.7X/.K.R.S.",
"!././.^.^.R.R./.L.E.W.W.J.z.h.f.N. Xo.B Z 7 v -.oX%.X.+.Y R 0._ T E T 8.q.9.j.W.4X4X).(.~.).kXkX).(.(.)./.^.(.6X(.!.!.).).!.D.F.F.).0X~.U.~.`.).0XzXzXbXcXbXzX0X!.K.^.E.Y./.6XK.F.^.7XJ.n.~ 8 h B n.2X9XnX0XR./.R.R.D.h.1.h.Y.W.0XqX0X4X^.R.E.^.H.R.R.D.D.!.(.(./.^.^././.E.K.L.l.D.E.^.^.E.^.7X0X0X4XE.^.4X4X/.R.R.E.E.D.H.^./.W.'.~.h.j.n.O.V 7 q z } oXOXJ.H.=XM.j.M.N.7.R ) 8.N.OXu.X.T ) X.4.b.C.b.j.b.j.9.,.8.M.T.C.j.j.v.j.,.f.Y.M.9.7.M.z.k.j.f.g.x.H.H.x.Y.~.^./.8XqX0XwXwXwXnXnXwX9X4Xx.H.Y.R.R.R.R.R.R.R.R.L.H.H.l.2.L.R.7XcXwX8X8XwXwX4XY.J.L.J.H.m.k.M.Q.9X5XN.j.h.7.7.h.k.k.j.j.j.N.j.8.j.v.M.M.M.v.j.M.N.b.w.8.j.q.q.q.j.v.b.k.j.l.x.H.L.L.L.K.E./.Y.Y.W.4XW.Y.H.E.R.E.4X4X4XqXDX7X/.4X/.H.R././.E.R.L.R.W.5X4XW.&X5.8.Z.q.5.q.A.X.X.i.A.o.| t.a.n.u.u.X.X.6.8.v.B.v.m.J.L.S.S.L.x.z.k.H.H.x.k.b. .0 > < v &.C.l.K.^.K.^.R.vXmXHXvXHXIXmX).^.^.!.H.R.Y.x.h.h.j.j.Y.5XiXqXW.R.E.^.).zXxXzX).(.6XzX8X^.R.R.H.D.R.0XE.E.R.D.H.^./.E.(.(.).0X0X).(.(.!.!.0XcX0X0X0XK.K.D.^.E.^.qX4X^.6XcXnXwX7XK.D.z.S.^./.7X/.E./.K.",
"^.).).^.K.K.R.E.L.4X8XY.k.x.k.7.4.X.N C h 8 v } .X+X6.T R T _ Y Y T T R 9.N.&XW.8X8X/.(.~.(.kXkX`.^./.).!./.8XR.(.^.!.(./.(.^.!.~.).`.).`.zXzX).).0X0XbXcX0X(.(.K.^.D.S.4X/.R.6X/.L.^.=Xu.I 0 1 C O.2XuX9XnX/.^./.2.2.Q.R.Q./.0X4X4X/.E.E./.^.H.R.K.R.^././.(./.6X7X/.E.R.H.H.R.R.R.H.H.H.E.7X6XcXnXwXE.R./.8X/.R.H.E.E.c.h.Y.8X/.8X/.Y.j.u.%.B 7 l x A #.v.m.L.M.j.j.k.8.j.b.5.v.8.4.+.X.U U T ,.7.j.j.8.5.9.9.v.b.N.C.b.6.6.u.M.j.f.j.j.7.7.j.k.k.z.f.l.m.M.x.c.D.W.'././.wXDXDXDXcX4X8XnXnX8X4X0X/.H.R.4XW.c.Y.x.E.8XE.H.L.H.K.E.W.^.qXmXFXMX4XL.L.W.E.E.Q.W.k.Y.Q.T.Y.Q.-X8XM.=XW.Y.Y.k.j.T.j.f.m.M.7.f.M.m.v.w.j.b.j.j.j.8.v.9.8.v.j.8.j.k.x.l.z.S.S.S.S.L.c.Y.W.8XW.4XcXR.4X4X0X/.wX/.8X0XwX^.R.E./.E.R.H.D.D.Y.R.Y.H.H.Y.Z.C.C.C.Z.q.X.+.5.+.+.+.o.O.t.t.XX|.p.u.p. XOXN.N.J.j.f.S.L.S.S.x.M.k.H.D.x.J.u. .h 3 > G .Xj.R.K.^.^.K.R.R.!.).).R.R.(.).^.R.R.R.Y.H.x.J.Y.k.7.j.h.Y.=XL.L.E.R.R.(.6X6X/./.0XxX0XcXE.2.l.R.R.H./.W.^././.E.D.l.G.R.6X).!.!.).xXzX).^.).).^.^././.^.^./.6XqXxXqX^.8X6X4XJ.z.L.K.g.K.S.^.L.K.E.K.",
"^.).6X6X)./.R.K.E.R.E.W.Y.M.k.j.R 4.U P 0 ; 0 ' &.{.6.T R R ) ) R 6.u.4.9.C.9XiXW././.).(._.).).(.R.!.^.R.(.6X!.^.^.^./.).)./.(.!.!.~.).).(.!.R.).`.).~.0XzX`.0X^.7XH.D.W.H.l.D.!.2.l.T.u.S 7 0 B ..1X2X5X8X^./.R./.8XD.2.Y.wX0XE.W.E./.4X/.R.l.R.R.E././.^.(./.R.R.H.D.z.l.l.z.D.D.D.H.R./.0XwXcX0X^.R.E./././.wXH.l.l.l.c.R./.R.E.W.W.N.n.t.v 7 w h ' a.u.j.W.Y.7.,.w.m.T.N.9.R X.u.i.u.X.X.6.j.m.M.M.j.5.9.9.4.q.u.6.6.u.i.u.,.j.k.j.j.m.m.j.j.7.,.,.g.H.H.x.c.R.R.U.R.8X0X/.Y.wXwXW.W.wXwX/.wXwX4XR.D.H.R.W.H.H.L.H.D.W.0XE.K.J.E.^.6XnXnXnX4X4X4X4X=X4X=XY.M.Y.Q.Q.W.-X8X9X=XW.M.k.E.Q.Y.T.Q.m.k.m.j.m.m.7.f.f.v.v.w.j.v.j.v.b.v.w.5.j.k.7.J.H.L.K.K.L.L.K.4XY.D.W.Y.Y.wXwXcXwXqXE.0X/.qXcX0X0X8X4X/.E.E./.Y.D.l.2.<.d.H.E.Q.T.N.b.C.b.4.T ) 0.n.t.U N D U U ^ e.n.OXOXN.B.M.N.j.f.x.S.z.g.x.H.k.M.x.x.Y.q.W l < # m oX;X8XR.cXnX7XR.D.S.F.F.^.R.G.G.!.).^.R.W.W.J.x.M.Y.Y.1.R 1.l.D.R./.E.6X(.!.^.).0X).(.6X^.D.D.R.D.l.D.E.R.R.E././.E.K.K.!.(.!.R.R.!.!.!.^.).0X0X).^.^./.).6XqXxXxXqX6XqXnX^.L.E.5XqXL.R.^.L.^.^.7X/.K.",
"!.^.).6X6X6XR.S.^.E.E.4X4XW.R.J.v.n.s. .h 0 h @.s.XXi.v.q.4.) ) q.q.q.8.v.T.J.j.H.E.0XzXzX(.!.F.(.R.!.R.K.!./.R./././.)./.^.R.K.R.F.R.(.(.R.S.F.D.).0X`.0X0X`.0XR.^.H.L.-XE.H.E.^.z.H.C.t.B 1 8 j I a.&X&XW.H.R.8X8X/.E.R.8X0XR.E.R.H.E././.R.R.R.E././.^.R.^.4X/./.E.H.D.c.c.c.c.c.D.R.E.4XqXwX0XE.H.E./.4X/.W.R.l.h.x.H.H.x.h.Y.R.E.=X%XOXy.k 7 w y J s.u.j.E.Y.1.,.7.j.v.8.) 4.X.X.+.6.t.t.6.M.M.M.m.j.8.5.8.4.X.T Y Y U Y N R 7.k.k.M.J.J.M.m.f.9.<.d.z.z.h.D.R.R.Y.W.qX0XW.cX^.R./.R.l.H.cX/.6X6XE.L.R.4X8X4XW.R.x.x.R./.H.7X7XE.E.R.R.E.W.R.7XwX9X4X5X4XJ.M.Y.E.Q.=X8X8X5X5XQ.x.z.E.W.R.R.Q.k.j.k.k.M.k.7.7.j.M.j.7.f.m.j.5.8.j.j.m.Q.5XQ.Y.R.^.^.^.K.K.R.H.x.H.4X4XE.4X/.8X0XcX4XcX/.^.R./.6X6X/.E.E.E.E.l.H.E.E.R.R.H.c.h.N.Z.k.b.v.8.8.5.5.+.| U Y Y Y P D E E Y T 4.q.v.M.k.z.L.K.L.D.x.H.x.M.x.M.T.u.I l % # M .XtXnXFXLXcXK.H.H.H.L.R.K.K.R.^.^./.6XK.W.W.J.z.k.M.Y.k.<.<.<.g.H.4X0XK.!.).0X).^.R.R.6XR.H.^.4XD.l.D.l.D.E./.^.E.^./.!.!.!.!.~.(.~.!.!.~.(.^.^.).6X6X).7X6X6X7X/.^.K.S.z.d.L.W.K.L.z.S.R.x.E.E.6X5X4X",
"^.^.).).).6X/.R.^.4X4XW.4XwX0XM.%X Xs.W 0 0 0 [ 3X2X%X;X9XQ.Z.b.8.v.T.;XQ.J.Y.8XH.H.R.!.(.(.~.!.(.(.^.^.!.^./.^.^./././.^.!.K.D.K.D.F.R.R.F.F.F.G.!.)./.bXcXzX0XzXqX4X4X9X-XE./.6XqXiXOX..V 7 w l B  .XX&XQ.x.D.R./.8X4XW.W./.4X4XR.Y.E.E.E.R./.R.R.^.^.^.R.^././.^.R.D.c.c.c.c.c.D.H.R.E./.4X4X^.R.R./.0X0X/.E.H.x.D.D.l.z.Y.E.W.E.Y.Q.%XOXs.v 7 y h Z %.C.N.Y.k.h.j.k.j.9.4.5.4.u.u.X.Y | u.OXN.m.v.v.v.q.9.4.) E D Y X.X._ T ,.<.j.J.J.m.M.Y.M.H.M.k.f.f.f.j.H.Y.R.^.^.R.E.4X0X4XL.d.<.g.H.R.E.^.K.c.L.4X4XW.Y.x.x.L.L.H.L.R.E.L.S.L.S.x.L.E.W.4XnXwX4X4XW.H.x.M.Y.E.W.=X=XW.W.W.E.R.E.R.H.H.m.k.M.M.j.j.k.m.j.m.N.m.7.j.M.v.v.7.j.M.m.j.M.H.L.J.E.E.E.K.K.E.H.W.R.E.E.4XwX/.qX8X/.D.^.R././././.^.R./.8X/.R.D.R.W.R.R.W.E.H.7.N.T.k.M.N.N.N.u.X.U T O.t.O.^ U Y Y T T T R 4.8.j.f.f.H.L.D.D.S.H.x.J.x.M.T.u.' p O , x { C.4X8XwX6X7X6X/.H.S.H.L.R././.K.R.6XE.E.R.H.H.x.j.7.J.H.x.x.c.D./.xX).).).(.R.!.).xX8X0X4XR.R.R.R.D.l.S.H.R.R.R.^./.(.(.^.^.6XzXzX(.(.6X6X).).xXcXxX7X)././.^.K.K.^.6XH.2.z.L.l.K.4XS.W.L.R.S.L.K.L.",
"^.).).).6X6X6X6X^.6X4X^.4XcX7Xl.=X Xp.~ 0 0 7 ' #X*XN.=X9X;X,X,X9XY.k.M.4XwX8XW.R.c.2.2.S.^.0XzX^.6X6X/.6X6X).).F.R.^.^.^.^.!.K.D.H.H.L.K.R.R.H.E.R.S.S.8XmXcX0XxXwX8X9XeX8X4X8X4XwXuXN.O.H 9 q z V ] a.&XN.J.E.E./.E.z.x.W.4X4XW.W./.4XW.D.c.D.R.R.R.R.^.E.^.^.E.E.K.S.c.c.c.z.c.S.L.K.R.R.R.R.D.E././.4X0X/.H.c.H./.W.x.x.E.W.W.R.D.J.C.OXs.v 7 y h Z s.:XQ.Y.h.M.T.Q.M.5.8.N.B.i.6.X.6.a.a.t.N.u.8.u.i.6.X.R R R T 6.v.u.v.C.k.z.m.L.H.k.m.J.l.z.z.j.f.j.m.J.Y.Y.R.R.R.D.D.R.R./.E.D.K.6X4XK.4XK.g.g.c.H.L.J.h.j.z.x.H.z.l.D.R.S.x.S.z.z.H.E.qX6X8X8XR.H.H.k.x.H.Y.Q.W.E.E.W./.4X4X4XE.R.K.H.H.J.J.J.M.j.k.Y.M.M.J.M.k.M.J.v.T.m.M.T.N.j.j.j.x.H.K.J.K.K.K.E.E.8XE.E./.4XwX/.E.E.E.S.^./.0XxX).6X6X).0XcXxX6X/./.R.H.R.4X8XE.Y.Q.M.j.J.=XN.q.v.q.q.u.i.u.6.X.^ T X.e.i.u.8.8.M.J.M.k.D.D.D.D.D.H.x.J.M.M.T.t.W 9 O , p A q.z.g.L.4X5X/.c.l.E.D.4XqXR.c.R.6XwX7XE.R.L.L.L.z.1.d.z.L.E.E.R.^.6XzX6X).0XxXcX0X)./.qX0XK.c.E./.R./.R.c.S.R././.(.zXzXzX6XlXzX).(.).xXbXvXJXHXmXzX6X).).6X)./.7XqXmXwXH.x.L.=X4XL.z.J.z.L.H.Y.R.Y.",
"F.!.).6X6X6X6X/./.^./.6XqX6XE.H.=X;X*Xa.B 0 0 ..i.;X;X9X9X=X8X8XE.qX8XH.z.R.E.D.^.H.c.S.K./.6X6X6XxX0X/.)./.R.^.G.K.R.R.K.R.K.D.D.R.K.S.D.^.^.R.E.^.E.R.^.R.K.R.E.R.Q.-X;X-X8X8X4XW.J.v.s.' 8 9 u Z ' a.n.q.Y.qXwXE.l.x.4X4XR.R.E.E.E.R.H.x.D.H.R.H.H.R.E.R.R.R.^.^.R.D.D.H.K.D.z.c.D.L.H.H.H.H.c.E.4X^.E./.E.c.h.D.W./.Y.Y.x.h.c.c.z.M.N.|.y.k 8 9 y ' .XN.h.z.f.J.T.J.M.8.8.b.u.N.i.+.Y U |  .X.| | O.6.+.T Y X.v.%Xv.4.4.4.8.H.E.E.H.m.J.J.m.z.7.:.<.f.k.M.H.x.Y.Y.S.Y././.R./.R.R.0XnXnXwX0X^.S.S././.H.z.Y.z.Q.Y.h.h.x.c.l.^.K.H.z.z.l.z.S.4XE.W.W.R.L.L.L.M.J.E.W.W.E.E.W.4XE.E.E.K.R.E.L.L.H.k.m.Y.J.M.Y.M.j.j.k.k.M.M.j.j.k.J.J.M.E.Q.M.x.H.L.L.K.K.K.K.H.R.c.Y.W.D.D.H.D.E.4XR.6X^.^.R.R./.0X0X6X6X0X0X^.^././.0XwX4XY.Y.E.H.j.k.m.j.w.v.v.b.v.u.q.6.6.+.X.^ ^ 5.8.v.M.N.E.Y.H.H.H.H.R.H.H.x.Y.M.M.C.t.v 1 # % p =.%XH.L.W.W.E.H.d.2.D.R.E.E.R.^././.E.E.E.R.H.H.x.H.H.z.c.l.D.^.^.^.6X6X6X0XzXzX0X(.R.R.R.E.R.S.H.^.E.R.^.4X4X^.R.^.(.).0X0X).(.(.(.~.).zXzXzXxXxXzX6X6X).).6X6X^.^.^.K.R.H.R.Q.L.J.l.x.H.f.J.J.=XQ.M.",
"G.L.!.^.).6X^.K.!.^./.0X0X4XE.L.J.:X@XoXW 0 f [ OXZXKXLXmX8X0X4XW.4X/.E.4XcX0XH././.7X6X6X6X^.!.6XxX6XK.R.K.S.K.K.^.^.R.K.K.K.F.R.R.H.H.R.E.^.^.H./.4X0X/.z.2.g.x.j.M.Y.M.b.k.k.E.R.M.u.s.' 8 4 9 b Q s.n.q.=X9XW.R.R.4X4Xl.d.W.H.D.z.h.l.H.E.W.H.H.H.R.R.H.H.R.H.H.D.l.l.H.H.D.x.S.H.L.H.L.R.R.R.E./.E.R.R.H.c.Y.D.z.d.d.k.x.d.l.z.z.M.b.n.%.c w y z J %.6.<.d.j.Y.Y.j.k.j.q.b.:Xb.X.Y Y P D k N N P | o.X.X.+.i.OX%Xm.8.7.f.j.M.Y.Y.J.J.R.J.j.k.7.,.7.j.k.j.h.l.D.D.c.D./.0X/.D.E.E.D.R.wXqXR.K.K./.cXcX4XY.Y.h.Y.M.d.x.W././.K.L.x.l.S.L.R.J.L.S.H.L.R.4X4XJ.M.M.J.E.W.W.E././.L.R.R.D.K.^.R.L.m.f.z.=XQ.H.Y.M.f.f.m.m.k.k.j.7.f.k.j.j.M.J.f.H.L.H.m.L.K.L.S.R.H.<.2.c.l.D./.0X0X/.g.l.l.R./.F.!.6X0X).!.^.).^.R.R.K.H.R.R.R.z.R.R.k.d.,.7.M.M.j.8.8.8.u.u.q.T 5.r.6.6.8.v.j.j.M.M.c.D.D.S.H.H.L.x.Y.M.k.N.6.v > , % p }.;XY.Y.4X4X=XW.J.d.<.L.h.z.E.4XY.l.g.H.K.R.R.H.D.H.R.E.R.c.l.K.!./.vXcXzX(.F.l.S.!.0XR.c.D.K.S.D.R.R.l.E.xXcX/.R.R.^.K.!.^.~.~.(.(.(.).(.~.!.P.P.(.zXzX)./.)./.K.S.S.L.H.k.L.H.f.Y.5XQ.5XJ.Q.M.k.f.,.",
"K.K.R.!.).6X^.F.G.^.6X^.^.6X^.x.H.T.u.|.' 0 f ! +XpXuX7X4XW.4XW.wX4X4X0X/.D.R.0X/.7X6X6X7X7X7X6XR./.K.G.D.D.G.R.R./.6X^.^././.E.4XR.R.E.W.E.E.7X7XH.c.R.0XE.l.d.R R ,.j.j.j.k.z.l.=X-Xu.y.} p 9 q b W {.:X%X5XW.E.4XM.h.M.x.g.g.z.z.h.h.x.E.E.H.D.H.R.R.H.S.D.K.H.H.D.l.c.L.R.H.L.L.K.L.R.R.E.E.4X^.R.R.R.D.S.D.c.c.z.l.h.x.k.<.c.D.x.m.q.u.%.B 1 x m Z | 0.j.H.z.4XW.M.J.Q.%X>X%Xb.6.T U Y D N N D U o.O.X.5.u.:Xb.8.j.M.m.x.m.x.l.x.E.=XJ.k.z.j.f.k.J.J.k.f.f.d.h.c.c.l.g.D.W.R.x.H.4X/.L.R.6X6XcXqXR.E.wX8Xx.J.Y.z.h.L.R.L./.6X7XR.S.D.J.R.H.z.x.H.m.L.8X4Xx.k.j.j.J.E.E.E.E.E.R././.D.D.E.E.W.E.M.H.4XR.m.Y.E.j.k.Y.J.m.k.k.x.f.l.J.L.L.R.7XJ.K.H.x.D.L.D.l.l.E.D.D./.4X8X/.6X0X/.g.l.l.R.).(.^./.zXxX).^.^.4X/.^.E.R.H.R.W.R.W.Y.D.l.7.7.m.j.m.M.v.j.8.4.) T 6.u.5.X.9.j.j.J.=X/.E.W.R.Y.R.H.R.H.Y.x.k.N.6.[ 1 < % 9 @.q.j.k.=X=Xj.j.J.Y.Y.M.5XwX4XH.x.D.H.L.K.R.E./.E.K.H.D.E.R.K.R.K.^.vX0X).!.!.^.!.F.S.^.D.D.D.l.Y.E.S.^.K.D.L.^./.^.R.F.R.!.!.!.~.(.(.).).lXlX^.!.).bXbX6X^.(./.^.P.^.H.Q.J.M.Y.=X4Xk.j.=XW.5Xk.f.j.j.",
"cX0XD.(.0X/.7XP.K.P.!.R.(.).^.D.S.d.8.O.[ 7 w W #X2X9X4XE.S.m.Q.W.R.E.4X6X/./.4X/.7X6X4X7X/.7X6X(.^.R.F.F.!.!.!.!.R.R./.4X/.W.4XeXT.k.=XH.L.L.4XK.K.K.K.E.^.E.H.R E R ) 1.k.h.D.H.1.7.8.s..XQ 7 b Z ' O.B.5XR.H.H.J.M.1.k.j.h.,.7.7.d.j.H.E.E.Y.R.R.W.R.R.D.F.R.D.c.D.R.D.c.D.H.L.z.R.M.H.E.H.W./.E.R.D.l.S.R.K.E.D.l.c.H.E.Y.H.R.U.W.k.w.n.| Z 0 l m V ..6.M.K.5XL.^.4X4X8XE.5X5X%X5.5.4.R b.v.N.u.5.b.q.R 9.,.7.j.M.j.7.1.z.Y.x.D.D.c.z.k.k.j.f.j.k.j.j.z.z.f.j.f.d.f.d.7.f.j.k.M.=XE.m.E.9X=X7XFXDX/.R.E.E.R.^.R.l.l.^./.E.7X/.4XW.R.T.T.M.7.h.Y.W.J.D.E./.L.Q.9X=XJ.=X4XW.4X4X/.W.E.E.E.W.W.=XW.W.-X=XW.W.4X4XY.x.J.W.=XY.J.x.x.S.L.E.E.K.L.R.R.^./.!.F.G.S.D.^.qXxX6X/.6XxX0X0X).!.F.F.).vX6X7X).).6X6X7X/.R.E.0X8XH.H.E.H.E.E.R.L.H.H.L.R.W.J.k.8.5.9.4.X.X.o.6.6.8.j.m.m.Q.R.E.E.R.S.D.R.K.S.H.R.D.H.J.N.%.l # # u { b.7.N.J.N.M.M.T.Z.M.k.M.Y.Y.x.z.D.E.H.H.D.R./.^.K.!.K.^.).^.F.F.^.wXK.).).^.!.^.(.^.D.S.S.D.K.R.R.E.E.K.D.S.^.zXxX).^.!.K.R.~.).zXxXJXNXvXbXlX).(.(.vXzX^.!.6XzX6XK./.8X8XW.Y.Y.H.z.M.W.Y.f.j.k.x.E.",
").qX0X0X!.G.^.6X6XP.K./.6XR.R.^.!.S.B.e.} 7 w H y.n.T.Y.E.J.H.E.R.H.H.R.E.E./.0X/.7X6X6X7X/././.(.(.^.!.^.).6X).0X^.R./.0X8X-X-XT.M.f.<.:.l.S.l.L.K.E.K.R.E.W.R.9.9.j.j.M.T.Q.W.Y.d.k.N.XX.XW t 0 h I | u.%XE.R.L.x.j.1.7.R 1.j.h.j.j.k.H.Y.E.E./.^.^.^.R.R.R.R.^.R.R.D.D.R.R.H.R.Y.H.M.j.7.j.H.L.R.E.R.D.R.).(.0X6X^.E.W.W.E.Q.W.c.x.Y.b.0.P v 7 y b V | 4.M.E.z.K.7XE.L.E.R.E.H.7.:.8.M.=X;XJ.N.C.Z.Q.M.j.Y.M.j.h.d.h.x.H.Y.H.R.Y.D.z.j.k.k.j.j.j.8.f.f.d.d.d.j.f.d.f.f.7.9.7.7.7.m.T.N.T.&XY.W.4X4X0X8XE.c.l.H.K.D.K.6X7XK.E.R.R.Y.Y.T.Y.k.h.j.M.Y.J.H.Y.R.L.J.;X=XY.=X=XR.R.4X/.W.W.E.E.Y.Y.W.Y.Y.Q.=X=XW.W.Q.Y.Y.Y.Y.M.M.H.E.K.L.S.H.K.R.R.^.^.(.).).(.(.)././.(././.^.!.R.l.l.R.4X8X^.D.l.K.K.P./.6X6X7X^.^.R.E.R.l.D././.E.E.E.E.E.W.^.W.6X=XT.M.v.8.9.X.+.X.X.X.4.8.H.=XE.^.^.R.D.R.R.R.).R.R.R.D.L.W.:X#.l # > y ..C.M.j.M.T.N.j.w.w.w.8.7.h.k.H.H.H.D.L.R.K.K.R.F.F.K.).^.^.).6X7XR.D.6X).!.K.!./.^.K.D.K.K.K.R.7X4X/.^.^.^.^.K.L.R.^.).^.!.^.).zXcXvXvXmXNXbXhX_.!.!.~.).6X).^./.4X0XwXqX4XE.E.E.H.h.h.k.d.1.h.h.1.7.",
"D./.8X0X).!./.^.!.P.^.6X(.D.~.cXxX4X%Xa...w w Z a.*X-XH.J.7XL.f.L.L.H.E.E.E.E.^.^./.6X6X6X/.^.^.R.E.!.!.(.).).).6X^.R./.4X4X4X8X-Xw.<.<.h.l.H.L.H.E./.^.R.E./.4Xm.m.Q.Q.Y.T.Y.Q.Y.h.M.N.{.}.Z ; z m ] ! X.8.f.j.k.j.M.M.Z.w.M.Q.M.J.Y.Y.H.Y.E.4X'./.^.^.~.R.R.U.R.R.R.S.H./.4XR.R.W.h.d.<.:.l.d.H.x.D.R.R././.R.K.R.R.H.H.D.M.H.x.Y.D.Z.Z.A.#.h w y m Z O.6.J.7XR.4X/.^.7X7XW.x.H.7.d.M.5XuX&Xm.j.w.w.Z.M.h.M.k.f.1.1.h.Y.W.E.H.Q.Y.j.7.7.j.j.w.8.7.5.7.f.d.d.f.z.j.j.m.k.f.7.9.,.R ,.j.M.M.M.j.Y.M.z.Y.4XL.1.1.g.D.K.W.4XR.l.l.l.l.x.H.J.M.j.j.k.j.k.M.H.H.H.H.M.Q.Y.N.E.=X/./.E.E.W.4X-XW.W.E.R.H.H.R.4X4XW.R.W.W.E.Y.x.h.g.l.J.R.R.K.H.H.H.H.H.L.H.K.K.F.R.R./.E.R.R.R.E.R.R.wX^.S.c.D.R./.0XR.K.K.^.^.^.E.R.R.K.R.H.l.z.H.H.L.L.R.E./.4X^.W.4X=XQ.J.v.8.9.4.+.+.6.8.q.f.M.R.R./.^.D.S.R.R.R.K.H.W./.E.R.R.N.#.l - # u ..%XQ.M.N.M.j.,.,.9.7.j.j.j.x.Y.E.E.H.L.R.E.R.K.D.K.^.!.^.E.S.2.<.l.H.^.R.!.6XwX8X^.H.c.H.H.c.S.R.R.x.L.L.E.^.K.l.S.E.cXzX).(.^.R.R.K.).zXbXxXlX(.(.).F.).zX/.D.l.H.W.4X=XE.M.M.M.x.h.f.7.,.7.Y.Q.Y.T.",
"wX0XR.R.^.).(.L.K.^.).^.R.R././.).E.%Xa.Q w 0 Z s.n.b.j.x.z.d.d.L.H.R././.R.K.K.E.^./.7X/.^.^.R.R.^.(.(.).6X).^.F.K.!./.E.R./.qXY.R R 1.R.H.R.H.R./.6X/.E.E./.4XM.M.=XQ.T.T.x.Y.Y.j.j.6.#.@.v 7 u z W ! | 8.8.j.,.,.8.w.M.Q.Q.j.H.Y.Y.Y.Y.Y.E./.^.^.^.R.R.R.U.U.D.R.K.D.E.8X4X/.R.4Xl.,.<.l.L.<.H.D.R.E.R.^.(.R.F.R.R.R.H.H.H.Y.h.W.Y.Z.Z.XXs.h q p m J s.b.Q.6X8X0XE.wXcXW.4XJ.k.d.=X9X9XiX-X&XT.7.7.Y.Q.j.j.j.7.f.x.H.R.E.R.L.T.M.j.7.1.5.9.,.) 9.7.5.7.f.z.j.j.j.M.M.m.j.8.7.,.,.,.8.j.q.w.9.N.T.N.J.4X5XJ.j.1.j.Y.=XW.H.l.g.L.H.H.M.j.,.,.<.j.j.h.j.x.H.M.k.7.M.Q.5XqX8XE.H.R.E.W.4X4X4X4X-XW.Y.R.W.4X4XW.R.W.R.H.H.H.H.D.x.L.R.R.R.Y.H.L.H.R.L.H.H.D.D.D.H.H.H.H.H.D.H.R.E.E./.0XwXqXW.R.R.7X/.^.K.K.K.K.K.L.K.R.H.x.D.D.D.H.H.R.E././.W.R.^.^.E.H.j.5.9.9.4.4.9.v.v.j.x.L.R.E.R.D.S.D.R.R.R.H.D.D.l.L.=X;X .l - # 8 ] Z.Y.N.j.7.,.,.7.7.h.j.j.z.h.l.D.R.R.R.E.4X/.R.E.4X0X6X^.L.H.R.Y.H.z.g.c.E.4X/.D.c.c.H.E.E.Y.R.E.Y.x.H.x.H.R.E.L.H.K.R.R.K.R.R.~.R.R.R.^.6X0X6X6X6XzXcX^.S.c.R.E.k.1.x.J.J.k.h.h.k.k.&XT.N.&X9X-XT.N.",
"3.c.R.R.^././.K.7X^.R.R././.U.l.S.z.v.t.V t w Z  .U ) H.R.g.d.=XK.L.D.D.L.H.R.^.R.^.^.^.!.K.F.D.S.D.K.K.R.!.!.F.G.F.K.E.R.H.R.4Xj.<.<.1.R.8X0Xz.E./.4X/.E.E.R.L.H.S.Q.Q.W.-XQ.Q.Y.k.q.O...[ z u 9 y H W  .q.9.8.7.) ) 9.w.Z.Z.7.x.D.H.H.H.H.H.H.R.E.R.R.D.F.D.U.R.^.R.R././.^.0X4X^.W.l.l.E.L.L.H.R.4X4XR.H.^././././.E.Y.H.x.x.x.Z.k.Z.v.| ] h q u M J .XOX=X4XL./.R.8X/.M.4X8XY.Y.MXGXuXuX=X5XW.M.T.-XW.Y.M.M.l.H.W./.E.R.H.H.Y.M.w.9.5.9.,.) R 8.v.5.9.j.j.f.7.j.M.M.k.j.j.M.k.N.b.8.q.q.q.9.9.k.Z.T.-X;XY.N.j.J.-X8X=XQ.Q.E.H.x.z.z.f.1.7.j.w.j.7.7.j.Y.J.j.M.N.Q.=X4X=XW.R.E.E.W./.-X-XW././.W./.4X4XW.E.E.L.D.L.H.E./.7X/.W.Q.Y.H.k.x.H.R.Y.R.R.R.H.H.H.H.H.R.H.H.D.D.H.H.H.H.Y.Y.H.x.M.L.K.K.K.K.K.R.R.K.H.R.H.D.H.E.4X0XE.^././.^.E.^.E.4X4X7XJ.z.7.7.7.8.9.,.7.j.M.R.^.E.R.K.R.R.D.D.Y.R.H.Y.H.S.H.W.%X^ l > # 7 I b.k.7.7.5.7.j.j.7.7.7.h.l.l.c.H.!.^.W.Q.4X8XW.4XwXqXH.R.^.Y.z.h.M.Q.R.E././.D.2.h.x.Y.Y.R.W./.Q.Q.E.E.E.E.E.W.4XE.D.c.c.S.R.W.'.'./.R.~.^.^.^.(.(.^.R./.8XW.x.x.Y.5XM.M.M.k.j.M.N.Y.Q.Q.;XeX,XN.j.7.",
"E R h.c.H.R.F.L.!.D.K./.R.h.l.Y.R.L.N.a.v ; w V ] u.C.E.R.H.m.R.g.l.l.S.D.K.R.^.!.!.!.K.K.D.G.S.l.c.S.S.D.K.F.F.R.F.F.R.E.R.D.H.J.7.1.d.H.W./.D.R.^.^.^.E.R.H.c.K.H.R.L.Y.Q.M.M.M.b.u.O.@.' h 9 p z K ]  .6.T R 8.R 1.T.M.M.Z.Y.D.H.D.H.L.H.D.D.R.R.R.R.D.F.F.R.R.R.D.D.E.R.R.wX0XH.6X4XE.L.g.4XR.D.D.R.R.R.R.D.R.D.x.c.l.h.1.1.j.k.j.w.) P A g u p m J oX:X5X^.Y./.E.R.H.Y.4XW.qX8XGXGXiX9X=XY.j.Y.9XW.x.Y.J.M.H.Y.W./.E.L.z.g.7.7.9.,.1.5.5.9.5.M.N.j.5.f.j.7.d.k.H.M.x.M.J.T.Z.&XC.8.w.q.w.9.R ,.1.h.j.w.j.Q.9X9X9X9XT.T.=XQ.c.l.l.z.z.j.M.T.7.j.h.7.j.T.J.j.J.M.T.T.Y.W.4X4XH.H.Y.E.E.W.W.4XH.R.E./.R.L.D.K.S.H.R.R.H.R.E./.R.E.R.L.H.x.H.L.D.H.R.Y.R.R.R.R./.R.H.H.E./.E.H.h.7.d.z.x.k.j.l.l.S.L.K.R.R.H.D.R.^.E.R./.4X4X8X^././.^.R.R.R.E.E.E.R.H.x.k.M.J.M.m.z.m.J.R.W.E.E.H.H.R.R.D.S.R.S.D.~././.E.H.8.! h > # 8 W b.j.j.m.M.m.w.1.7.j.k.z.c.H.^.^.!.R.Y.M.E.4XW.8XnXwXFX4Xc.z./.wXqX=X/./././.R.D.x.x.c.h.x.Q.Q.x.x.Q.E.=X/.E.R.W.E.H.E.R.R.R.W.W.R.Y.R.R.R.R.R.R.R.R./.R.Y.R.W.8X-X-X=XY.k.k.Y.Q.Y.M.k.M.T.Q.M.M.J.Z.",
"W.x.c.1.2.g.2.g.d.2.c.H.h.,.l.eX8X=XOX{.c 7 7 l  .*X9Xk.d.z.l.<.x.D.H.R.R.!.R.R.!.!.!.K.K.K.K.K.R.E.^.E.^./.).(.!.K.F.R.K.S.c.D.Y.h.d.x.z.l.l.H.R.R.E.R.R.R.R.D.L.S.L.x.j.j.7.w.5.9.6.| ..J w 4 q y J ' #.i.q.v.9.R h.9XH.M.D.Y.H.L.H.L.L.L.D.S.H.D.S.S.D.U.F.F.l.K.l.l.R.^.K.^.^.L.E.0X6XK.L.7XE.l.g.D.R.E.R.l.S.c.z.l.z.z.x.k.j.k.N.5.R U A h h b K W XX>XwX/.0X8XW.D.Y.W.E.J.T.Y.Q.9XeX8X-XJ.x.H.qXW.x.L.H.L.Y.E.E.R.D.l.g.l.1.7.7.1.1.8.j.j.v.M.j.j.f.f.f.f.l.c.H.H.H.Y.Y.Y.M.T.k.w.k.w.5.5.w.j.7.7.f.j.Y.9XiX8X-XY.z.x.Y.M.E.E.Y.x.z.j.j.j.j.w.w.j.M.N.M.j.f.j.Q.9X5X=XE.c.D.H.H.Y.T.E.E.E.D.H.R.E.K.D.D.R.^././.E.L.D.L.L.H.L.E.W.E.R.H.H.R.E.^.E.E./././.^.R.K.R./.0X0X4XR.H.x.x.D.x.M.L.S.L.K.E.E.R.L.H.R.7X/.^.0X/.R.R.R.E.E.R.R.R.K.K.c.S.S.x.S.H.R.=XJ.=X4XQ.R.E.R.D.H.H.D.D.D.D.D.Y.^.R.Y.Y.H.R.Y.u.~ l > # 8 ] n.k.J.M.M.j.7.,.h.N.M.j.c.R.!.F.G.G.H.l.H.R.H.4XcX6XR.R.E.E.E.E.L.H.c.D.D.Y.R.Y.c.h.Y.D.D.Y.Y.Y.Q.W.4X/.W.E.E.E.W.R.R.Y.R.R.~.~.~.R.R.R.R.R.R.~.(.^.^.~.W./.W.T.Q.W.W.Y.D.x.Y.Y.Y.J.=XY.T.M.h.M.E.T.",
"8XQ.wX8XE.D.2.g.g.2.<.,.<.1.x.Y.R.M.u.t.g 1 1 q $.A.C.j.d.d.z.Y.qX0X/.E.R.^././.K.P.!.!.!.^.).6X/./.^.E.!.(.(.!.F.R.^.R.l.2.l.R.Y.-X4XW.h.H.R.K.K.R.E.R.R.E.E.R.S.S.L.x.j.j.w.v.R ) | ! [ K 8 4 i l Q @.y.|.N.%XJ.M.M.-Xz.E./.R.H.H.S.x.z.z.c.c.H.c.l.l.D.R.D.S.l.R.D.l././.S.l.D.R.D./.cXcXnXE.R.R./.4XR.H.E./.H.H.H.H.H.Y.E.W.-Xj.N.j.) Y j v l Z ' W XX9XcX6X/.Y./.R.x.x.z.4XY.E.J.8X-XM.M.,.Y.2.H.E.L.x.d.x.R.4X0X^.c.g.S.K.H.Z.M.j.7.f.j.j.k.<.,.7.d.7.7.j.l.l.l.z.D.H.D.h.j.k.j.j.Z.k.5.w.j.Q.T.h.k.-X9X8X=XJ.M.l.2.z.R.H.D.L.H.k.k.M.M.j.b.w.w.M.Z.b.j.k.;XJ.Y.T.k.x.R.D.E.E.E.E.Y.H.k.z.H.R.^./.^.E.^.7XxX0X7X^.^./.E.D.L.L.L.K.R.E./.6X^./.^.R.K.R.R.R.K.!.!.R.R.E.6XwX4X0XqX0XR.x.x.Y.R.J.K.K.R.^./.4XR./.R.S.R.R.H.E.R.R.R.R.E.R.K.D.S.S.x.S.S.H.K.R.L.4X4XL.l.S.L.H.c.D.c.l.l.D.Y.D.^.R.R.R.E./.T.u.~ l > # 8 { Z.k.7.,.,.7.j.j.k.M.M.x.Y./.!.G.F.).^.D.R.K.g.L.7XK./././.E.R.H.R.E.R.R.R.D.S.D.Y.D.c.D.c.c.S.R.8X0XDX0XE./.4X/.^.^.R.R.R.!.~.~.~.R.R.~.(.(.~.~.).).(.~.^./.4XW.Q.Y.Y.R.E.R.H.H.Y.4XE.L.E.E.H.E.W.x.",
"wX8X8XqXxX0X6X0XcXxX^.H.D.D.W.W.R.Y.T C 7 ; 7 h  .XXT.J.J.E.4XE.7XxXcX6XR.R.R.R.!.K.F.K.^.).).^.^././.E.R.^.!.K.!.K.K.L.D.D.S.x.4XW.W.W.E.H.D.D.S.D.D.H.H.Y.Y.H.L.S.x.k.7.,.X.6.+.X.| [ A y 4 1 q z V @.t.u.%XM.M.Y.Q.J.H.K.R.R.K.L.H.z.l.z.x.c.D.H.H.H.R.R.H.H.c.D.H.D.c.c.c.c.g.H.K.L.7XcX6XR.R.^./.^.E.R.R.R.W.E.4XE.H.W.wX4X=XH.J.T.v.X.P f g K J [ OX5X^.)./.Q.Y.W.Q.D.H.W.M.H.x.k.M.k.j.H.L.L.x.z.x.H.Y.Q.=X5XR.l.z.z.D.4XE.Y.M.M.H.J.M.k.f.d.k.M.f.j.m.g.g.g.c.D.D.S.D.H.c.x.z.z.Y.Y.M.M.Y.E.Q.Y.M.j.h.l.l.z.l.d.l.H.H.D.L.x.z.k.k.j.7.5.j.j.v.b.M.M.N.J.Q.T.J.Y.Q.Q.R.D.H.4X4XE.W.Q.x.Y.H.S.^.R.K.K.L.6XE.K.K.E.^.E.K.H.S.L.K.L.L.K.^.^.R.^.^.R.D.F.F.R.!.~.~.(.zXvXmXcX6XcXnXxX0X/./.qX4XR.H.H.R.W.W.E.E././.^.R.R.R.^.U.R.~.R.H./.W.l.2.c.L.c.S.K.E.K.K.R.E.R.c.D.R.H.c.D.D.c.c.D.H.D.H.H.R.Q.E.Y.z.4.~ q - % 9 W b.k.7.f.7.7.j.j.j.T.Y.L.H.R.R.F.G.F./.7X^.R.R.^.R.D.E.E.^.R.D.g.g.c.G.S.D.F.F.F.R.K.R.R.R.W.^.^.W.R.D.D.K./.0X6X/.).~.^.^.(.(.~.(.).~.!.~.~.~.).).!.!.F.!./.^.0XwXE.E.L.L.R.^.^.^.E.L.^.E.L.R.H.L.8X",
"8XQ.W.4X6X4X7X6XxX6X^.0X0XQ.8XwX/.Q.+.[ l ; 1 h ..n.N.Y.=XQ.4X4XqXcXqX^.K.E././.).^.R.K.R.^.^./.^.^.^.R.K.K.L.D.D.D.L.H.L.R.E.Y.k.Y.W.=XY.x.H.E.S.R.W.R.H.M.Y.E.K.L.H.M.b.q.) U U U  .} J y 1 > 8 z A ..O.6.N.M.M.Y.E.L.H.L.K.K.L.L.H.x.x.S.H.x.D.D.D.D.D.D.c.z.D.D.D.D.l.2.d.z.D.R.R.H.^.6X^.L.c.S.D.D.D.H.H.Y.E.Y.R.R.L.4X8XR.H.x.x.j.v.@Xt.j l v Z @.*X=XK.zXR.D.c.D.R.E.Y.H.E.M.d.1.h.k.Y.4X4XR.L.H.H.J.J.J.Q.=XL.l.z.z.H.7XW.E.R.E.E.R.H.x.H.l.M.J.m.m.M.j.c.l.S.K.R.H.H.R.E./.R.D.M.Y.-XnX4XW.E.4X/.H.D.H.R.H.H.H.H.L.H.H.R.Y.J.M.j.8.j.N.N.w.9.w.N.N.M.M.j.M.Q.5X5XQ.H.c.E.8X0X4X8X8XW.8X4XK.K.H.R./.L.H.R.L.S.S.D.L.H.K.^.^.^.^.!.K.K.K.R.!.(.(.).).0X0X(.).).).(.).).).K.).6X6X6XE.D.D.H.7XcX8XR.D.H././.R.H.R.^./.R.D.R.R.R.R.R././.H.H.H.D.c.S.E.7X7X^.E.^.K.c.c.S.l.c.x.x.z.l.S.D.S.D.Y.R.R.E.E.M.r. .l > # 8 W Z.Y.7.J.J.j.k.M.k.k.Y.J.H.H.D.F.F.R.xX/.R.R.^.^.R.K./.^.!.R.K.S.S.S.R.!.!.!.!.R.R.R.R.^././.^.K.l.<.D.S.F.!.).0X6X).!.!.~.~.!.~.~.(.!.F.U.R.!.(.).!.F.F.!.E.R.wXDX0X/.K.L.^.^.L.S.L.L.4X4XL.R.W.R.L.",
"/.W.W.4X/.^./.6X7X^.E.6X/.x.D.Y.4XQ.t.}.G ; - l I O.v.;XwX4X-X-X4X7X^.H.H.E././.6X4X/.^.!.!.^.^.E.E.R.K.H.H.L.D.^././.R.Y.E.T.Y.T.J.Y.Y.E.R.L.L.H.L.E.J.M.m.M.H.L.H.j.5.5.X.T Y Y Y W J v 8 4 9 8 z H [ ^ T 8.j.J.Y.Y.J.H.K.R.R.S.H.H.H.H.J.L.J.L.H.H.H.D.x.x.z.x.z.c.H.c.d.l.H.R.W.E.R.^.^.K.L.L.S.c.D.x.l.x.H.x.z.k.x.H.R.Y.g.l.S.S.f.m.2X@XC f V A  .%X5X^.!.2.h.z.j.h.x.H.M.z.d.1.f.m.M.m.z.L.H.M.M.M.M.M.j.j.j.f.f.f.d.g.L.H.D.S.c.c.D.L.H.L.x.x.M.k.v.j.f.D.S.D.H.R.H.H.L.E.Y.x.x.E.5XqXnXnX/.E.0XwX4XE./.0X/.E./.E.D.S.H.M.J.Y.N.j.5.w.b.j.q.w.8.f.j.k.m.j.v.M.J.Y.Y.L.H.E.0X8X4X8X8X8XqXnXcXcX6X4XwX4X4XR.D.c.c.D.L.R.^.F.G.F.!.(.^.^.).^.^.(.).0XzXzXzX6X0XzX0X6X6X).).(.!.G.F.).).K.z.H.W.4X4XE.H.H.H./.4X4X/././././.~.R.R./.R.R.E.E.R.H.H.R.^./././.R.K.R.R.H.R.W.R.H.H.H.x.D.H.H.D.H.R.E.E.E.E.J.B.@.b > # 8 W N.N.J.4XQ.j.j.M.J.Y.M.J.H.D.c.D.R.^.G.G.D./.0X6X4X4XE.H.D.H.R.R.K.K.K.K.K.K.K.K.K.K.6X6X^.H.H./.4X/.L.S.S.L.^.)./.^./.)./.(.^.(.).).^.^.)./.!.^.).^.!.K./.xX0XW.x.<.x.z.S.L.L.K.R.W.R.4XW.L.R.W.x.<.",
"/././.4X/.K.K./.S.^.!.^.W.W./.Y.E.T.i..XH ; - h [ i.N.=X5XJ.m.z.l.D.H.H.K.E.E.E.4X4X6X0X6X^.!.R.R.R.R.K.R.R.R.R.E.^.E.x.j.k.M.j.;XT.M.J.Y.R.H.l.L.M.k.j.k.M.j.7.l.x.j.9.) | | U Y S Z B y 4 < u 8 z J [ ! ^ 8.f.J.T.J.M.D.H.K.H.H.M.H.L.J.Y.Y.Y.H.M.M.M.H.H.H.H.M.k.x.H.Y.D.H.R.H.R.K.R.^.K.S.L.D.z.l.c.c.g.h.k.k.z.k.x.H.J.z.<.S.z.L.H.v.B.t.W f b Z ! n.-XK.G.c.Y.-XE.H.M.Y.W.M.<.R :.7.x.H.m.z.l.j.k.M.v.8.4.5.5.9.j.k.j.f.x.D.H.L.D.D.D.H.R.L.m.j.j.8.5.9.8.Y.R.E.W.W.Q.Q.=X=XE.x.M.4X9X9XiXMX4XW.4X8X4XW.4X0X4X/.E.K.S.c.D.j.j.j.j.8.4.) 4.8.N.N.8.9.f.k.j.N.v.j.j.J.E.W.E.W.4X/.W.W.W.-X4X4X0XwX/.E.4X4X4XE.R.R.E./././.7XxX7X/.6XzXzXzXxXmXxXqXqX0X0X8X0XwX8X6X0XvXvXqX(./.^.F.F./.).^.E.R.L.L.L.W.4XW.R.R.E./.E.H.H.E.4X/.^././.R.R.E.Y.Y.H.L.E.7X/././.8X/./.E.R.E.E.H.D.x.x.c.c.D.D.D.H.R.E.R.R.Y.J.B.! l > % 9 { b.j.Y.k.f.f.h.7.j.T.M.M.x.z.D.R.^.W.K.^.6X0X/.H.H.E.H.x.z.D.K.R.R.R.K.K.K.K.K.R.^././.4X/.H.D.R.H.z.L.L.L.S.D.K.E.R.^.(.^.!.R.^.(./.H.^.xX0X!.K.).6XxXK.H.wXwXW.J.L.R.4X^.H.H.Q.4X=X4XJ.g.f.m.J.Y.=X",
"W.~.^.6X/.K.K.P.K./.R.E.R.R./.Y.Y.T.a.}.x - 1 q [ a.b.M.H.S.J.m.d.x.L.R.R.E.E.W.4X/./.0X0X7XE.R.L.L.L.K.R.E.E.^.K.L.M.j.f.b.C.C.T.T.J.M.j.j.j.m.L.M.j.j.v.B.8.9.:.7.j.8.O.o.| U S V B m x i < 4 q p J [  .O.r.u.b.v.j.j.j.j.l.z.x.m.M.H.J.J.M.N.k.j.j.j.k.M.M.M.J.Y.H.M.Y.E.Y.k.z.x.H.L.R.H.z.L.S.G.x.L.L.H.M.J.M.J.J.J.R.L.x.l.H.z.M.J.V.6. .A h w h ' |.N.x.L.Y.M.M.H.H.k.l.z.:.R :.g.H.J.L.f.z.m.m.M.b.8.) E T R R q.M.M.k.j.x.H.E.W.R.H.x.k.J.M.j.8.5.) X.q.N.N.T.Q.T.J.T.&X-X;XQ.M.M.M.Q.9X5X=XE.J.J.Y.T.Y.E.W.R.H.D.H.H.M.N.v.5.4.R R R X.N.N.M.v.j.m.f.9.k.M.Y.=X4X5X4X/.4X/.W.W.E.W.W.-XY.R.H.H.R.W.4XR./.W.E.4X0X8X0X0XnX6X^./.6XqXcXnXFXnXwX8XW.E.E./.wXqX0XwXGXnX8XE.R.0XcXwX/.R.K./.Y.=X4X=XW.4X8XwXE.R.H.R.^.4X/.E././.8XW.Y.E.W.Y.E.Y.Y.R.R.E.7XqX6X^.W.R.Y.Q.Y.x.H.x.x.x.H.H.D.D.H.R.R.Y.L.L.J.B.W 0 # % y @.C.k.z.<.7.M.N.j.j.M.N.M.j.k.Y.W.W.E.wXcXwXR.l.h.x.J.J.M.x.H.D.D.D.L.x.x.x.x.x.L.R.W.R.4X=XL.H.H.l.<.H.L.L.H.x.H.L.L.L.L.R.H.H.R.R.K.c.L.7X7XJ.E.4X7XE.L.L.W.=XY.Y.5XT.=XE.M.m.M.J.J.j.8.f.M.%X;XuXpX",
"W.R.^.6X6X^.^.(.6X).K.!.R.3.l.c.R.Q.i.&.q - 3 8 A t.b.Y.J.H.J.m.z.H.L.L.H.L.R./.4XE.R././.E.R.R.S.S.D.K.K.K.K.R.W.R.M.j.5.8.v.N.b.M.m.j.m.m.m.m.M.J.J.M.v.v.j.j.7.9.,.5.t.t...W A B v b x i s s a p K Q [ O.X.T T T T 5.w.j.j.j.j.j.j.m.k.j.j.j.j.j.j.j.j.j.j.j.j.M.k.j.k.T.Y.j.z.M.H.H.K.L.z.S.L.L.L.K.R.J.J.M.m.J.J.M.L.x.l.x.S.z.m.B.v.|.%.V 8 4 p ' a.OXY.R.E.Y.E.Q.J.m.m.L.m.<.:.<.<.x.E.J.z.m.M.M.v.9.T Y E E X.v.N.T.J.j.k.x.H.H.H.H.J.T.M.M.q.5.X.Y Y O.6.q.u.b.b.v.b.N.C.T.N.M.N.N.N.T.M.J.N.j.j.M.M.k.k.M.k.j.k.Y.Q.J.N.B.v.8.R E R 5.C.v.v.J.m.,.:.f.j.J.5X5XW.E.4XwX4XE.E.W.E.E.4XW.Y.W.E.W.W.W.8X4X4XY.x.L.W.8XqXwX4XR.H.S.R.4XqXwXMXwXeX8X&XT.W.-X8X9XiXGXiXeXqXwXcXGXnXqX8XE.H.R.L.=X5XW.Y.R.W.4XR.R.E.4X8X8X4X/.^./.'.W.Y.W.4XY.H.Y.E.E.E.E./.6XR.D.H.H.x.Y.T.M.M.k.k.D.H.H.K.R.D.Y.Y.Y.Y.R.Y.n.~ y # # i } %XY.x.j.k.M.N.T.Q.M.N.j.j.M.T.T.Y.H.Y.E.H.h.j.M.N.M.j.j.M.N.M.x.x.H.M.m.x.k.z.m.H.J.E.=XQ.T.Q.=X=XT.M.M.H.J.M.m.M.J.M.Y.Q.R.R.E.R.J.Q.T.=X4X4X7XW.m.7.=X9XT.v.v.v.b.N.v.v.T.N.q.8.b.8.b.&X:X&X>X>XC.",
"/.R.R.(.).^.^.).(.^.K.(.^.D.R.^.E.N.t.} 7 - 9 w W a.C.-XE.z.7.9.M.M.x.x.x.M.Y.R.W.Y.Y.E.R.D.x.D.z.l.G.L.L.H.S.L.J.k.5.,.Y E U ) v.v.j.j.N.J.M.f.j.M.M.v.f.8.j.j.M.j.9.6.t.%.@.[ A v z z p i a d L p G J W ! D N Y E Y X.q.v.k.m.j.f.f.j.j.f.8.j.j.j.7.7.7.w.j.j.7.w.h.7.h.k.H.M.k.M.x.k.H.H.x.S.z.S.x.g.g.l.f.9.j.M.j.f.l.g.g.x.H.m.M.v.B.@X-.c 1 9 x ( %.XXT.k.7.k.J.M.j.f.m.J.J.k.J.7XS.S.J.z.v.m.M.v.q.+._ T X.+.b.C.N.%X%XM.M.M.k.k.M.Y.Q.;Xv.u.+.X.| P D ] o.+.6.t.i.i.u.v.q.6.5.u.&X;XN.q.7.w.j.j.j.b.M.M.j.j.j.j.N.T.Q.J.v.v.v.q.4.) 4.8.q.j.N.J.j.,.7.H.M.T.Q.Y.H.J.4XcX4XR.E./.T.E.-XW.M.W.Q.8X=XY.8X9XY.h.<.d.H.=X8X9X9X9X=XL.Y.Q.Q.Y.9X5X,XeX9X;X&X;XC.T.;X>X,X;X9XiXFXGX4XW.8X8XE.R.J.L.H.k.x.Y.Y.x.l.H.R.E.R.H.R.E.~.R.R.R.R.Q.W.Q.k.Y.W./././.E.H.W.R.R.Y.x.x.x.h.j.7.7.h.c.c.S.D.H.Y.Y.Y.R.Q.T.B.P y > # 4 [ *X-XY.k.x.M.j.j.Z.M.k.7.8.k.M.j.j.k.j.j.j.j.j.j.q.5.5.8.j.M.N.N.N.J.=X%XT.M.M.m.M.N.v.v.M.N.N.B.q.8.N.V.v.N.N.v.f.j.j.N.T.T.Y.Y.J.k.;X%XQ.%XT.T.J.f.m.;X%Xj.q.b.C.&X;XOXC.C.b.6.5.6.n.N.n.u.X.6.i.6.",
"~.U.S.H.R.K.K.!.K.(.!.!.R.F.R.x.T.u.| ' 1 - q q Q #.q.N.H.d.V.E.M.x.k.M.J.Y.Y.Y.H.M.Y.Q.N.j.7.7.f.7.j.m.M.m.v.m.j.4.T T U D Y +.+.u.n.B.u.r.8.8.8.8.6.6.6.r.6.X.X.) X...[ A Z m z z x b z i i a L a G G H ] C B U I ! O.u.u.q.8.q.8.8.q.q.8.8.j.7.5.9.,.9.7.7.f.j.j.j.j.7.7.z.J.j.m.h.7.j.k.j.j.k.H.m.f.j.M.M.f.j.M.j.7.k.k.j.J.N.B.B.B.e.y.} g 9 > p } =...+.4.9.j.j.f.m.=X-XT.5X=XuXMXE.J.7XE.J.T.C.b.8.X.T T _ O.n.v.4.8.v.5.5.w.j.M.M.j.7.9.q.u.+.|  .A B A I P P U ..o.| | Y Y D Y o.6.o.X.+.X.6.n.A.n.b.n.q.5.9.v.C.N.b.b.b.6.| T X.6.u.b.6.B.N.j.j.T.=XN.%XC.N.N.C.%X-X5X5XY.Q.-XT.T.&XT.C.C.v.&X9X-X>X&Xj.,.R ,.v.%X-X-XC.&X%XN.N.%XC.b.q.6.q.N.C.i.0.+.6.+.+.6.0.u.b.C.%X,X>X;X;XQ.T.-XN.N.v.8.j.T.Q.Y.Y.H.x.x.H.Y.E.R.E.c.D.E.E.Y.Y.Y.H.E.E.H.K.^.E.D.c.z.x.k.j.M.Y.M.M.j.j.k.H.Y.Y.R.R.R.Y.J.Y.Y.N.u.f 7 > - 7 { *X9X5XM.E.9XT.j.b.Z.8.) 4.q.q.) ) q.6.5.6.0.0.6.0.i.+.O.0.i.N.b.b.v.B.B.v.8.6.5.6.6.u.X.R Y T T 6.B.n.6.6.p.n.0.X.X.T 6.u.q.q.q.6.) t.e.i.u.6.6.r.6.p.u.6.e.{.#.!  .O.t.#.P P  ...U S C ] %. .W I C ",
"x.k.H.L.K.K.!.^.!.P.P.^.^.R.K.J.O.A h w ; - 9 r G @.y.6.9.V.L.L.J.H.M.M.M.H.H.J.Z.C.Z.i.+._ |  .t.t.i.i.i.t.O.| | U U ] W B C W @.s.s. .P A P W  .[ ! ! [ [ ! ~ ! { ' K m y 9 p 3 8 9 9 p p z x z G m x Z b c v Z @.=.....| U | O.6.6.O.+.4.8.q.j.9.,.9.d.g.z.H.g.f.f.j.j.f.7.,.<.f.j.f.5.5.8.8.q.8.8.6.6.8.q.q.q.u.q.q.q.8.8.8.i.#. . ...W v q 7 9 z G H W W ~ | +.6.B. X%X%XN.J.;XuXuX-XJ.L.L.m.J.T.B.9.R R R X.X.5.6.6.4.X.R 5.9.f.J.7.m.N.B.b.u.e.#.W j k A A Z V Z A A V B B j j B H ' [ [ W ' ..@.@...[ ' ] W P U  .e.t.e. .| U Y Y ^ 6.i.u.n.n.n.b.B.N.b.b.n.XXn.u.t.u.n.XXi.t.t.i.n.i.t...! ^ e.a.n.n.|.| P P ..XX@XXXa.|.i.t.t.t.t...] I C N A I Z V Z b v B Z A A W ] ..#.t.t.%.t.i.XXOXC.C.Z.b.b.n.N.T.C.b.8.j.M.N.M.R.K.H.H.L.Y.L.H.H.H.H.D.S.S.D.H.j.j.b.k.j.q.b.N.b.b.b.b.C.T.Z.j.Y.H.J.M.M.N.i. .k 0 7 7 0 A {.AX;X%XN.m.N. XOXOXn.s.t.O...] ! I W Q H W W ' ] W C S I !  .#.y.}.y.#.^ U U ! ! ~ ! Y U o.#.o.O.y.@... .[ [ ] W W [ ..{ S Z J J S A A A V B S H Q [ Q J J H v l l l b L b V / / G 8 7 w q 8 8 8 q ",
"R 5.C.=X=XR.L.L.K.L.S.z.z.H.k.9.A g t ; - - 2 9 x G Q ^ o.r.V.V.v.b.b.M.N.N.N.C.Z.i.+.I B k 0 0 v V S H W W W H Z v V Z b l l b z Z Z z h z v v b v v b V b V v l x z p i 4 > < 4 < 9 i p x b b G K m y y 8 1 1 m ( ' H ] W A I W ! ] ! U ! X.o.6.4.9.9.8.f.f.m.f.8.8.8.8.6.4.X.X.6.8.6.+.+.+.O.| | | ] ] ] | | o.O.o.o.o.o.o.o. .~ ~ W H z q 7 7 8 p b Z H Z A A P ~ ^  .o.o.o.6.r.N. XN.v.V.8.6.u.v.r.6.6.6.e.u.u.i.u.u.t.t.e.6.u.n. XT X.8.r.p.y.#.[ A v z b b x l l x x l p 7 7 7 7 8 u p p q h l z l l h h q h c v B V W ~ [ ~ P C B C P ~  .#.t.%.t.t.t.%.#.#.#...] W ! ] ] I V C C C C j c g h V W W P W [ H J ' @.} Q A W H A Z V v h h b p q p p q 8 9 9 9 9 q q 0 q h h k B V C A ' ..%.O.O...o...o.O.6.6.6.6.6.u.i.u.v.v.j.v.v.b.b.b.b.b.M.M.M.v.8.9.6.6.6.6.6.O.6.0.+.6.0.+.X.+.0.q.j.M.N.N.n.XXs.A 0 7 7 7 q Z } }.|. X@X@X|.|.oXoX.X&.[ Z h q 0 w 8 3 2 3 8 8 8 7 8 w 0 0 q g g q c c l l n V H H Q W Q ..$.} ' Q H G G m b z h y l z z y u y y 9 7 7 7 7 7 8 8 9 9 2 2 9 9 2 2 2 - 2 2 : 2 e e 6 > # # # # @ # % ",
"f Y O.u.u.b.J.J.m.M.m.v.N.;XC.6.V 7 - ; - - 3 e i i l V P ~ ^ ^ P U ! |  . .o.O.t...A k y 7 1 1 1 1 7 9 q u q q q q 9 q q 3 9 9 8 q 8 7 8 q u q 4 1 1 1 7 4 4 4 1 1 1 1 4 > # , < 3 i x M G K K ( ' K x z y u u l x z l Z Z V V V Z Z Z Z S I !  .O.t.e.u.u.u.e.6.O.o. . .| | ] ! ] [ ] ! W W W Z Z V v v v v v v v v v v v v c Z H G b x p i 9 4 9 p p x L m b l c v V B B B B C P ~ ^ o.o.^ U !  . . . .#.y.s.%.$... . . . . . ...#.#.N D P ~ I W H z y a a i i e 9 9 9 9 3 3 3 3 3 2 4 4 2 3 8 8 8 3 4 3 3 9 8 i p p p l z b G b b l l l z V V Z J Z Z Z V v V v v c l h l l h q 7 7 w w 7 1 1 - ; 8 q q q q q 8 q n x l y y 8 8 8 9 4 1 > > > % # # # # # # # # > 4 4 7 8 q h h g f f h k v Z Z B B V v V Z A A W ' [ [ ] [  . . . .O.#.#.#.#... ...O. .P B C C C S S A I I V A I S B V A ] ] | | I W } ' p 1 1 > 4 p x x z V W Q W H H H G G b p 4 # @ @ @ @ + @ @ # @ @ O @ O @ # - - - @ > > > > - # : , - - 1 i x x a i 2 2 2 1 > - - - - - > > > > > > > > > > 4 > > > > # # - : # # + + + + O @ # # + % # + + @ + + + ",
"k C I I ! O.u.e.+.6.u.p.OX@Xa. .K r - 2 , , 5 a 5 , > 9 p l h h l z V Z Z Z Z Z v l w 1 1 4 < , % - - - - - - # > > : # # & & # > > > # # > > # # # # # # - # # - > - > < > > 3 i a M K ( } } } *.*.' H v y 8 8 i 9 4 8 u p p p p p p p l z b Z H [ @.@...@. .~ W J H A Z Z Z Z z z z z z l p q 8 8 8 3 4 4 4 4 1 1 7 7 7 7 7 7 4 q e 3 2 2 , % % 5 i e e a a p i p p p p q u p l l c V Z G V v v v v c v Z J J Z Z v c h l c c b l h z 0 h h g w q 9 > > 3 3 , , , % % % , & > , , , , > > > , , > > > # % > > < , > > 4 3 4 4 3 2 2 2 9 e a a 8 8 8 4 1 1 1 - - - - - - - - - - @ @ @ # # # @ O O O # # @ @ # - # # - - # - - @ @ @ @ O O @ @ O $ $ + + $ & & % , > > ; ; ; 1 8 w w 0 0 q q q y y y y u u y y y q l v b l g h l l l c z b V Z H b z c z z q 7 0 7 7 w q y h h h h h h k h h h k k h 7 7 p p > > > > 3 a L a 1 - ; ; - - 1 1 # # # # % # @ @ + X X + + + + . . + + @ @ @ @ O O O . X + X   . X . O O O + % + O O O O O O O O O @ O O # % @ @ # > % # # # % % % % # @ @ @ @ @ O @ O @ @ @ O O + + X . X X + + + ",
"8 y z Z ' *.@.' ] ! [ $.&.} J G K e , < , & 6 s s & % , , % > , 2 3 e e e e 9 9 1 > - # # $ & & % $ $ $ $ # # $ & $ $ + + $ $ + @ % % # # % % % % % % % % & & > 4 2 1 4 5 5 5 a a L K ( } *.*.&.-.&.*.} K m x p i 3 4 > > > 2 2 < < < < < 3 9 9 q a x x l x z p e e e 9 3 < 2 , > % % % % # @ @ + + + + + + @ @ + + # # # # % % @ # # @ @ $ * + + 6 5 , & < 5 < < 6 6 6 < , < 5 5 e e e i a a a i i i 9 9 i i 9 3 4 4 > - - - > > % @ > - 3 4 - > > % # + * * * & * * * * & & & < & & & , , , , % % # # + + + + + + + # % % % # $ + + + $ & % % @ @ # @ @ # # @ # @ @ @ @ @ O O O . . . . . . .     . X . . . . + O O O @ @ @ @ + @ @ @ + + + + O $ $ X . X $ + & , < 2 2 e r r r q r p l l p q p p p p p p p p p r p n l q w 9 8 8 8 9 8 9 q q 9 9 2 2 2 2 2 4 8 9 4 7 8 q q r p p l l h q w 7 7 ; 1 1 > > > @ # > , 5 a x p 1 ; ; ; - ; 1 1 # @ @ # @ @ . . . . . . . . . . . . O @ O O O @ $ X X X o o o o o X o + . . X X X + + + + O O O O + O O + $ @ @ & & % % + % % & % & & % % % & & & $ + & , & $ + $ + + + * % & * + ",
"> - 1 9 M J K V Z v z Z m l y p i > # < , , & & < & * * $ X + * + + $ $ + @ @ # > , < < , & 6 6 6 & & & & & & & & & & $ $ $ = = , < 5 6 , , < 6 , , , , < < < < 3 9 3 9 a i a L F K ( } &.-.-.}.}.&.&.&.*.} } ( x i 3 2 # # > # % $ + + # # # # @ # # # # # # @ @ $ $ $ $ + . . + . . . . . .     . X X X X X X     . . . . X X $ $ + + + + $ X . * 6 & $ # # $ + o + + + + * & & & & & & , 6 5 5 5 s 6 < , , , # # # @ # @ @ @ + & + & # % # % # @ + % & & & & & & & & & & < 6 s 6 6 6 5 5 5 3 < < , , , , , , % , < , % % > , $ + + + + + @ @ @ @ @ O O @ @ O @ @ @ O @ + + . . . . . X . . . . o o o . . . X   . . O + # # : : : : 2 5 5 5 < 5 i a e 5 s s 5 < 3 e e p x L L G G G G m b z l b b b b b b b b b b b v z g g l p p p r e e e e 2 9 e p p i i p x n n l n x b L G K J K V h h c g 7 7 0 w 8 q i 3 q p n b L b b q r l r w ; - - - - @ O O @ # @ > , , , , < 5 e L L L a 9 - - > > % * X o o o o   . $ $ $ $ * & $ $ $ $ $ $ $ $ & $ $ & & $ & , , , < 6 6 < < < < 5 < , , , , , , , 3 s 5 < , , , , < , < < > # ",
"i 3 , > 4 4 4 1 1 ; 1 1 1 > > 4 : @ # , , < 5 , < , & & % * + + * & & & & # > , : , < < < < 5 5 i s 5 5 3 < < < < , 6 6 = = 6 s 5 s s 5 3 < < < 5 5 3 3 5 5 5 3 e p p n x x F K } } *.-.}..X.X.XoXs.a.{.&.} } K K p i i > > , $ $ + + + + + + + . . . . . . . . . X + + X . .   X . . . o     o     o . o . X . X X X X X + + + X . . . .       X $ & = , & + @ .   . . . X X X X X X X X + + $ X + $ + + + + . + $ + + $ $ $ $ $ 6 & 6 $ & # < # # % , < < 5 i s s s s s s i i 5 i i i 9 9 9 9 9 9 3 3 3 3 3 3 3 s s 3 4 > > < < < , , < < , , > , > > > < < > - # # @ @ @ # # @ # % $ + + + X .           . . $ $ + + # > 2 9 g g B V V V b v g n n n n n l l b L b x z v V V H H H W Q Q ' ' W ! ~ ~ ~ ~ ~ ~ A H C V B c B V V V V v c c l l z b G G G F F G H J Q Q Q / ..*.*.$.s.}.y. .[  .! A C A W [ @.@.Q [ $.%.t.t.t.y.{.}.}.}.&.@.[ [ c c c b H J J H Q Q Q Q / } *.-.$X$X#X}.} H V c l x a , % & 6 6 5 6 e e 9 2 > 2 , , , , , , 3 3 e e e e e e e e 3 s s i u u u u i a a i 9 q q q p z x z z a p p p p p i y p i 4 ",
"i i i i 9 4 4 8 1 4 4 4 4 3 3 > > : , 2 2 i a e i i i i s 5 < % % , , > > 2 2 9 9 e r p p p a a a a p p p p p p 9 3 3 e 5 5 i d a a a x x a a a a a a a a a a a l b b V G G Q *.&.&.{..XoX@X@XOXOXn.XX+X.X{.}.*.' z p p 9 3 5 , % $ $ $ $ $ $ + + . . . + . . . . . X . . . . . .   .         . . . . . X . . . X X . X O O O + $ + + * & + + & , & < 5 i 5 > # @ . . . + + + . + O O O + . . . . X + + + + $ $ $ $ $ $ # & , & & 6 $ , , 5 , 9 9 e e 9 9 e a a a x x x x z z l p z b b l l l z l h y y h l l p x l u y z x z p p r q q q q 0 8 0 q l z m K K G K G b l p p p x x x x a i 3 < > & $ $ + $ $ $ $ + # - - 9 x ( *.&.{.|.|.y.#.o. .$.$.$.$...! ~ W H Q ' ' } &.{..X{.{.s.y.%.@.%.t.t.t.u.u.e.e.e.t.#.e.#.^ ! ^  .^ .... .[ ! W W ~ W ~ Q Q Q Q Q Q ~  ...#.#.y.|.@X|.|.@X2XyX2XOXp.n.p.i.OX1XdXyX+X<X<X2XyXpXrXaXpXsXn.r.|.*X*X@X@Xa.|.+XfXAXAX3XoX|.|.XX|.oX+X1XfX+X<X2X3X3X2X*X@X{..X*.b 2 , , : e t 7 f g g g z b n l r r r r r l l z l l l l l v x x x z z m Z Z J { ' ' ' } } @.*.*.@.} } @.} } } [ ' ' } [ Q ",
"L x x a p u q q 7 1 8 8 1 8 u i 3 2 2 9 q q l c V G v l y z p 8 8 9 q p z h q z c v Z V V Z Z V J Z v Z Z v v Z v c z b b b F ( G K K b F K G z G m b b Z Z H H H [ } [ [ $.}.{.oXoX@X@X*X2X2X;X,X>X>X*X2X1X+X{.%./ Z b x l e e 3 > , < @ O @ # O # # @ O O O O O O O @ O O O O O O O . . O O O O O $ $ @ O O $ @ + + @ O O # , < , > # # # , < < e p r r r q 9 - , - @ # # @ > # @ O O O @ @ @ $ @ + O @ # # % % , , , , 3 5 5 5 e e e p n l p v l g v H H A ' ' W W ' ' W W ~ ] W [ ! ] P  ...! ..%.s.%.@.&.}.&.&.&.&.s.}.s.%.}.s.%.#... . .] | U ! %.a.a..X#X$X#X#XoXoX#X#X.X#X$X3X$X-.*.' v p i , # , < > > - b Z H }.$X$XAXKXKXKXKXKXaXaXpXaXpXpXyXaX<X<XyX<X1X1X3XCXZXZXZXCXZXZXVX3X1X3XVXKXrXtXpX>XtXKXtXaX<X2X2XOXn.:X2XOXA.n.A.XXn.i.s.|.|.y.#.@...[ @.#.p.p.@X|.n.:Xe.^ R ) N.N.8.%XtXpXuX9XuXtXtX9X;X;XMXMXMXmXcX7X5X=Xm.j.=X5X%XJ.-XN.9XKXKXpXpXpXrXtX;X-XuXiXtX9XT.=X-X5X=XJ.5XiXtXrXaXoXW 0 ; 1 r g ~ ~ ! e.#.^ $.$.&.$.~ ~ [  .[  .$.#.#.@.#.y.$.%.s.}.}.s.s..XoXXX+X+X@XOXOX@X<X2X@X2XyX*XOX@X*X:X+X*X1X2X3X2X<X",
"J K K H Z z h f h h h c h h v l F b l l c A $.oXy. .~ [ W S B A ' J Z S ' @.@...#.#.O...#.s.{.{.a.A.i.O.+.O. .U O.] I W [ } { ' } *.&.@.} @.$.@.@.@.....@.@.%.$.}.{.|.oX#X#X+X+X3XyXZXpXpXpXMXpXuXiXiXtXrX2X*X@Xt. .W A V v l q r 4 4 9 9 q q 2 4 2 4 > - > - # - - - - - - - - - @ - 1 - @ @ 2 e 9 1 - ; 2 1 - 1 9 9 9 2 7 7 7 7 8 9 q u q q 8 l z b b V V B c 7 l l 0 0 q 0 w 7 1 1 ; ; ; - - - - > > 2 3 2 2 1 2 8 8 r p x l l l z b v c V W W [ ..#.t.#.y.oX|.XX@X<X<X*X*X*X2X2XyX2XZXZXZX*XyXdXZXdXyX2X<X+XdXdXdX3X2X2XyXZXdXaXrXrXtXpXtXtXtX2X>XtXtXrXrXtXyX2XtXpXyXyXZXZXyXCXAXAX3X3X1X.X@.} G p 8 > > 4 H &.{.@XdXZX+XOXrXuX5X9XSXLXKXuXiXiXuXiXKXMXiXpXKXKXZXVXVXVXSXKXVXVXSXKXVX>X,XeX9X>XtX>XC.>XpX;XuXKXKXuXrXKXKX%X%XtXVX;XN.OX>X2XOX@XXXa.%.] W @.e.i.OXOXn.b.N.6.E 4.9.8.9.8.;XpXLXGX9X=XY.E.8XnXwXHXHXmXxX^.F.!.7X^.K.S.J.5X8X4XwX4X^.4XnXFXFXFXLXnXnXFXFXFXFXDXLXDXnXcXqXwXmXMXMXdX<X~ g 7 w z H #.p.gXaXsX@X2X<X<X2X<X<X2X2X*X*X2X2X;X:X>X2X2X2X*X*X>X2X;X:X%X;X;X9X9X9X9X9X9X9XuXGXiX5XuXiX;X5X9X9X9X;X&X&X&X",
".Xs.=.[ ] ] [  . .[ ..$.#.%.s.&.&.-.{.#X<X1X3XdXyXyXaX2X<X<X*X@Xu.@X1X+XOXOX2XtXrXrXrXaXVXKXKXVXKXKXVXtXrXtXtX;XOXOXA.n.t.O.%.y.#.#.t.y.{.{.XXoX+X@X*X1X2X3X3X3XyX3XsXsX2XaXZXPXKXKXKXKXSXSXMXiXMXMXMXiXiXtXrX*X;XOXn.a.y.t...[ W A A A Z H Z c v c l q q y q 0 g c c g g c c g l g c G Z v V Q $.-.*.[ Q Q Q Q H H A C A W W W W W W W W W ' [ ..$.%.%.t.t.e.#.y.}.}...! $.%. .B B S S B B B B v z c c z v V Z Z G Z Z H H Z v W H W ~ ~ P  .{.@X2XaXrXrX;XrXpXKXKXSXtXtXpXKXKXpXpXMX;X9XiXKXiXMXMXiXrXtXpXuX;X;XrXKXPXKXpXiXSXMX9X4X4XqXqX6X6X4X4X4X/.W.E.E.E.cXW.4XiXiXeXuXiXSXSXSXiX,X>X>X*X*X#X}.' z 1 1 q .X3XdXpXKXpX&X%X%X9XuX5X=X5X5X=XT.Y.M.J.=X5X5X9XeXVXGXSXiXnXGXHXcXwXeX8XW.W.-XeXtXC.b.b.n.,XtXC.Z.Z.;XpXpXrX%Xv.b.C.%X%X,XrX>XC.A.XXoX.X..j k W oXn.OXu.+.0.0.6.) 5.) ) 5.n.tXVX9X,X&XN.7.1.j.Y.nXFXGXwX8X!.F.F.S.E.8X8XW.R.4XnXmX4XR.4XnXFXDXDXnXcXnXHXHXcX0XqXDX4X/.0X8X6XqXwX5XaX X~ q 1 8 b ~ #.B.gXaXaX;XpXtXrX;X;X5X9X9X9X&X9X9X5X=X5XeX9XiX9X9X9X9X4X=XR.7X7X6XqXcXcX6X/.6XxXvXxX6XmXDXqXxXqX7X^.^.K.D.z.",
"3X2X*X@XOX+X1X3X3X1X2X3X2X2X3X<XAXyX3XdXZXKXKXpXMXKXKXKXKXKXVXrX&X&X;X;X>XtXuX9XtXuXuXiXMXMXiXiXGXeX8XeXeXeXuXiXpX;XN.N.&XOXi.O.O.^ | u.@X2X2X2X2X2XtXpXVXVXiXiX;X5XuXMXpXrXrXSXLXKXSXGXFXKXMX9XGXnX9XiXFXKXSXiXpXrXrXrXaX2X2X*X<X<X1X+X|.XXoX{.oXoX.X}.}.}.{.}.{.oX#XoXoX#X#X#X#X#X$X#X#X#X1X1XoX#X<X1X<X#X#X<X3X3X3X3XaXaX3X1X1X1X+X+X*X<X2X3X2XyXyXdXdXdXdXpXKXZXZXaX*X3XdX2XOX|.|. X XOX|.|.oXoXoXoXoXoX#X#X#XoX.X}.{.}.t. .#...#.#.#.e.|.2XdXBXtX9XiXMXwXqXqXMXFXFXFXFXFXMX5XQ.9XwXnX5XwX9XL.H.j.7.f.J.T.M.=X9XiXnXMXFXmXMX/.K.G.L.P.F.F.F.F.!.!.R.R.!.(.!.0X!.!.0XxXxXcXwXqXeX8XT.Z.T.-X&X2X2X@X=.Z q w c 1XZXZXuX9X-X-XtX-XQ.Q.9X9X&XN.M.j.Y.Q.Q.-X-X8XnXwXcXwX0XW.~./.0X0X0X/.D.Y.'.eXeXVXq.) b.,X,X&XC.n.&X>X%XC.,XtX,Xn.q.q.k.b.Z.,XVX*XXX@X$X%.f 0 } XXn.OXn.i.OXq.q.C.OX,XtXtX,X&X,X%X-X&XN.w.7.k.Q.9XeX8XE.W./.D.2.E.H.Y.8XnX8XW.E.wX4X4X0X0X4X4X6XwXqXcXHXHXqX/.0XE.c.S.R.^./.8X4XL.%Xp.A 8 - 3 F [ {.:X:X5XrXrXMXFXnXnXnXnXqX8X8XR.W./.W.W.4X0X0X7X6X6XE.K.K.E./.^.^.^.6XzXlX(.!.lX).).hXhXlXzX6XlX6X^.P.F.G.g.g.",
";X9XtXpXVXSXVXVXSXpXVXSXpXVXVXtXrX:XJ.J.%X=X&X-XuX5X9XMXMX4X=X9X9XY.J.Q.=XeXiXiX9X4XY.Y.Y.R.W.4X4XE.Y.R.W.W.Q.=X=X5X9X;XC.b.b.n.e.X.X.n.<X3X2XrX9XuXuXiXeXeX8X-XQ.=X4X9X5XT.J.E.9X9X8X5X8XqXeX8X9X5X=X=X4X8XqXqX4X4X5X5XrXuX9X;XN.N.C.N.b.C.&XC.&X*X@XOXA.OX*X*X2X3XyXdXyX2X3XdX2X2X@Xn.n.n.n.i.n.6.6.OXtXaX2X2XaXpXpXZXZXaX;XOX%X&X;X;X;X-X%XT.9XuXiXMXMXMXSXFXiX9XMXKXMXiXuX5XuX9X;X;X5X9X;X;X;X2XtXtXtX2X>X>X>X;XOXOX&X*XOXn.#.y.t.e.t.n.&X>XuXuX5X5XnXnXwX0XcXnXnXcXcXnXcX8X4Xz.M.T.9X4X9X8XR.L.z.9.,.7.7.7.f.Q.MXHXLXFX5XL.F.G.F.K.!.K.P.!.K.(.).!.!.(.).(.!.!.).6X6XqXnXcXwXwX8XY.N.N.T.;X>X1X.X@.Z 0 q V 1X3XrX5X-XE.Q.,X9X>X>X9X,XZ.j.M.j.&XuXGXKXGXGXGXnXwX/.H.S.D.R./.^./.8X0XeXeXeX9XC.5.5.&XrX&XC.C.C.&XtXiXrXiXSXSXKXC.5.b.>XtX2X>X*Xi..X$X-.0 0 &.1XOXC.q.N.2X&X;XyXZXKXVXOX0.q.*X&XOXb.9.,.5.N.-X;XuXuXW.T.8XQ.7.<.k.Y.x.H.8XGXFX4XwX0XE.L.K.E./.qX4XW.0XnXwX0XDXR.L.E./.E.W./.J.L. Xe.H 9 % 3 F H {.;X=XE.5X>X&XqXnXFXLXFXwX7X/.4X/././.0XwXwX0XW.7X7XE.L.K./.6X!.~.^.(.(.(.~.!.xXzX).(.)._.!.!.F.!.^.K.G.g.g.G.",
"8XwXnXnXGXFXGXFXGXMXGXFXGXGXGXiXd.V.H.E.J.H.H.J.4XW.=X5X5X=X5XwXwX4X8XnX8X4XnXnX9XQ.L.Y.H.l.l.H.W.qX9X4X8XnXiX=X9X-X%X&X>X2XOXu.t.6.u.n.OXOXOX&XC.Q.=X4X4X/.W.R.4XR.c.x.K.R.Y.L.j.H.Y.J.x.M.Q.;XQ.=X=XQ.H.x.K.7XK.K.R.E.^.4X=XR.L.z.h.j.x.E.W.M.M.N.N.k.j.b.T.%XC.C.%X&XN.q.v.N.N.8.4.q.v.v.v.N.M.5.9.j.C.T.T.-XiXtXuXuXtXiX9X9X4X4X4X4X4XW.E.E.K.K.^.7X6X6XqXcXcX7X6XcXqX7XE.E.W.R.K.J.E.7X4X4X4X=XE.M.z.h.j.j.M.k.j.j.N.Q.T.b.t.y.t.t.t.A.&X&X-XeXeXqXcXwX8XqXFXcX4XR.Y.W.8X0XQ.k.h.) <.7.T.Y.8X;XW.N.j.7.1.1.k.Q.-XE.L.R.R.K.G.G.F.L.F.F.K.K.G.K.K.D.F.K.R.K.G.^.0X7XD.L./.4XqX9X=XM.j.8.w.N.,XOXy.] l 1 w G $X XB.J.=X=XQ.T.;XtXVX%Xq.7.j.M.T.&X=X9XMXGXGXMX4XW.R.R.R.E.E.E.^.Y./.DXDXW.Q.-Xb.q.6.b.%X>X&XC.T.w.N.pXSX9X5XuX;X>XtXtX&XN.b.v.n.O.t.#X=.7 7 @.1X%Xv.9.b.&XC.N.C.OX;Xu.) 5.q.C.n.B.b.B.b.N.b.v.N.;XtX;XN.T.-XC.T.j.<.d.L.5X8X4X4X8X4XE.E.7X6X7X/./.K.E.wX8X/.qX6X8XcXwX4X4X4XJ.=X%Xp.H q # < F &.<XtX=XL.W.-XT.D.E.4X0X/.E.R.R.4XE.Y.Y.Q.W.W.R.^.^.^.K.E./.^.R.!.!.!.!.R.R.!.!.~.0X).R.(.).!.F.K.D.S.D.K.R.D.z.",
"DXmXmXmXmXDXFXHXHXFXHXHXnXwX0X7XP.K.L.L.K.R.4X9XM.Y.Y.J.M.Y.Q.E.4XS.R.qXwXnX8Xm.M.k.M.Y.H.7.<.7.Y.4X9X4X4XMXiX-XT.&X>X>X*X@XXXi.6.6.t.i.b.b.v.j.9.h.k.Y.Y.Y.Y.Y.D.D.H.R./.4X/.Y.Y.W.-XW.Y.T.&X,X-X;X;X;XQ.L.E.7XK.R.R.R.^././.E.!.G.g.S.F.R.R.D.l.z.l.d.d.z.D.M.W.%XQ.T.N.m.j.j.9.R ,.j.J.J.Q.9X&X;X=XY.k.k.Y.=X9X4XQ.E.W.4X8XwXE.R.K.F.F.K.!.!.!.!.^.).6X6XzXvXmXvX).P.!.K.K.^.K.L.R.R.!.^./.6XcX0X/.H.G.l.S.H.D.D.D.H.E.4XW.T.i.y.t.t.t.a.OX&XC.&X&XW.W.Y.R.8XR.Y.Y.W.4X4XW.W.Y.Y.-Xb.w.) w.8.Z.N.N.n.w.,.,.5.5.w.M.T.T.M.x.H.K.P.K.S.S.L.L.S.L.L.H.L.R.E.E.E.E.E.4X7XR.H.Y.T.v.M.q.4.5.X.5.B.OXA.%.' p - ; b oXp.B.%X&X&X%XC.C.C.j.7.7.N.T.T.5X5XY.M.E.5X4X9X=X=X4X4X4XR.D.l.R.H.Y.8X8XY.M.Q.Z.j.1.9.T.5X=XJ.Q.J.x.f.m.9XnX=X9X&XT.C.M.j.9.4.u.n.+X#X$.0 7 Q u.%XT.&XrX-X8.E R R v.C.;X;Xv.q.N. X;XrXMXKXrXT.j.8.N.C.j.j.C.%XSX9X8XwXW.7.<.S.7X7X7X6XxXvXlX7X7XqX7X7XcX8XR.W.qX6XcXnXqX4X6X7X7X=Xr.H 9 > 9 K .XOXQ.c.l.l.D.c.R.^.W.L.H.Y.W.W.-XY.k.j.k.M.Z.J.4X7XW.K.K.E.R.H.R.R.R.R.Y.Y.R.R.D.R.R.R./.W.U.Y.R.D.c.H./.4XR.x.",
"(.(.(.(./.(./.^.^.^.0XcX0X0XxX0XvX/.S.S.K.^.E.J.Y.k.M.Q.J.7.<.h.d.d.R.4XL.4XwXW.z.f.x.Y.J.z.M.Q.Q.Y.N.J.J.Y.Y.T.N.N.N.OX;X*Xa.o.%.#.t.u.A.C.b.7.k.N.E.W./.W.~.R.R./.^.H.S.R.0XcXwXeX8X-X;X8X&XT.T.b.k.J.E.R.H.D.D.K.K.K.!.(.(.!.F.g.G.F.F.F.R.R.R.K.D.c.D.R.R.E.Y.T.Y.k.k.M.j.,.7.j.j.j.x.Y.Q.E.=X9XqXY.H.T.E.H.z.k.x.H.H.x.l.g.S.F.K.R.!.!.K.F.K.F.P.!.!.!.~.).6XzX!.G.K.!.K.!.G.K.!.K.G.l.G.F.l.F.R.R.F.F.G.S.l.D.D.R./.4X4XQ.n.t.%.t.t.0.b.,X,X&XY.Y.R.Y.R.wXwX4XW.W.W.Y.k.k.W.j.k.b.i.) ,.5.5.+.5.0.5.) 5.b.w.R ) k.T.Y.Y.4X7X7XE.x.S.R.R.x.L.x.D.H.R.Y.R.K.7Xx.x.W.5X-X=XT.N.T.v.4.X.) ) u.i.s.y.} x - - b {.|.sXpXrX%XN.n.N.b.j.j.8.7.M.;XT.5X=XJ.m.k.x.H.=XQ.Y.J.Y.R.W.W.z.E.5XW.Q.-XQ.M.8.7.j.N.%XN.m.T.M.l.x.J.^.7X7XL.J.v.T.9X5Xj.9.8.r.:XdX3X@.f 7 B n.uX=X5XMX5X%Xf.j.:.v.;X9XT.9.v.v.8.5.8. XsXrX2X;X8.u.&X%XN.&X>XpXMXSXMX9X4X4X5X7XE.E.7XlX6X6X6X/.xX^.L.7X7XK.7XE.z.S.7XE.S.L.P.7XJ.O.V q 1 l } @XN.Y.W.^.^.R.Y.R.E.K.z.l.H.H.k.Q.J.j.7.7.j.M.Y.4XwX0XE.D.R.W./.E.E.R.R.R.R.R.R.R.R.D./.0XD.2.R.c.Y.4X8XE.L.Y.=X",
"E.E.E.R.R././.R.R.^././.4X4X7XE./.^.^.nX0XK./.D.l.x.R.Y.=X8XR.x.d.d.g.K.qX4XL.H.E.^.W.R.J.Y.Y.J.R.H.z.l.j.j.z.x.M.h.j.N.%XOXi.| ] W I | u.C.J.m.Q.Q.5XqX4XR.R.^.R.K.K.H.K.E.4X0X0XnX4XE.9X9XT.M.M.N.M.M.x.Y.E.R.G.R.(.!.K.F.R.R.l.l.c.S.S.c.D.R.H.R.l.c.wXwXR.L.H.L.R.R.H.j.j.M.M.z.x.R.4X=XE.W.W.7X0X4X4XW.H.j.M.k.h.h.h.j.1.R 1.d.c.D.H.R.R.R.R.H.F.R.^.^.R.D.S.S.7XR.K.^.H.E.H.H.R.R.R.H.R.E.D.c.c.Y.R.x.l.l.l.x.D.H.H.H.K.Y.u.t.t.t.0.0.i.k.-XZ.h.l.z.d.j.Q.Y.L.E.4X=XM.h.j.j.N.Z.C.Q.k.1.q.5.Y N N E 5.b.%Xq.R R ,.j.Y.E.E./.K.D.H.E./.E.H.R.R././.H.Y.E.D.D.D.D.D.E.8X5XT.T.T.M.v.q.8.q.N.q.u.+X$.z 4 - K {.:X%X-X;XC.C.Z.w.9.9.b.T.N.T.&XY.Q.=XT.J.Y.E.M.H.J.E.R.E.E././.4X0X4XY.E.5XY.7.7.4.j.C.b.b.C.T.;X=XQ.T.H.x.L.4X=Xk.T.-X,X5X%X%XT.rXaX@X! f w B  Xm.%XMXuX5XMX=X=X5X-X%X;XpX2Xn.X.D D Y P | t.e.| ! Y e.+X*X2XOX:XpXKXrX%X>XrX%Xm.f.m.R.L.L.K.S.7X6X6X7X6XqX7XL.K.^.^.^.^.7X7X=X=X6.A v 9 ; j #.B.j.W.E.eXE.K.R.^.6X7XK.S.K.K.H.7XE.L.x.7.1.k.Q.H.R.R.H.D.Y.R.R.D.K.^.^.R.^.).~.^.F.F././.F.l.S.S.R.K.S.L.R.H.D.",
"4XR./.cXDX8X/.'././.W.R.R.R.L.S.H.c.D.E.E.E.0XW.H.H.E.Y.R.5X4X9X=X9XwX4XK.L.L./.K.E.E.L.H.H.M.M.l.z.l.M.M.k.x.x.D.h.x.T.%XOXn...] J ! O.N.=X=XJ.H.R.4X4XR.D.R./.0X^.D.L.^./.E.H.H.R.L.L.4XW.x.k.k.M.M.j.z.x.D.D.K.!.^.!.R.R.R.R.D.l.g.l.z.D.L.W.x.R.H.H.8X4XY.W.K.K.K.L.H.l.j.j.H.J.R.=X4X4XE.L.K.J.E.R.Y.L.M.z.h.h.w.7.w.w.w.1.h.z.H.R.R.H.H.D.D.D.D.R.R.R.R.R.z.z.L.L.H.H.c.D.H.H.Y.H.H.D.H.H.H.j.d.d.h.d.f.k.H.J.L.Y.L.H.H.M.n.#.O.O.i.i.6.) k.H.z.2.2.d.7.f.M.W.4XR.H.H.M.k.j.Y.k.8.b.C.M.k.8.T E N R 6.v.q.q.9.,.,.,.<.h.c.c.D.R.E.^.R.R.H.D.D.R.R.R.^./.R.l.R.6XE.D.x.H.M.H.T.T.M.v.j.b.C.n.|.2Xt.l 1 > } @X;XT.J.C.N.b.j.j.7.8.N.&X-X;X5XMX9XQ.J.J.5X9XQ.Q.Y.H.x.D.H.E././.R.H.R.W.W.Y.M.b.C.%Xq.R 5.%X%Xb.b.T.5X9X=XW.=XJ.M.T.N.T.iXGXGXSXKXOXo.! w 7 .XdX5X;XKX5XH.4X7Xm.=X5X;X%X%XC.i.X.U |  .! P C k k k N ! t.t.O.T 6.6.n.n.B.n.C.N.N.v.k.k.l.g.S.S.K.^./.K.K.^.6X0XL.E.7X7XE.^.7X5XN. .A n 9 7 B e.N.5XiXM.M.4X7XP.^.7X6X/.^./.6X6XE.K.L.S.z.l.D.E.R./.^.R.U.R.R.!.6XF.F.R.F.G.F.K.G.K.^.^.K.G.K.^.K.R.E.^.R.S.c.E.",
"R.S.D././.D.D.~.R.Y.D.H.R.E.E.K.H.H./.4X4X8XE.x.R.M.J.x.z.M.H.=X5X9XW.H.L.^.7X6XL.E.E.K.x.m.M.H.H.x.l.z.z.j.z.z.c.l.x.J.N.N.u. .Q A ! t.C.%XR.E.L.H.H.H.Y.E.E.R.R.H.H.H.H.H.D.x.c.x.D.L.R.x.d.j.M.M.M.k.z.x.D.D.R.R.R.R.R.R.R.S.c.l.l.D.L.L.H.H.x.Y.H.L.4X=XL.E.L.L.L.L.J.J.J.J.J.Q.W.E.^.7XE.S.H.S.S.H.x.x.z.k.h.j.j.h.w.j.M.Y.Y.E.4X4XE.H.D.c.S.D.R.R.U.U.R.^.L.L.S.E.E.H.L.D.D.H.H.H.x.c.c.x.x.l.h.z.l.h.g.l.g.l.x.H.K.R.W.Q.u.O.O.s.t.0.6.w.M.Q.c.2.2.d.7.f.H.R.R.x.z.M.J.k.Q.&XM.w.k.T.Z.k.j.w.9.9.q.N.N.j.N.N.J.j.1.h.R./.R.R.F.l.g.l.F.^././.R.K.!.R.K.D.D.R.^.R.H.x.f.,.m.T.T.N.M.M.Z.N.OX@X2X#.l > 4 *.+XuXuX=Xb.q.j.M.-XT.N.N.=X5X9X9X5XY.m.k.M.=X5XY.W.E.Y.L.L.R.R.E./.E.E.W.4X4X=X&XM.%X&Xq.R 9.n.b.b.w.f.m.J.Y.R.W.Y.Y.=XT.N.9XeXiX9XT.v.t.W 0 z .X1XdXrX%XN.J.E.f.=XQ.J.N.b.v.q.6.6.X.O.O.| ! U P D C ^ ^ ^ T Y T Y R T 6.6.q.v.q.N.N.M.M.L.K.R.4X^.4X7XK.S.S.L.L.L.E.4X=XE.E.=X-XB. .H l 1 7 S p.;X9XeXQ.x./.6XvX7X6X0X6X).).6XxX4X^.R.H.H.H.H.L./././.R.D.U.R.~./.K.K.!.G.g.G.!.K.).).K.K.^.R.G.).^.D.S.D.c.R.cX",
"E.R.E.R.R.D.D.U.R.R.D.D.R.E.R.D.Y.D.E.h.g.Y.k.x.E.k.M.M.M.j.<.7.=XJ.f.f.W.6XR.z.L.K.K.L.H.x.M.H.H.x.k.j.j.j.z.z.z.l.z.k.q.0.o.I A Z U t.N.M.x.S.K.L.c.l.H./.E.D.x.H.R.Y.D.l.l.x.z.H.Y.L.H.l.h.j.M.M.M.x.D.H.R.R.R.K.H.D.H.H.D.z.z.z.D.R.E.L.x.z.H.M.l.H.4X4XH.H.S.S.H.L.R.E.Q.=XY.Y.H.x.H.R.E.K.L.H.S.S.x.l.l.x.k.M.M.h.7.h.Y.-X/.4X4XW.H.c.c.c.S.D.Y.Y.D.D.R.^.^.E.S.W./.D.R.D.D.H.Y.H.x.c.c.z.x.z.c.D.D.z.l.h.l.z.x.H.H.H.H.m.6.o.O.i.t.O.A.tXeXW.H.x.x.f.f.Y.4XL.l.S.H.x.z.x.E.M.k.Y.W.Q.T.T.k.J.=X-X-X-X-X&XeX9X9XE.c.H.R.H.R.F.F.S.S.F.F.S.R.!.D.S.R.R.F.R./.E.Y.Y.E.E.k.<.f.m.m.j.j.T.;XC.n.p.a.! q > 3 } +XpXKX9XC.n.k.Z.&X;X&XT.T.-X;X&Xk.j.j.j.k.T.9X5X=XW.W.E.R.L.R.E.E.6X0XW.4XqXeX&X;X;X;XT.b.q.q.v.j.j.M.Q.5X4XW.R.L.j.Y.Q.Q.=X8XiXLXuX;Xs.j 7 G }.ZX;XB.N.-XJ.H.=XuX9X=XN.M.b.v.q.+.X.X.X.^ | e.t.e.o.u.X.Y Y E E E R T Y R 6.b.6.j.j.7.f.L.R.E.wX^.4X8XqXwX8X4XL.Y.J.J.T.-X;X&XN.B. .Z l 1 ; A |.%XQ.Y.T.z.R.K.zXzX6X6X6X).^.^.4X0X/.R.H.H.H.H.H.W.^.^.R.D.U.R.^.(.^.^.!.K.^.).K.!.)./.R.^.6X!.l.D.R.K.R.6XwX4X^.",
"R.E././.W.Y.c.l.c.c.c.S.H.R.H.x.1.h.T.j.h.T.H.W.=XN.Q.Q.J.j.7.j.j.f.f.J.4XR.S.S.S.z.l.z.z.x.z.l.7.g.z.k.M.k.z.h.z.h.j.f.9.+.| S Z v P O.b.m.z.z.L.E.E.H.x.L.R.E.8X8X4X=XW.J.x.h.h.H.Y.x.l.x.H.H.x.x.x.x.x.D.H.R.R.H.R.H.H.x.x.x.J.H.L.L.H.x.x.x.M.z.h.x.R.Y.x.x.S.H.L.H.H.H.J.E.Y.m.j.z.x.S.L.E.K.H.H.H.H.x.x.H.H.J.x.d.1.f.Y.4XR.R.H.c.h.g.l.D.D.D.S.S.D.D.U.R.H.L.g.S.H.g.c.g.D.L.R.H.D.D.D.D.D.x.c.c.l.l.c.D.z.c.c.x.S.S.x.j.u.|  .t.s.u.OXVXeX4XY.H.L.x.m.Q.7XK.H.L.H.z.l.x.H.x.H.T.T.N.k.k.x.S.R.5X9X5X5X9XiXqX8X4XW.4X/.S.F.F.F.G.F.F.R.!.F.R.G.G.F.F.G.D.H.Q.E.Y.H.M.Y.=Xf.7.7.9.j.-X9XC.u.o.^ C q - 4 K XX&X9X5XrXtXN.k.j.%X9X-X&X-X=XN.M.j.f.7.7.M.9XiX8X=XE.J.x.x.R.4XH./.4XW.W.8X8XQ.9X;XT.v.8.4.9.w.v.b.N.=X5X5X8X8X4XH.J.Y.Y.=X5XeXMXSX*X#.S t p .XfX2Xi.6.N.%XT.9Xz.=X9X%Xb.v.v.q.v.N.n.i.q.6.u.u.OXi.N.8.6.8.E E ) X.T E E 4.b.q.8.7.E R d.x.D.E.E./.4X0X8X4XT.M.M.m.M.C.-X&XC.v.o.P z p 1 - S @XN.Q.Y.R.H.qXP.P.6X!.R././.^.^./.R.R.R.R.R.R.R.H.R.R.R.R.R.R.^./.xX/.!.^.6XcX0XK.D.^./.^.R.^./.4X^.4X7X6XnXnX4XE.",
"L.l.l.D.c.2.<.2.l.l.c.S.D.D.D.l.1.Y.iX9XeX8XT.T.T.M.N.j.7.,.,.M.7.5.f.J.T.k.g.L.S.z.g.l.x.S.z.l.g.z.z.j.j.j.j.h.z.h.j.7.4.O.X.P v v I O.b.M.S.L.E.W.E.L.D.D.H.H.8XeXeX8XQ.J.H.J.x.L.R.x.g.H.E.H.H.x.D.D.D.c.S.D.R.R.R.R.H.x.M.Y.M.H.Y.R.H.z.l.x.k.z.x.H.x.h.l.H.z.H.L.H.H.J.R.E.J.k.k.H.L.H.L.R.H.L.H.x.x.H.J.J.M.M.z.7.1.j.Y.W.H.D.l.g.g.l.H.R.R.D.D.D.U.R.R.H.D.H.l.l.l.g.l.l.D.R.R.D.x.H.H.H.c.S.D.D.S.S.S.D.l.l.l.x.H.L.L.J.6.| O.y.t.O.a.>XT.-XE.D.L.E.J.k.g.L.R.S.c.D.L.L.H.R./.Y.x.Y.Y.h.E.L.S.E.4X8X9X9X4XE.E.4XwXnXwXR.R.K.F.l.2.l.R.).!.!.K.F.F.S.l.c.h.k.k.j.7.f.J.5XM.f.8.7.f.=X>Xb.u.^ P C p - > b #.V.-X-XrXtXN.T.T.>X9X-X%X;X;X&X=XM.k.j.k.Y.=X=X8X=XQ.E.Y.L.E.0X4X/./.4X4XY.J.T.j.T.N.5.R R ,.q.Q.T.J.M.H.R.4XwX0X/.4XY.Y.5XQ.M.v.v.OXoX' ; 2 } y.yXyX8.v.uX-Xm.f.J.Q.N.m.N.T.M.-XrX;XN.N.N.N.C.%X&X;X%XN.N.J.%X%Xv.q.8.5.6.v.N.w.7.9.j.Y.Q.Y.R.^.4X/.H.d.,.,.,.j.j.b.b.u.5.X._ D j z a 2 ; S |.N.M.Y.4XwXnX/.^.).R.R.^./.E.R.E.H.E./.4X/.E.R.D.U.Y.R.W.^./././.6XR.E.6X).^.6XxX).^.R.K.R./.0XcXnXqX/.7X/.L.D.4X",
"R.c.g.g.l.l.c.S.R.~.R.D.l.l.2.1.M.eX9X-XT.j.j.k.7.) ,.R R ,.,.8.v.v.j.j.j.<.:.7.L.S.S.H.L.H.S.S.H.H.x.h.7.h.j.z.z.j.h.7.9.0.O.U h v I O.b.J.R.R.6XE.D.S.H.D.c.l.k.N.T.Y.k.z.M.Q.Y.M.H.x.h.H.E.H.Y.H.H.H.D.c.c.S.D.D.H.H.x.j.k.H.z.k.H.E.Y.H.k.z.H.x.H.L.z.d.l.H.z.x.H.H.L.R.E.R.H.H.L.R.R.R.R.R.J.Y.H.f.f.H.Y.J.H.x.l.h.x.L.R.R.H.S.z.x.D.R.R.E.R.R.R.H.R.R.R.H.H.J.R.k.h.x.x.H.D.R.Y.x.c.D.H.D.l.D.K.R.R.K.L.D.E.E.L.H.L.H.S.j.+...%.y.%. .t.OXN.W.Y.x.R.5XY.k.d.S.L.S.D.R.E.R.c.H.W.W.Y.4XwXW.R.R.K.L.W.9X5XJ.M.k.Y.4X4XW.Y.z.c.D.H.H.c.l.l.c.D.l.S.R.E././.W.x.j.1.,.7.j.j.m.J.j.m.m.j.T.-Xq.u.o.Y A z - > z ^ 9.-X=XC.Z.w.-X9X9X5XQ.Q.;X9X9X9X-X5X9X;X5X5X=X;XQ.T.=X4X4X/.4XwX4X/.4XW.J.J.Q.j.Q.Q.M.j.5.8.T.%X;X9X9X9X5X4XW.L.H.W.Q.Q.8XY.j.;Xv.*X3XA - 9 b %.i.*X2XaXrXJ.-X5X4XQ.J.Y.=X&XT.J.-XJ.8.v.T.=X5XT.5X4X=XJ.E.iXGXuX&X&X;X%XC.C.N.v.j.T.8XqXqX8XW.R.E.W.L.h.7.7.j.,.4.5.5._ Y D D D P K x 1 1 A a.b.7.M.W.wX/.K.P.^.E.^.E.R.H.H.R.E.4X8X4X/.^.R.H.R.Y.R./.8X4X/.^.H.H.4XxX^.L./.nXwX/.K.D.R.7X7XE.E.R.R./.E.l.2.D.",
"D.E.R.S.H.4X/.D.l.c.S.c.l.c.D.H.h.;XQ.W.T.7.7.7.R E E R j.T.j.w.) 8.j.7.,.:.<.m.J.L.L.K.L.S.S.L.l.m.M.M.k.M.k.k.x.z.j.7.9.u.O.W f v W o.v.T.W.E./.R.L.D.l.d.g.D.h.7.,.,.j.M.k.j.M.7.f.x.z.H.E.R.Y.H.D.H.D.l.l.c.c.l.l.z.j.h.j.k.M.z.j.x.H.J.J.Y.W.x.x.H.x.l.k.x.H.H.x.x.H.L.H.z.x.L.R.L.R.4X4X=XY.=XL.f.d.M.Y.M.D.c.l.z.H.E.R.c.L.H.H.L.R.E.R.H.Y.Y.H.H.D.D.D.D.k.M.4Xk.d.H.H.R.H.R.H.c.l.c.D.S.D.D.D.S.S.D.K.E.E.R.H.H.L.K.K.J.u.| ] ..t.s.i.i.;XQ.H.Y.4X4XQ.W.6XK.S.R.7X^.R.H.4XE.8XwX/.E.E.H.g.E.^.H.x.R.M.,.,.<.M.;XW.Y.T.W.E.H.z.h.c.H.H.H.H.h.z.T.E.W.4XY.Q.b.w.5.8.j.f.8.j.5.m.T.M.=X9XN.6. .U W p @ # z o.>.M.m.q.q.) Z.M.N.T.%X;X9X9X%X=X-X9X5XY.Y.5XuX9XT.k.J.W.4X4X0XE./.E.H.Y.=X5X4X9XQ.M.J.J.,.,.T.;X;X5X5X4X9X8X8XnXE./.W.Y.M.j.j.j.%X*X}.H 7 - p W Y O.N.;X>XT.5X=X4X4X=XM.7.7.j.m.=XM.f.M.=X-X9X4X4XH.=XMXMXFX4X%X-X;X>X9XtX;Xj.N.j.M.Y.M.J.W.W.H.R.E.W.E.N.j.w.R E E T T T Y Y | &.*.x - 4 H t.N.&XiXT.4X^.^.G.S.R.E.R.D.x.H.Y.E.E.E.R.R.^./.^.R.Y.R./.0X8XW.R.^.E./.4X7X6X/.z.L.R.K.S.z.D.L.S.D.D.g.d.c.D.D.H.",
"D.R.^.^./.8X8X/.^./.4X6X8X8X^.Y.M.h.k.j.j.j.7.j.7.R ) w.T.;Xb.M.j.J.=XJ.J.M.7.L.x.x.S.S.z.z.z.S.g.j.j.j.j.j.k.M.h.x.j.j.8.0.t.I c v I O.C.-X4X/.R.S.c.H.L.c.g.z.7.,.,.,.7.f.j.k.k.z.h.g.d.d.2.<.g.c.Y.R.D.c.c.D.c.D.D.h.h.j.j.7.7.7.1.1.d.k.H.H.4XY.H.H.H.x.x.H.x.x.x.l.H.E.R.x.l.x.S.z.z.L.W.4XY.j.j.M.m.J.Y.j.f.d.7.<.=XY.H.x.L.L.x.g.H.4XE.l.d.h.l.d.2.h.H.E.8Xk.k.=X-Xz.f.H.H.H.H.D.l.c.D.D.R.S.l.F.K.D.K.R.K.R.K.H.L.L.L.m.+.| | .. .] O.i.%XT.J.L.W.8X9XqXqX7XE.K.E.E.K.D.H.R./.W.R.H.D.H.E.R.D.l.f.7.,.:.R 7.7.,.,.8.M.N.M.Z.h.M.Y.k.T.N.M.N.T.Q.Q.T.M.w.,.5.w.b.b.v.q.8.B.m.v.j.j.v.b.v.6.| ! A p # # K |.v.J.&XN.u.M.M.M.j.j.N.=XQ.Q.9X9X%XJ.%X;X-X-X;XQ.9XeXeX=XW.8XR.E.H.Y.H.z.Y.Y.d.k.J.=X=XJ.j.j.j.T.=X9X9XW.9XnXqX4X4X/.E.H.j.j.j.j.v.@XoXJ 1 - 8 C D 0.u.5.j.N.5X8X4XW.R.Q.W.E.J.5X5X4X4X8XwX8X^.4XW.R.E.7XqXcXwXiXT.T.%X9X9XC.N.N.N.-XiX8XH.D.E.h.H.Y.k.k.N.M.7.R 4.X.X.X.X.t.t.t.@.Z p > - W s.N.9XM.Y.=XS.F.K.R.H.E.M.x.Y.M.Y.E.W.H.W.E.D./././././.4X/.R.R.W.4X4X5X7XR.S.z.z.g.g.l.x.H.H.D.c.2.c.g.2.H.R.H.R.",
"/.^.K.l.l.H.(.8X/.0X0X6X/./.^.R.Y.k.k.h.j.k.j.k.M.1.7.j.N.C.j.M.j.-X;X7.7.k.7.7.m.J.H.g.g.H.S.g.g.g.j.j.k.j.h.h.h.z.h.j.8.6.O.A 0 l W #.N.T.E.R.F.F.F.R.L.z.G.L.f.1.<.,.7.h.k.Y.J.M.l.g.d.g.l.z.l.c.D.H.H.H.H.H.D.x.z.k.Y.T.h.R E ,.7.1.,.<.h.H.M.k.z.x.H.x.x.H.L.H.H.H.L.H.x.x.x.H.H.x.x.L.R.E.Y.j.k.J.M.M.j.:.,.f.m.k.=XJ.J.Y.H.x.l.l.g.d.g.z.d.h.h.j.h.z.x.J.T.j.7.k.Y.M.x.H.H.L.R.R.E.R.K.S.S.K.R.R.R.R.E.^.H.L.D.x.S.L.L.v.X.] ] .. .! ` X.v.%X=XL.L.7XqX4X^.K.L.K.R.D.D.R.4XE.D.l.c.H.E.4XD.c.l.f.7.7.9.,.9.8.8.9.,.5.j.j.j.b.k.b.b.w.q.8.9.b.b.8.q.T.N.9.,.5.k.b.b.v.v.v.8.B.N.N.T.N.b.q.e. .! S p > # K #.v.-X5X&X;X;XM.Q.9X=XM.J.5X9XiXuXT.j.m.T.T.N.M.;X9X5XW.M.M.W.L.D.R.8X8XE.Y.H.7.L.Q.4X9X9X-XQ.T.7.k.E.=XY.=XwXmXwX0X/.H.M.M.M.j.8.q.XX{.J 1 # 4 ] Y 0.i.v.C.Q.5XnXnX8XR.E.8XqX4XW.4XwXqX7XE.L.S.qX7XK.S.S.K.7XwX4X4XiXiX5XJ.f.k.M.T.eXGXGXE.l.2.D./.wX8XJ.f.7.j.j.j.Z.>X>Xn.5.| Y S z p 1 7 } XX&Xj.k.9XQ.f.^./.R.M.J.k.j.M.k.Z.k.k.h.Y.4X4XcXxX0X/.E.H.x.c.H.W.4X4XE.K.L.x.g.<.g.g.l.c.x.D.D.x.H.E.L.D.E.E.L.H.",
"S.R./.8X6X/.^.R./.7X/./.^./.^.R.x.h.z.j.z.z.7.d.-XY.T.J.m.j.7.k.-XT.Y.M.M.j.f.T.Y.J.z.g.z.L.S.g.z.l.k.M.Z.M.j.h.h.j.h.v.q.6.o.C 0 l W #.N.Y.R.!.F.R.R.R.E.P.^.^.W.Y.M.j.7.<.1.d.H.H.H.H.H.x.j.g.z.z.l.c.H.R.R.H.H.H.D.k.k.M.j.<.k.N.N.k.7.7.f.h.z.z.x.L.R.R.R.R.L.M.M.L.L.S.S.K.L.L.H.x.x.M.M.x.M.j.j.M.m.j.,.E :.f.J.J.Q.m.m.m.H.f.d.f.m.k.k.k.7.7.h.j.j.h.7.7.w.8.7.9.7.k.M.J.Y.H.D.D.R.R.R.D.l.K.(.^.^././.E.H.D.c.z.x.L.H.j._ ]  .....U P Y T 8.k.z.x.R.=XW.W.L.K.W.R.l.l.R.R.H.c.l.l.c.D.H.L.L.L.H.M.M.M.b.b.j.7.7.5.5.5.7.9.8.q.8.5.w.5.5.E Y ) q.n.b.5.R ) 5.q.q.8.6.8.v.B.v.r.8.q.b.N.N.s.t.$.H p # # K }.N.=X%XC.&XQ.j.M.=X9XMXiX;XY.&X;X&X&X&XJ.f.9.7.7.j.M.J.k.H.4XR.H.R.4X8X4XW.W.Y.4X9XiXMXMXiXiXiX9XuX9X5XQ.H.L.^./././.Y.Y.Y.M.7.w.q.u.%.Z 1 # 1 ] 0.OXC.b.-X9X9XE.4X4X4X4X0X0X4X4X0X0X/.^.6XcXDX^.^.^.R.D.D.R.^.S.L.4X4XY.J.Y.iXT.J.x.R.4X0X8X0X/.E./.4XW.x.M.W.uX9X&X%XN.q.8.8.T U A x 1 ; A e.u.N.T.C.j.J.qXL.4XY.T.M.w.5.) 8.9.7.<.j.D.S.K.L.D.Y.E.E.H.c.l.c.L.x.l.g.d.7.<.:.l.h.g.h.x.x.x.x.l.c.l.c.L.H.D.R.",
"/./.8X8X0X0X0X6X^.K.D.K.^.8X/.R.E.H.H.z.c.c.z.Y.Q.Y.Q.T.M.j.j.J.T.Q.Y.7.f.Q.Y.J.&Xj.7.k.H.z.l.S.z.k.k.M.Z.M.k.j.h.k.j.j.q.0.O.C q l A  .v.Y./.).~.!.!.^.0XcX6XE.R.Y.Y.Y.H.z.h.l.H.L.R.E.R.H.l.d.x.z.z.z.D.H.H.H.H.Y.H.k.j.j.j.j.M.M.k.k.M.M.k.j.h.h.z.x.H.H.H.H.H.H.J.Y.L.S.L.R.K.L.H.H.H.H.k.f.7.7.h.j.j.7.,.R 7.j.m.M.T.M.v.8.m.m.l.j.M.&XY.j.j.j.j.k.k.w.1.,.9.7.8.9.,.7.k.M.H.H.c.c.D.R.!.R.F.D.K.R./.4XE.D.D.x.z.x.H.L.M.8._ ] ..=...] P Y R E R f.H.x.x.R.R.L.R.E.H.l.c.L.D.E.4X4XR.D.x.D.H.H.L.H.x.k.k.M.N.v.j.j.j.8.7.7.q.5.5.Y R q.5.q.5.Y E ) 6.5.) 5._ ) 5.9.X.X.4.8.8.r.v.B.N.OXC.B.a.}.}.' i @ # ( #XN.M.T.%XC.N.M.=X=X=X9X9XY.J.9X&X;X9X9XQ.j.w.j.T.&X&X,X=XW.8XR.W.H.H.R.4X4X=X=XW.7X8X9X4X5X9XiXMXiX-XQ.4X7XK.E.H.H.L.J.J.N.k.j.M.v.t. .Z 7 # 4 ] OX3XC.b.9XiX4XL.S.R.0XwX4X4X8X4X/.^./.0XcX0X/.^.).zXzX6X).7X6XK.S.H.l.g.x.H.8XW.E.Y.R./.4X/.R.0XE.R.E.R.c.k.Y.Y.5X9XJ.j.M.M.M.9.X.W b 1 1 C o.u.C.n.n.%XM.j.J.T.M.T.C.N.v.9.v.5.j.M.M.l.d.g.z.R.R.R.H.c.l.l.x.x.x.H.x.j.f.z.m.x.z.j.z.x.H.x.l.H.D.c.D.H.S.D.R.",
"JXzX(.!.^./.)./.^.R.R.R.R.R.R.R.S.D.^.E.Y.D.l.D.g.z.H.E.R.H.J.W.=XQ.J.f.k.5X-XM.J.f.7.j.x.g.g.H.g.f.h.h.7.7.h.h.h.M.j.w.8.u.t.A q h B | v.T./.(.~.~.^.6XxXmX0X^.L.H.L.E.R.L.H.H.E.R.Y.L.L.H.H.x.z.z.x.x.D.H.H.H.H.H.x.H.Y.Y.k.7.j.M.N.N.k.j.k.M.k.k.x.x.D.H.H.x.H.Y.E.H.S.D.L.H.R.L.L.L.J.J.M.z.7.f.w.h.7.9.7.j.N.N.N.N.M.N.N.B.f.J.T.M.k.j.j.8.N.b.b.N.Z.j.7.9.9.9.9.5.7.,.7.j.l.x.H.R.E.(.^.R.!.H.D.R.E.H.c.l.x.x.x.x.J.J.j.,.U ] ..@.@.[ ] ! ^ R :.z.H.g.h.H.l.x.H.m.x.x.H.H.H.E.8X0X/.R.H.Y.D.D.H.x.k.k.k.M.J.J.J.J.H.k.l.z.N.6.4.E E 5.4.6.q.q.4.R ) q.q.5.) 5.5.5.X.4.4.8.9.6.9.6.u.B.v.6.t.y.%.J i @ % ( oXn.M.&XrX,XT.T.J.5X9X5X9X9X-XQ.9XQ.N.J.&X;X>X>XVXiX>X9X5X5X9XW.E.H.x.L.E.R.J.R.E.^.4X5X4X9X9X9XM.Y.k.f.L.4XW.E.R.H.k.k.j.j.Y.,X&XN.6.! Z 1 - q a.:X%XN.-XiXnXE.xX0X7X6XqXcXcXcX0X4XE.^.0XcX0X!.zX6X(.^.^.(.6X6X6X^.^.K.R.E.H.R.4X4X4X/./.^.F.l.c.Y././.H.c.c.H.l.L.qX/.E.qX6X8XQ.i.@.Z 7 7 B | u.N.b.u.A.u.:.9.5.,.9.6.5.5.T 4.6.v.%XT.H.H.L.E.4X4X4X/.H.c.g.g.l.k.M.H.H.H.J.T.M.k.k.M.J.H.k.j.j.d.l.H.H.H.E./.",
"0X`.0XzXxX0X^.K./.6XzX/.F.l.G.R.l.S.).8X^.R.l.c.l.S.S.R.R.L.R.R.8Xx.x.M.Y.;X-X&Xf.j.j.7.f.z.x.z.x.k.j.w.7.9.7.h.h.k.j.w.8.i.t.A q h S o.N.=X(.!._.).zXxXxXxX0X0X/.E.K.H.H.D.x.D.H.M.x.H.H.H.x.k.7.j.k.x.x.c.D.D.H.Y.Y.H.M.x.M.Z.Q.C.N.N.M.M.j.h.H.H.H.H.H.R.R.Y.k.J.L.m.S.L.K.H.L.S.S.H.L.J.M.m.M.N.M.j.7.,.,.j.%X&X%XN.4.8.v.B.v.j.m.J.N.7.9.8.j.w.w.k.b.w.w.8.8.) ) 5.j.7.7.7.l.H.R.R.R.R.^.^.^.E.E.E.D.g.g.x.x.M.H.Y.Y.T.j.5.Y U ] } ....#.t.X.8.m.m.x.H.Y.Y.x.H.H.x.x.H.H.z.z.x.H.E.4X/.E.H.R.R.H.H.H.L.Y.Q.Q.4X5X4XE.L.D.S.v.8.) E E 4.9.8.q.w.q.q.q.q.9.) 5.5.5.4.4.5.4.4.8.5.^ R X.6.6.X. .[ ! b i % % G oX:XJ.v.C.OXC.M.9X5XY.J.&X5X9XiX5X&XT.Q.;XuXtXiX;X&XQ.>X9X9XwX4XE.W.R.L.H.x.Y.wXE.K.K.4XnXMX9XE.Y.5XW.k.l.M.S.c.Y.H.M.N.M.N.&XuX9XOX6.! Z ; - b +X;X%XuXSX9XqXnXmXHXmX6X0XmXcXR.4X4X4X/.0XcXHXHXbXzX^.R.R.^././.0X(.6X7X6X0X/.6X4X4X/.R.R.R.^.^.l.Y.E.R.R.E././.4XS.R.^.7XzX(.nXFX2XoXQ 7 7 j Y 6.5.u.+.Y +.4.E R E R E E _ T X.u.v.C.J.J.E.L.L.R.4XwXwX4XE.x.g.l.f.g.x.J.J.H.z.M.M.J.Y.Y.J.x.z.1.1.c.R.R.E./.E.",
"/./.8XzXzX6X7X6X/.6X0X(.S.l.D./.cX).).R.R.^./.cX/.4XE./.R.S.E.K.H.L.L.<.,.-X;Xj.w.v.m.f.j.M.J.x.H.M.M.j.j.w.j.j.h.f.7.j.v.t.%.I 0 l A O.C.-X).).kX).zXxX0X7X7XxX^.K.D.K.E.E.E./.c.x.x.M.x.c.h.d.h.j.k.k.z.z.c.x.H.R.E.H.j.h.M.W.M.w.9.w.M.N.j.h.f.j.l.l.c.D.H.x.l.j.j.k.L.R.J.K.L.x.z.H.L.H.H.J.Y.T.N.M.j.,.R 5.N.C.N.u.E T 4.8.v.7.7.v.N.v.7.8.8.5.5.q.q.5.5.5.5.) ) 8.b.j.j.h.x.H.H.D.S.F.!.^.R.E.^.R.l.g.l.x.x.M.Y.T.Y.J.k.5.Y I { [ [ @.&.{.u.B.m.m.L.4X4XR.Y.E.Y.J.M.M.H.M.H.H.Y.W.8X0X/.R.R.K.D.D.L.K.E.^.6XwXcX7X^.^.P.L.j.w.4.,.,.4.j.b.N.j.8.7.8.9.8.v.q.q.5.4.4.4.5.5.9.6.r.i.n.B.6.T ] ! W v i % % F #X2XT.5.5.5.w.M.=XJ.Y.9XMX5XY.5X;X9XtXuX>X;X;X9X&X;X,XuX9X;X5XY.Q.8X4XL.L.H.Q.nXL.S.S.W.8X9XQ.m.5X5X5XY.x.x.H.x.z.Y.W.Q.Q.;X9X>XuX%X6. .A ; - K #XpXtXKXLX5X6XDX0XvXvX0X6X6XR.2.x.E.qXcXxXqX6X).mXvXxXzXcXcXxX0XzX(.).!.K.^.K.E.6X0XqXqX).!.R.R.cX8XR.S.H.^.^.K.^.g.K.).zXlXG.^.nX>X$X[ 0 0 N | q.E _ +.Y Y R 8.8.4.X.T +.n.n.n.OXN.:XT.J.E.z.z.R.R.R.L.L.E.R.R.J.m.z.M.T.Q.J.m.k.M.Y.Y.Y.J.H.M.4XW.8X8XR.R.R.c.",
"Y.~.8XzX6X!.R.!.!.R.K.R.F.U.(.zX).!.(.(./.).!./.cXmX4X4XE.H.7X7X4XK.E.z.7.M.J.M.N.M.m.M.J.J.L.L.z.z.j.j.k.j.h.7.z.7.1.N.C.6.o.W w q Z  .v.Q.6XxXzX_.!.(./.E.E.7X/.R.R.^.6X0X6X/./.R.H.z.l.l.l.z.T.T.Y.J.M.M.x.H.H.D.x.H.Y.M.k.j.Y.N.N.M.j.7.7.j.f.j.z.j.k.M.x.z.M.f.d.x.L.L.H.L.K.L.H.L.R.L.R.W.M.T.M.M.N.7.R R 9.8.4.4.E T +.4.) 8.v.q.8.8.w.q.q.8.w.b.j.8.9.8.) 5.w.j.j.j.k.H.x.H.R.R.R.K.K.D.H.R.K.c.z.D.D.x.g.z.k.M.M.M.j.5.Y U { [ [ @.}.oX*Xv.9.j.W.4XR.c.R.L.L.R.Y.H.L.W.R.Y.Y.H.H.H.Y.E./.!.F.D.K.E./.7XwXnXnX7X^.(./.P.k.N.j.j.7.,.M.J.7.N.J.j.f.N.N.f.v.j.w.8.9.9.6.8.6.8.9.8.v.B.q.X.^  .$.H 3 + % ( .X:XOXb.u.4.8.-X5X9XW.H.E.5X5X9XiX9X5X-X;X;X-XQ.Z.T.T.-XT.M.W.E.L.4X4XW.4XR.x.L.E.W.^.7X4X4X=XQ.5XM.M.J.x.x.M.h.k.W.&XM.Y.9XiX;XtX&Xt.O.Q 1 - } +XKXpXKXLXwX6X^.zX/./.6X/.D.c.D.H.R./.4X0XzXzX6X0X6X).6XzXxXxXxXlX(.).).6XxX)./.6X6X0XcXzX).(.).^.E.Y.D.D.S.D.K.G.2.!.!.(.zXP.lXqX;X1X[ 8 7 f U X.5.5.Y T X.4.;X2X&XN.6.6.b.6.X.q.v.&XN.m.H.f.S.l.x.H.H.Y.R.H.l.k.x.m.m.m.m.M.M.j.M.Y.Y.Y.J.L.Y.R.H.E.R.c.R./.L.",
"h.T.W.^.(.F.F._.(.).(.R.R.R.R.F.!.zXbX(.R.!.)./.^.^.6X0X6X^.E.W.4X4X4X4XY.k.M.N.Q.N.M.M.J.L.L.Y.x.z.j.j.k.x.x.k.h.j.h.b.u.6.O.W q l A O.N.9XcXcXzX).~.R.R.L.S.H.z.K.^.K./.6X6XxXE.J.E.J.S.d.2.g.j.j.C.-XQ.z.j.H.Y.x.x.H.x.k.M.m.N.m.Y.T.j.f.j.9.8.,.,.7.j.f.8.j.M.L.Y.E.Y.H.H.H.c.L.D.H.D.l.H.L.R.=XT.k.f.M.R 5.8.4.E +.4.R X.6.+.6.X.U U 4.u.v.8.q.M.T.Y.M.j.f.8.5.7.7.j.x.H.H.L.E././././.R.S.G.S.G.G.D.R.L.l.x.k.H.M.M.x.x.j.+.] ! ] %.#.y.1X*Xn.N.Q.R.^.(.F.R.H.x.H.H.D.R.4XR.c.D.4X8X/.W.E.R.R.K.R.R.^.6XxXxX/.E./.6X/.E.R.H.M.k.M.T.z.7.M.Y.E.4X4XR.H.R.4X=XE.M.j.m.M.m.7.T.,.9.j.N.j.T.N.n.s.} a > + > K .X@X2X:X*XC.v.MX5X4X7X7X7XqX5XL.4X4X5X5X-X%XT.N.&XW.=X8X9X5X4X9X4X4X4X7XK.x.x.L.qXE.S.x.L.W.5XuX9XiX9X5X5XeX4XJ.&XQ.W.Q.E.4XqX8X9X%Xn.a.W 0 1 @.3XuX9X4X8XxX0X/.E.4XqXwXeX4XH.c.R.4XcXcXzX/.(.(.!.).zXxXbXvXbXzXzX!.P.).).P.^.lX^.^.6X6X^.!.).6X^.4XW.D.l.c.H.R.K.S.^.6X!.R.0XxX6X&Xa.A 7 1 h  .u.9.R R 6.&X9X;X9X9X>Xv.5.f.,.R M.M.j.m.k.j.J.J.L.L.H.x.D.R.E.L.L.H.M.M.H.H.H.M.E.z.H.R.H.Y./.^.R.^./.E.R.E.R.D.",
"C.-XQ.c.F.F.I._.~.~.^.R.Y.Y.R.R.F.!.~.!.!.).(.!./.!.R.^.7X/.R.H.^.E.R.R.H.k.k.M.j.j.j.M.L.H.k.l.z.x.x.j.h.h.x.Y.H.H.k.N.v.6.O.A 0 p V | v.=X4X(.!.bXJX8XL.H.z.<.z.E././.7X^.D.S.7XE.K.K.H.z.l.M.8.8.j.N.Y.H.H.J.x.H.W.7XM.g.j.j.k.f.j.k.f.j.k.7.j.M.M.5.,.9.j.v.M.J.Q.W.E.Y.L.L.D.R.D.H.H.S.H.D.H.J.m.k.m.m.j.-X%Xv.9.B.6.N T i.O.Y N D Y T R R 9.8.m.J.H.k.x.x.7.9.7.7.j.z.x.z.L.W.4XW.H.D.S.S.g.g.g.z.S.L.H.x.x.m.m.m.x.x.k.j.t.#.....O. .o.t.T 4.N.=XL.F.F.G.S.z.c.D.D.c.S.R.E.E.E.Y.D./.0X/.0X8X8X8X/.R.R.R.c.H.R.^.6XxX8XE.h.H.R./.wX8XY.R.8XwXqX/.^.6X7XL.7X7X=XJ.L.J.E.Q.J.m.H.f.M.Q.MXuX;XXX@.a < % > m ! XX*XOX2XaX;X5X8XR.S.z.z.H.^.7X7X7XwXMXSXiX-XM.T.E.W.8X8XW.E.W.4XW.L.L.4X4X^.L.z.L.W.4X8X8X=XM.E.4XnXGX8XH.Q.eX-XM.M.W.0X0X4XY.=Xv.u.|.[ 0 7 -.ZX9X=XR.S.z.D.R.4X4X-X5X8XeXqXqX4X0XqX0X6X6XzXcXzXxXzX).(.).).~.zX(.^.7X6X^.^./.F.F.P.^.F.F.^.7X0XW.H.H.H.R.R.E.E.E./.^.E.xXDXxXxX5Xa.Z 4 1 v s.n.8.q.C.>X;XQ.Q.T.M.J.Y.J.k.7.j.x.L.H.J.k.f.M.J.L.L.H.H.R.W.Q.Y.L.H.x.j.h.z.H.E.Y.z.D.R.c.D.^.(.).6X6X(.R.R.R.D.",
",.k.M.z.G.G.F.!.!.!.^.E.R.R.^./.(.R.F.F.!.(.~.R.R.K.D.R.4X4X7X/.^.R.D.D.z.j.h.j.h.h.j.H.J.x.g.d.c.x.x.j.h.h.x.E.E.E.M.N.v.6.o.S q p B ! u.Q.^.R.!.qXcXW.D.z.g.<.z.z.d.:.2.z.R.4XK.R.=X9X9XY.j.7.M.C.&XQ.M.k.L.W.W.L.L.R.L.J.Y.H.M.l.z.j.d.f.k.j.m.T.Q.M.j.j.b.m.M.Y.W.W.E.L.H.H.H.R.H.R.E.H.K.c.x.k.M.Q.4Xj.M.;XM.N.v.v.4.E T +.+.D N E _ ) R R v.v.M.M.z.f.j.x.f.f.f.j.z.z.l.h.c.D.D.D.c.l.l.D.S.z.z.x.x.l.z.z.x.k.k.k.k.j.j.j.X.] ..O.#.%.t.6.T 4.b.Y.H.E.!.D.c.z.S.L.H.c.z.x.H.W.4XR.D.E.8XW.^.4XxXcXxX4X/./.R.^.^.R.R.R.R.H.8XqX4X/.wXcX8X4XwXnXcX8XcXFXFXwX8X5X5X5X9X9X9XiX9XiXSX&XT.Q.9X%X;X|.} x s % > Z ] +X1XOX2XZXSXuX4XL.W.nXnX4X4XW.W.Q.Q.=X>X9X>X>X-XW.W.-X-XT.T.Q.f.k.M.H.Q.5X4XY.J.W.=XE.5XuX5XJ.Y.W.W.J.c.D.R.E.W.j.k.W.8X/.R.H.M.8.u.{.! 0 ; &.3X-X-XE.l.z.E.W.E.W.9X9X9X=XY.x.W.4X0XwXqX0X0X0XcXzX0X(.~.(.).).lX).^.(.^.^.!.!.).(.lX).K.F.(.6X4XY.D.E.E.D.l.g.S.K./.0X0XvXmX0X7XQ.a.A 8 4 k y.OXB.v.C.%XN.j.j.M.M.Y.M.J.4XW.4XR.Y.x.H.T.Y.J.j.H.H.H.L.W.W.E.E.x.L.Y.H.z.l.x.H.D.c.H.H.S.D.^./.6X0X0X(.R.K.H.D.",
"R ,.7.c.F.F.F.F.^.!.^.4X4X^./.0XbX).R.!.~.R.F.G.S.F.R.^.^./.6X0XR.K.D.c.l.l.z.x.M.x.x.H.H.x.l.l.D.c.l.z.M.Y.Q.Y.R.Y.x.m.8.6.o.B q p B ~ u.T./.R.0X(.R.E.R.x.l.x.E.E.H.l.k.x.M.J.Y.Q.=X=XQ.M.M.N.v.T.T.M.f.l.L.W.J.z.g.l.x.L.L.k.S.H.J.M.g.f.k.J.k.7.7.k.J.m.j.j.M.M.H.J.Y.Y.L.L.R.E.R.E.E.K.R.D.x.x.M.W.9Xf.J.T.J.&X%XN.N.%XN.6.6.| X.6.0.5.8.b.C.N.N.M.j.g.z.H.L.J.H.H.M.x.x.z.D.l.g.l.D.c.c.D.D.z.c.x.z.g.h.k.k.k.k.k.k.k.k.j.0.O.t.t.O.t.t.^ ^ 6.B.m.H.E.R.S.L.L.L.K.H.c.l.z.D.D.E.E.H.D.R.R.^.4XwXcX0X^.R.R.0XE.E.0X0X^./.cX/.4X4XqXnXnX4XR.cXwXwXwXqX7X7X6X4XE.Y.=X9X9X5X;X9XuXSXuXtX>XtX>X%Xn.} x s % 4 ' %.+XOX;X>X%X9XuXGX=XQ.9XnXwX5X=XJ.Y.=X5X>X>XtXtX9X&XT.T.Z.N.N.%XM.N.M.j.f.m.Q.9XE.L.k.z.R.9X8X4X8X8XR.l.D.4X/.H.j.7.l.D.l.l.S.D.m.N.n.y.A 0 7 } *XtXKXMX4XmXLX8X5X5X;X-XW.W.W.W.L.W.4X8X0X/.^.^./.).).).`.`.0X`.(.(.~.K.K.P.^.^.zXlXxXlX!.P.(.6X!.R.K.R.K.l.g.3.g.l.R.0X0X).).0X^.L.u.A 0 7 k #.B.M.j.9.9.w.j.7.h.j.M.7.g.E.E.E.4X/.H.E.8X8X-XM.k.k.H.R.W.R.R.W.Y.E.W.Y.x.z.c.x.x.x.H.H.H.R.!.(.!.(./.^.R.K.H.H.",
"Q.w.1.x.!.^.!.!.(.!.^.0XqX6X(.).).).`.zX).D.3.3.S.F.!.!.R.R.R.!.D.K.K.D.c.x.H.R.Y.H.H.H.D.c.c.c.S.c.l.k.M.Y.H.x.x.x.d.7.4.+.o.C 8 q c P 6.T.W.R.0X(.^.8X8XY.H.H.Y.=XQ.E.T.k.9.,.j.M.N.N.j.j.N.;Xj.7.,.<.k.=X4XE.S.L.E.^.L.L.L.x.l.x.H.x.x.k.x.H.Y.f.<.h.J.Y.T.T.k.l.g.l.H.E.E.E.L.E.K.E.R.L.R.H.H.x.j.k.T.k.8X&X;XT.Q.;X9X>XT.M.i.N.OXC.v.u.b.%XN.b.j.k.k.M.Y.Q.R.R.L.L.H.H.H.H.W.H.c.D.H.c.l.l.l.g.h.z.z.h.z.Y.H.H.x.x.M.M.M.M.A.i.a.i.O.t.t.^ T B.;X=XJ.L.K.K.E.K.L.H.x.z.l.l.D.l.c.D.c.D.E.W.K.R.^./.^.R.R.R.R.D.R.xXcX4X^.6XH.c.H.0XnXcXqX4X4X/./.4X7XE.E.W.J.H.J.W.eX9X9X;X;X,X9X&XtX9XiXtX%Xu.[ a > # 1 [ XX*X%XpXVX&X9XeXFX9X=XQ.Y.=X8X4XW.W.W.&X&X;X,X,X%XN.b.v.q.8.j.N.N.T.;XuX;Xv.,.:.z.k.H.=X4XE.R.R.^.W./.0X4XR.K.E.D.L.E.K.S.F.^.E.Q.;X:Xa.S 0 7 } XX2XpX9X4XuXwXJ.Q.T.N.b.j.M.J.Y.4X4X=XE.H.H.E.4X/.^./.).(.!.R.!.!.(.).~.!.~.(.(.!.!.).(.P.P.(.(.(.R.S.3.l.R./.).U.F.G.U.!.!.~.zX6XR.u.C 0 7 j u.v.m.j.5.5.j.k.h.z.7.z.H.H.H.c.Y.D.E.R.R.Y.H.E.Y.l.k.J.W.E.H.R.4X8X4XE.c.l.x.H.R.D.H.H.Y.E.E.R.K.F.F.!.^.^.R.R.R.",
"9XT.Y.W.R.F.^.6X(.!.^.4X0X).~.!.!.~.~.).R.G.G.D.D.F.U.R.R.^.R.D.K.^.^.K.S.c.D.H.H.D.D.H.D.c.l.z.l.c.D.D.z.j.j.z.l.l.7.9.4.+.o.B 0 p V P 6.T.=XR.K.^./.R.H.Y.W.W.m.m.j.8.j.7.9.5.,.7.v.v.8.8.q.M.f.5.,.<.j.L.E.L.^.^.7X6X7X7X4X^.H.H.D.H.E.R.c.l.z.H.H.x.H.W.=XE.Y.x.l.l.x.Y.R.R.H.R.H.K.H.S.K.H.x.x.x.k.H.Y.8XY.h.j.M.j.k.J.k.M.u.N.C.b.v.B.N.N.M.j.f.j.M.Y.Y.E.L.L.L.L.H.H.K.R.R.R.R.H.D.l.l.c.x.k.k.x.x.x.H.E.E.E.Y.Y.Y.Y.Y.N.u.t.s.t.t.a.|.p.r. X%XN.T.W.^.7XE.R.L.H.S.x.S.H.l.c.D.D.D.E.4XR.D.D.D.R.R.R.^./.^././.R.R.R.K.l.6XK.R.6X0X8XxXcXE.^.E.R.^.qX7XH.l.M.Y.Q.-XeXeXeX9XiXiXT.;XT.C.q.N.e.W p > @ u &.2X;X%XtXSXVXMXwX8XiXGXeXY.E.=XQ.nX5XY.N.T.&XT.N.n.b.b.b.q.8.8.b.;X%XQ.T.j.R ) f.J.J.Q.T.j.:.<.H.z.L.R.E.R.K.R.E.7X6XwX0X6XcXcX7X4X&XOXa.A 7 ; } a.b.v.j.l.g.d.f.,.9.7.7.7.7.f.l.8X8X4XE.H.H.E.4X/.^.~.R.R.R.R.!.~.).zXzX).).).).(.).zXzX(.(.).^.(.R.l.l.F.zXcX0X).).R.F.).zX(.F.).J.u.I h 0 N t.m.f.7.f.j.j.x.Y.Y.D.R.H.R.E.R.^.G.R.D.D.D.x.Y.M.k.M.T.E.Y.H.E.4X4X/.R.D.D.R.R.H.E.4XW.^.0X6X!.K.F.K.!./.6X/.^./.",
"Y.Y.4X4XD.F.).).E.E.E.^.^.^.!.F.].].!.!.].].~./.U.R.R.R.!.(.(.!.^././.!.K.D.D.c.D.S.S.D.D.c.c.D.S.D.H.H.x.z.z.z.l.l.d.8.9.o. .j y x Z P X.b.J.H.S.H.D.l.d.z.K.W.H.M.k.k.m.8.,.9.b.j.9.) R ,.7.j.7.f.j.7.,.:.<.d.^.K.L.L.L.^.7XK.E./.E.E.4XE.c.c.<.l.S.c.c.H.H.l.R.H.H.D.D.D.D.x.L.R.D.H.H.D.L.c.c.h.Y.Q.x.Q.x.h.1.j.T.h.h.T.J.m.j.v.v.8.j.M.N.m.v.j.k.M.J.M.M.M.L.K.K.K.R.R.E.W.D.H.H.D.S.D.K.Y.Y.Y.Y.x.D.Y.R.E././.E.E.E.Y.M.k.0.s.s.s.i.s.s.p.p.r.R :.m.J.J.E.H.L.L.J.R.R.W.W.H.H.R.W.E.E.E.H.6X/.^.^.E.R.K.K.8XcXwXR.H./.0X/.).^.zXmXzX)./.R./.6X/.K.K.K.z.:.<.h.z.z.D.W.8X-X=X9X9XQ.&Xw.8.8.N.O.A q > % y .X3X&X;XeXtXeXeXwX4X9XqXE.l.x.E.W.4X5X8XuXMXuX-XN.C.OX&X&XN.j.b.T.N.N.Z.N.w.,.8.N.T.J.z.9.R E <.H.R.=XR.z.L.4X6XK.7X^.^././.0X7XL.J.N.i.#.B ; - K {.C.v.m.E.H.S.7Xf.f.j.j.j.H.^.0X4X4X4X7X4X/.E.R.^.R.R.!.^.^./.0X).).).kXzXzXzXxXbXbXvXbX0X0X0X(.R.R.U.!.0XzX).!.).bXzX).bXzXU.G.K.L.N.] h 7 f 6.J.V.7.d.f.j.x.E.D.Y.R.3.l.^.(.!.).0X!.R././.8XH.H.J.Y.N.M.J.Q.4XY.E.^.E.^./.R.S.W.8X4X/.xXxX).).6X).).6X0X6X/./.",
"W.Y.H.D.D.6XzXD.R.W.W.R.K.!.P.F.G.U.~.`.0X0X/.U.R./.).!.U.U.!.^.!.^.^.^.!.^.R.H.H.D.c.c.S.D.H.E.R.L.x.H.Y.E.Y.M.c.H.j.j.8.6.| g p x Z A T 8.j.g.R.c.l.D.H.g.d.z.x.j.7.7.f.7.5.j.v.8.,.9.8.j.7.:.j.k.M.M.l.g.z.S.S.K./.^.S.z.S.z.c./.4X4X7XR.D.E.D.g.g.c.D.c.S.H.l.x.H.R.H.D.D.D.K.R.D.R.E.H.D.g.D.l.Y.Y.1.x.h.h.H.z.E.E.E.E.z.H.M.M.m.j.j.j.j.j.j.j.M.Y.Y.M.k.H.W.^.7X7X/./././.E.Y.D.c.H././.R.c.x.x.c.S.R.^.!.)./.E.E.T.J.k.w._ %.%.t.{.a.t.|.o.8.4.9.N.H.H.=Xf.m.L.W.=X4X4X4XwXR.R.4XE.c.H./.^.R.R.R.^.^.R.R.0XcXxX4XR.K.R./.R.R.).).K.!.0X/././.6X6X^.S.z.c.l.c.l.g.H.8XqXW.9X&X&XT.T.R ) %X%Xe.Z q > # y }.VX,XKXPXKX9XQ.nX4XW.Q.Y.x.H.R.H.H.Q.4X5X5X8X9XiX>X>X9X>XT.M.Y.9X9XT.j.j.Z.&X&XW.J.M.m.m.J.=X5X5X4XW.R.E.E.K.L.L.7XE.W./.!.R.E.L.j.C.n. .h 1 - F s.2X;X=XMXnX7XnX4X9XMXGX9XW.S.g.E.E.E.7X0X6XE.D.R.K.R.^.)./.).0XzX~.P.!.).zXbXvXzX`.0X).(.).).!.!.R.(.zXzX).).).0XvXcXcXzXF.l.R.P.J.n.] h 7 N n.m.L.H.j.k.J.H.c.D.c.D.R.R.~.R.).(.zX`.(.R.Y.R.x.J.J.M.j.k.Y.Q.E.W.4X/.R.R.^.E.H.H.4X/.E.0XzX0XxXmXzX6X0X0X6X/.^.",
"z.S.^.7X/.^.K.z.K.x.x.K.^.P.F.F.U.).`.~.!.).8X'.8X/.S.F.R.!.).!.!.R.K.K.K.R.K.F.G.S.D.D.L.H.H.D.S.S.L.H.H.J.J.J.R.k.j.j.6.6. .j l b Z A | b.J.x.x.x.x.l.h.g.l.l.H.x.l.l.k.M.m.v.R 5.j.j.f.7.7.j.7.j.m.m.x.x.S.K.L.K.K.L.L.g.d.x.D.R.K.K./.6X^.R.^.E.R.R.R.R.R.K.D.R.R.R.R.H.S.H.4X7X0X^.z.c.E.Y.R.x.h.c.x.x.x.x.Q.Q.z.Y.H.z.1.k.J.J.=XJ.7.f.j.9.,.1.h.x.x.x.H.Y.6X^.L.R.0XwX/.x.W.Y.R.W./.R.Y.R.R.S.c.R.K.F.!.6X^.!.^.E.Y.J.M.8.Y P ..{.a.{.|.u.e.u.8. XN.7.M.Y.f.m.k.H.W.R.H.=XW.H.l.c.L.D.H.4X/.6X8X6X4X6X6X4X0X/.R.R.R.R.D.S.S.F.F.3.3.F.!.^.7X6X7XR.L.K.L.c.D.R.R.R.R./.0XqXiXQ.J.T.T.M.N.%X Xt.H 4 % 4 7 $X3XKXPXPXKXKXSXiXiXnXwX8XwX4XE.E./.W.4XW.L.4XeX;X;XtX-X-X=X=XnX9XL.Q.k.H.T.W.GXuX9X5XJ.Y.9XMXiXJ.=Xm.L.4XE.L.L.f.L.R.L.S.S.K.^.4XQ.OXO.S h - # p O.N.5XMXmXwXqX7X4X4X5X8XcXcX6X^.L.7X6XvX/.K.0XK.).^.!.!.0XvXDXvXzXzXzX).xXzX!.`.!.~.).)./.^.R.R.D.^.0X8X8XqXqX8X/.qX8X^.R.l.l.R.S.J.|.[ h 0 P B.m.S.L.L.H.j.l.c.c.D.R.R.R.(.(.(.~.).).R.R.R.D.l.k.J.T.Y.Y.k.M.Q.W.x.R.0X^.^./.D.E./.4X^.R.^.).).zXzX(.xXzX).cX6X",
"L.S.R.6X6X/.L.7.,.M.5XQ.S.G.F.P.!.).).R.U.R.R.R.Y.^.R./.).^.^.F.K.K.F.D.D.D.D.G.S.S.S.D.D.H.H.D.S.S.D.x.k.k.k.x.k.f.f.8.4.o.! j 1 p H ~ o.u.m.f.M.H.x.x.x.x.c.c.L.K.R.E.E.T.T.J.%XN.f.8.J.Y.J.J.Y.J.M.m.M.H.L.L.S.K.K.K.W.^.^.7X6X4XR.D.R.^./.6X/.^.^.^.^.^.!.!./.^.K.R.4X4XR.K.4XE.R.R.D.K.R.l.D.Y.Y.Y.h.1.1.h.x.c.1.x.H.Y.z.M.Q.J.J.J.k.M.M.7.,.1.j.M.Y.R.E./.K.^./.K.D.H.E.4XJ.Y.Y.Y.E.W././.W.R.F.R.!.F.F.!.^.!.^.4X=X-X;XC.] A ] s.s.a.{.a.t.n.v.N.N.j.7.R 9.7.d.j.H.H.H.E.x.H.D.H.E.R.H.R.D.D.D.R./.qXDXHXxX6XR.D.c.S.D.K.G.G.R.).(.D.G.S.K.R.R.L.L.E.^.E.K./.xX0XE./.wXGX9X=XQ.=X=XT.-XaX X#.G 3 % , 7 #XVXKXPXKXtXiXSXFXMXGXnXcXnXnXcXcXqX/.0XGXwX5X=XY.N.N.Q.T.T.W.R.R.R./.W.4XW.W.eXiXuX9XJ.J.T.-XuX5X5XY.J.H.l.m.=X4Xk.k.j.l.x.L.L.H.T.n.O.A y - O 9 #.b.%XMXFXqX7X7XPXFXwXW.W.8XmXHXLX/.L.xXxX^.0XvXHXHXHXvXzXzXzXxX0X).).!.~.!.D.(.~.)././.W.R.W.^.8X/./.0X8XR.R.0X/.4XR.l.c.H.Y.D.L.J.s.W 0 7 S B.=XJ.L.H.H.H.D.Y.Y.Y.R.R.R.(.~.!.(.(.(.)./.(.W.R.Q.Q.M.k.Y.=XQ.R.Y.x.R.^.S.D.8X0X4X4X/.E.R.R.(.6X).).^.zX).!.6X^.",
"7XE.^.7XK.H.Q.;XN.%X%Xv.f.S.^.^.^.!.R.Y.D.Y.Y.Y.Y.4X/./.^.K./.!.K.H.D.D.D.G.G.G.S.S.S.D.L.L.H.H.K.L.H.M.k.k.k.k.f.7.8.8.5.O.~ k p L K W | 6.j.f.m.x.k.x.H.H.D.c.z.z.z.j.m.N.N.N.%X;X;X;X9X5X=X5X-XQ.M.m.k.x.x.x.z.L.L.L.^.4X8XcX0X0X/.^.4X/.^.4X!.(./.).).^.!.R.D.E.^./.6X6X7X6X4XE.E./.^.4XE.c.x.c.h.l.h.h.x.Q.Y.k.,.1.f.M.k.J.Q.M.m.M.z.f.f.1.l.c.H.R.E.E.E.E.L.P.^.E.H.H.x.j.M.Q.W.Q.W.W.E.D.R.F.F.K.!._.!.P.^.K.L.M.v.B.n.t.@.H W &.}.}.|.oX|.*XOXb.8.9.j.7.7.,.9.7.7.f.z.x.x.H.S.z.L.R.H.H.D.H.R././.^./.0X8X/.^.R.K.K.K.K.!.!.(.0X(.D.S.K.L.H.L.c.x.L.E.E./.8X8X/.E.W.4X5XMXiXuX5XT.N.%X*Xa...x 3 % % 7 #X1XtXKXVXtXeXtX9XMXMX9X4X0X6X7X6XcX^.^.8X9X9X9X9XT.M.;X=X=X9XJ.E.H.D.E.W.W.Q.Z.Q.T.T.N.=X=XM.M.j.f.M.-X5XT.J.J.M.M.j.f.k.H.H.j.8.6.o.! V p - @ 3 %.t.N.uXMX5X7X4XuXMXMXMXcXnXmXmXmXxXmXmXlX6X6XxXmXHXHXvXzX6XzXzX/.^.^.R.^.^.D.^.E./.W.E.Y.Y.Y.T.W.H.x.H.z.d.z.Y.M.k.j.j.M.Y.k.j.E.N.y.Q y 7 C u.N.S.S.L.E.Y.D.S.R.R.H.D.R.(.(.!.(.!.^.0XwX6X/.0XQ.=XM.j.Y.8X4XE.H.L.0XcXE.R.E.R.D.c.c.c.l.l.F.).mXmXvXDXzX/.0X(.",
"L.H.7X5XT.m.N.OXn.t.0.n.C.J.S.S.R.R.R.R.Y.H.H.Y.T.4XE.R.D.S.).).R.K.H.K.F.D.G.F.G.S.S.D.H.D.D.H.L.L.M.k.k.j.j.j.7.7.9.6.e.#.W h p a b A  .B.N.N.m.z.z.m.H.L.L.c.K.S.l.k.M.N.M.v.w.&XtXiX9XQ.Y.5X9X9X5X=XJ.M.H.L.z.S.H.L.E.R.R.4X/./.^./.0X/.R.R.R.^.6X0X).^.R.K.F./.6X7X^.H.S.L.D.H.E.E.K.H.H.H.W.Y.x.c.c.c.x.M.Y.j.,.1.7.k.k.&XM.z.m.M.f.<.1.h.D.H.R.E.R.R.H.D.!.K.L.K.E.W.k.<.,.7.j.j.x.Y.H.z.S.F.F.K.!.^.^.P.L.L.=X%Xn.t.] B W H ' &.}.{.oXoXy.a.OX:XN.5.8.k.5.:.9.7.,.7.l.d.H.H.z.g.S.L.D.H.D.H.E.4X/.K.D.R.^.R.D.K.^./.R.D.6XzX6XR.F.K.^.^.E.E.H.x.l.H.L.L.E.E.R.Y.W.4X9X9XT.-X;X%X%X:X;X*Xe.Q i , + % w #XyXrX>X%XN.OX;X;X;X;XY.m.M.m.x.H.x.L.Q.=X=X9X9X%X;X&X9X5X5X8XW.4XE.l.R.4XwXeXx.M.&XJ.j.M.N.j.j.8.8.M.N.M.v.v.M.v.b.q.q.M.N.M.8.4.R P S z q # + > Q o.n.&X&XT.T.5X-X;X9X5X5X4XqXcXxX6X7Xg.K.HX6XG.^.^.^./.0XxXxXqXwX4X0X8X0XqXE.W.Y.H.M.k.k.k.k.k.k.M.j.1.,.,.7.8.j.,.8.C.N.5.5.b.J. X}.} z 7 B 6.M.L.J.=X4XW.R.S.R.R.H.D.F.!.(.^.!.R.!.).6X/./.4XH.Q.R.m.J.Q.W.4X8X4X4X4XR.R.^.E.H.c.c.D.D.F.~.xXvXcXxXcX0X).6X(.",
"m.f.f.N.N.v.6.| P S I | X.X.8.J.D.D.R.E.Y.k.j.j.M.Q.R.W.J.L.^.K.R.H.H.K.K.G.S.D.D.S.S.L.H.H.x.H.l.l.j.f.w.7.7.7.7.5.4.X.e.#.A f q a b H ^ 6.8.f.m.m.M.L.E.E.R.D.E.Q.=XQ.N.q.9.4.N.OX%XT.%XT.J.Q.Q.T.T.Y.Y.J.L.H.L.L.L.W.W.x.l.W./.R.c.c.R.E.R.^.^.(././.~.!.K.R.!.^.K.K.R.K.l.g.l.D.R.K.D.c.H./.W.W././.R.x.z.k.T.Y.k.Q.N.w.,.m.k.z.x.J.H.g.l.R.l.c.D.K.R.K.D.F.G.L.K.S.c.x.N.Z.j.w.8.w.j.j.j.x.D.R.R.K.F.K.K.P.J.H.N.u. .W Z h 0 V ' } &.}.}.{.e.e.i.n.n.w.) ,.,.:.9.f.9.f.m.g.l.l.z.L.E.L.S.R.6X/.^.^.R.S.D.R.K.S.l.l.S.D.R.R.R.).).R.K.R.^.R.E.R.L.M.M.L.Q.Q.Y.T.T.M.f.j.M.N.8.B.n. X<XyX3X@X .H 3 & + + q .XdX<X XB.u.n.OXn.N.N.B.j.B.M.N.=XM.%X%XM.v.B.v.v.N.%XT.%XT.M.Y.L.E.l.T.-XeXeXZ.Z.9X%XM.T.T.v.M.N.N.N.8.4.9.v.u.8.6.6.q.b.b.q.8.+.| I A b 9 @ . @ h ] @XXXi.v.v.N.%XC.N.N.J.T.=X4XK.^.nX7X^.7XE.6XK.L.R.W.4X0X4X4X4XH.Y.R.Q.=XM.k.k.f.,.,.8.j.j.j.N.N.M.8.,.4.5.5.q.) 5.N.q.X.q.OX8.u.&.( u 1 N 6.N.J.L.L.H.Y.Y.R.R.R.R.L.D.K.!.^.K.!.^.R.E.E.E.H.H.E.W.W.E.H.H.R.Y.Y.R.Y.H.Y.W.W.4XE.R./.).(.6XvXzX^.(.).).zX0X).",
"N.v.q.q.O.o...' k v k 0 f Y 6.C.M.R.E.Y.M.f.,.R j.J.T.W.E.K.(.K.E.R.R.E.E.F.D.K.K.S.S.L.H.k.z.k.g.g.f.f.7.7.7.7.5.5.X.X.t.#.A g e x K Q P Y 4.V.m.m.H.Y.W.E.R.H.j.m.M.5.Y E R +.X._ R E R R E R ) R R 7.M.Q.Q.L.H.H.L.W.E.l.f.J.R.R.S.l.R./.^././.^.R.D.G.F.K.!.!.^.K.S.D.S.S.H.H.K.L.D.H.H.L.4XY.c.c.S.Y.Q.T.T.8X-XT.&XM.5.) j.J.H.k.H.E.H.c.L.S.D.H.R.R.!.!.R.G.L.K.S.l.j.k.N.j.w.j.Z.C.k.j.k.x.H.R.K.L.L.P.7X4XN.6.~ C v l w - b / ' $.&.$.$. .t.XXu.0.i.w.w.5.7.f.f.f.f.f.7.g.g.g.S.L.x.D.4XcXxX0X/.R.D.l.l.l.D.K.D.l.l.S.R.F.D.K././.R.D.H.H.H.x.k.m.J.Y.T.Q.N.v.5.9.X.R R u.u.B.|.+X<X|.#.~ H < & X + p }.3X:X X|.a.a.p.6.i.n.i.u.B.N.OX;X2X;XC.v.q.X.4.n.6.n.v.%XT.z.Q.J.J.J.-X;X-XQ.Z.T.T.%X%X9X-XN.%X;Xb.v.8.8.N. Xe.X.t.i.n.n.v.u.0.6.#.] J F 3 # X @ 7 W $XXXt.u.4.8.8.6.q.B.%X%XQ.Y.5X5XnXFXLXnXL.H.Y.E.W.W.E.Y.Y.Y.k.<.7.j.M.Q.J.M.7.,.R R ,.q.b.b.b.q.q.u.6.) +.u.q.+.0.n.u.i.A.i.X.| Q M 4 > B p.v.H.L.L.H.D.U.D.R.E.^.K.D.F.K.!.R.^.^.K.H.E.E.D.4X4X=X4X8XR.l.z.d.H.W.W.R.H.Y.E.4XE.^.6XxXxXxXvXvX6XzX6X0XvXxX0X",
"4.u.C.i.| U A m 8 y y y k I | +.J.R.R.J.M.j.R E 8.M.H.J.J.L./.E.R.Y.E.7X/.K.F.K.K.S.c.D.x.j.f.f.f.f.j.j.8.8.9.9.,.8.+.X.t.@.A l q a m J ~ ^ r.%Xj.m.J.E.W.E.R.H.h.7.,.R E U 6.i.0.t.6.+.5.X.) ,.) ) R 7.M.Q.4X=XH.L.S.S.H.k.d.f.c.E.W.R./.4X/.R.^.R.K.D.F.F.K.K.).zX6XK.l.2.2.D.H.K.z.g.x.c.c.R.8XD.2.h.H.E.Y.M.T.N.9.5.8.b.b.T.M.M.x.M.E.H.l.S.R.R.!.^.).).(.^.^.^.K.L.H.M.j.8.E Y ) j.Z.C.Z.M.H.H.H.E.R.L.P.7XJ.B.s.$.J x 3 @ - x G H / [ [  .N O.2X1XC.C.w.w.M.J.M.v.m.f.7.7.f.z.g.g.z.z.L.0XR.^././././.E.D.S.K././.R.D.D.D.R.S.D.R.^.R.D.H.x.x.k.j.j.j.k.M.N.q.9.q.C.&Xn.o.Y !  .#.y.y...W B b , & X & x -.3X@XB.r.#.e.t.e.O.t.6.o.6.5.o.r.u.n.n.|.|.6.^ O.o.6.6.b.N.T.-X9X=XeX9X,XC.b.C.C.N.T.M.J.M.v.%X;Xv.8.T ^ u.p.e.u.e.i.a.t.6.u.t.O.O.I Z x < + + + 1 Z .Xs.O.e.T O.+._ T X.q.b.N.N.=XMXuXQ.M.f.M.Q.T.J.Z.T.Z.M.j.M.f.,.j.J.T.-XQ.N.,.) ) X.5.q.q.q.5.) _ X.X.T +.i.6.| +.u.0.t.t.U U P Z a , > Z a.b.Y.W.W.W.W.~.U.K.E.E.J.K.K.^.^.^.^.R.K.K.E.E.E.4X8X7X7X0X/.x.l.L.W.E.M.x.H.E.8X4X^.^.6XvXJXmXvXvXlXxX6X).xX/.R.",
"o.O. .A j v M p u 4 4 y z Z ' t.N.Y.J.M.N.b.4.E R j.M.T.J.L.P.L.H.H.Y.W.W.H.D.L.L.x.z.m.k.7.7.7.5.8.8.8.6.+.X.T Y +.X.! ..' B l x x G '  .^ T T v.M.E.-X4X^.E.R.k.5.) 4.q.i.i.t.XXa.t.6.q.u.q.v.b.M.v.f.9.7.j.N.J.%XM.8.j.v.5.R f.Q.5XE.E.4XW.Y.R.R.E.^.4X7X^.K.D.L.F.L.R.K.D.H.R.^.H.S.D.l.c./.H.H.R./.4XW.Y.Y.T.Y.,.R ) b.q.9.<.k.x.D.R.L.D.E.R.R.R.^./.6X8X4XxX6X^.L.m.M.N.N.6.0.6.5.0.n.Z.N.=XT.Y.=XQ.M.m.N.n.e.[ Z p e 3 # 2 a x x G H H Q P ! {.@XXXA.+.q.N.%XN.v.N.v.8.8.9.M.T.N.N.M.J.=XN.Y.Y.x.J.=X-XY.=XE.Y.Y.Q.W.Y.M.H.Y.Y.J.T.W.J.f.m.j.j.j.v.v.v.v.u.t.s.{.oXoXs.@.g c S H H V c q w e # & + , F -..X{.{.}.%.@...~ ~ [ ! P P C D Y U #.O.| #.#.] ] ! C ! ^ 6.OXOXaX&X>XN.b.0.X.u.6.X.8.q.OX&Xn.i.5.T U E Y o.o.| #.Y ! ] I U O.#. .[ V l i # . . . 4 y } ' W [ P  .~ P I ! | | | ^ n.*XB.B.n.q.B.%XOXv.8.v.N.N.q.5.T R u.N.u.u.X.T R X.0.i.i.t.6.X.|  .| P P ^ O.%...D P ] S B S C C B z a < > z #.B.b.j.j.M.Y.Y.x.M.J.J.J.R.W.^.W.W.L.L.R.W.E.Q.5XW.8X8XW.4X4XY.M.M.Y.J.N.Q.&XT.T.&XQ.T.T.8XwX8X/.4XE.wX4XW.9XQ.Y.",
"f 0 0 9 q 9 3 < s % i F y q H @.n.N.N.b.i.i.t.+.0.5.5.q.N.Y.R.R.J.J.T.T.N.j.j.M.N.b.j.q.q.q.q.6.O.#.o. .! ~ ~ ~ ~ P W W ~ W v l m G K ' [ W P U 4.;X9X5X=XW.7Xl.5.8.b.C.i.+.X.O.t.O.O.6.u.B.B.B.v.k.k.m.k.8.4.X.0.t.O.| | O.6.O.v.N.%XT.J.N.M.m.m.m.H.J.J.m.m.J.E.J.L.L.K.J.W.7XR.L.H.R.E.R.R.E.^.7X4X4X4XW.Q.Q.T.k.7.j.v.5.9.k.Y.H.K.R.R.G.G.G.G.c.H.E.Y.M.N.4X7X7XS.=X:Xr.n.O.!  .O.O. .o.t.B.C.N.v.u.u.u.t.y.Q V l r e , $ $ 6 e p a n x n v l V Z Z A ' [ [ e.r.v.n.B.u.e.e.u.e.6.6.e.e.#.O.| X.X.O.6.6.6.+.6.6.6.5.5.6.u.b.v.v.b.B.B.i.i.a.i.t.6.6.u.u.5.| [ } Q H G K F p 2 3 p e 1 9 e - > @ @ # 3 i b K } } *.-.-.( M x m G H H Z G H Q ' H H H J H H Q [ H Q ..@.}.$X$XoX}.$.[ [  .[ P P ^ e.|.@X|.#.! U ~ P C B A W ~ V W / @.&.*.[ H z p 9 2 # O @ , 4 l b z z b V V b v z b b V H H [ [ ' Q ~ ..y.{.e.|.@Xr.r.e.Y P W ..$.%.| C Y D P ..&.@.[  .] A B V J [ $.$.$...W H H Z l l x x x x 3 # # # 8 J $.e.6.6.+.X.X.X.6.q.8.5.8.N.T.N.M.N.M.v.b.%X;X;X=X-X-XQ.J.M.N.T.M.M.b.b.n.n.i.i.t.%.%.t.t.6.6.u.i.n.n.i.i.u.X.Y ",
"8 7 3 3 3 5 < < 6 % s a 3 9 b Z ] t.XX{.%...| ] O.| U | 6.v.N.%Xb.i.u.i.u.u.u.i.n.u.0.+.O.O.| | ~ W H A S V V V H H Q J Z Z v Z V K ' [ [ W W  .O.o.6.;X>XN.M.T.b.b.i.t.o.U I ]  .|  . .t.p.u.u.u.B.B.8.8.u.o.Y N j v Z { &.@.~ | 6.i.i.B.n.n.B.u.v.N.%X:X:X:X*XJ.N.N.N.M.v.v.M.J.M.N.T.T.Y.T.Q.Y.%X-X;X;X;X;X>X;X%Xv.8.q.q.8.q.Y.E.W./.W.E.^.4XE.T.N.w.4.X.X.+.V.L.f.gX@X#. .B j v V A A W  .#.t.t.e.#.#.[ Q H q 4 - , < & & , 5 e i a a p r r w l l q q b K Q P ^ o. .! ~ ^ #.$...! W A A W Q S V V S A A A A A I ] ....O...o.t.t.t.%.#. .[ { ..] A C Y P U P v z p 9 9 e 3 - 3 : , < : : > @ O @ # 3 a b G K G b x F F a i s i p x n x x F F K L x b x l l x x r l x b K } } v l g g c V G V Q ..&.}..X}.*.} *.*.} K Z b b v G G H G G F n e - # @ @ @ + $ < a n p 8 8 q p q 2 2 2 2 3 3 9 e p n x x l l l g f A  . .$./ g w L K J ' W B A S W ' @.*.@.H B j h l b K ' } } Q Q G V b p a x L a a < # # @ 4 M *.@.#.O. . .[ [ A ] | ..O.t.O.| 6.6.6.O.O.t.i.i.n.n.N.b.q.8.u.i.n.a.t.%.O...] A Z m v v v k k j B C C B V V h 0 ",
"w 8 8 3 3 s s 5 s s i 9 1 9 l 0 C ] @...] W ] [ S C I ] O.O.O.o.] P N N D C C N S C C C A I I A V v h h h c l l h q l y q l l b Z [ @.} [ W W [ | U ! o.a.@X:X1Xa.t...I C v V Z A A A W [ .. .[ !  . .!  .$.[ V Z z 8 w b J Q H B A W W W W ! ! |  .#.#.t.a.a.y. .^  .#.#.#.O.#.y.t.t.t.t.t.t.t.O.e.e.t.e.#.#.#.#.t. .Y ~ ..#.O.X.u.N.C.N.N.C.%XN.C.u.Y Y ! ! P Y o.X.t.%.A V 7 7 w q y l v Z J Z Z A Z Z l q 7 1 # @ : , , , < 5 e e e e r r q l b x q 8 l G ( $.~ A V B j h h V V V v c h l l l y y u y l l l z h h 0 h v v V f h h h h p z z p u y y h h h h 0 7 7 7 7 8 4 4 4 - 2 e 1 - 1 9 2 3 3 e b K ' ' H c 0 8 4 > # # % % > % # # % > < > > > > # # > 3 > > > > 2 e 3 4 1 > > 2 9 e q u l x x x x x x p a a i 9 3 3 3 1 1 2 2 2 , : @ @ + + X X X * 6 d a 3 % % > % @ # # # # % % % % > > # O O - 3 q p p g w q 9 - 2 ; w w g c c S V H v c v v h j V 0 0 q z Z H Z V V h q u 9 9 i i 5 3 % + + + # i ( Q W I I A A Z J K K Z J Q { [ A H H H H J J H ' { ' W W Q ' [ ] J Z m v z u 4 4 4 4 4 4 1 7 8 w 7 1 4 8 4 1 > ",
"u u i i a a a a a a x p 9 y l 7 h h h h h l z v h 0 0 f k j N N v h 0 7 0 0 0 7 0 0 8 0 y y 0 8 w 7 7 1 7 7 7 7 9 1 w 8 y b b Z W $.s.@. .] I I I A I k B @.} W ' Q Z h y y z a 8 8 8 8 q h g q 8 7 7 q z l p r e i 5 < 2 9 7 7 8 q q q w 0 0 w q h h g j c c f w w q l c c c v V v v v c c h h c c v c c h h h f c l 0 c K J J ! ..#. .|  .o. .}.{.@.S c b b l k A H J b 9 q 3 > > > > > 1 4 8 8 4 4 1 1 > - - 1 > - 2 3 < < 3 e i p p n n n n b b l 8 1 8 z b ( b q q l l q 7 ; 1 1 1 1 - - - - - # # - - - - - ; 1 w 8 7 ; - - ; ; - - - # @ # - > 1 1 4 7 0 0 0 0 f h q q h z p p z l q q l p x G H J [ [ W ' B 0 7 1 1 > # # + + + @ @ @ + # + # % # # # % @ O O O O O O O @ @ @ O O O O O # # # # # @ # @ @ @ # # # # $ % @ # # @ @ O O O + X         o * & , % % > < % + . X X + X X . . + # % % # # # @ # @ @ @ # # @ < 2 r w q f f B c 0 q 0 0 g g f q q q q h h h h f h 0 7 y q 8 3 4 > # + X + + % < p h y 0 8 8 1 1 - # > 4 4 1 1 1 4 7 8 8 8 3 4 4 1 4 4 1 1 1 4 8 4 4 4 > > % % # @ O @ # > , 3 e e < > > > > % % ",
"p a z z M M F F G F G m x x z h h 0 8 8 9 8 1 - 9 4 1 1 7 7 7 7 4 1 1 1 4 4 8 4 4 1 1 4 8 8 4 1 4 4 9 9 8 8 8 8 y 9 u u z F m K $.}.{.y.%.@.W S v 0 v v v M 8 y z z p i u i i s > > # # - - - - # + + @ # @ @ % O $ & $ @ @ - - # # # # # @ # # # - - - - 1 1 @ - # # - - # # - @ @ # - - > > - - - - - - - - - - 2 2 2 p a p p } } H c j c B v H K G l 8 3 9 3 3 p i i < % < < % % % # # # % % % % % % % % > , > > 2 9 i e p p z z b b F F F G b b l q 8 8 9 9 3 2 4 3 3 2 3 q 9 3 > - - - - - - - - - - > - - 1 ; - - ; 1 1 1 - - > - # # # @ % # # # - 3 p b A P A A A B B Z W H S A [ @.@.[ } *.@.[ [ #.y.y.s. .C k 0 8 7 1 # # # # # % # # # @ @ # # # # # @ @ @ # # + @ @ O O @ @ @ @ @ @ @ @ @ O @ O O O # @ O O O . O O O O O O O O @ @ . . . . . + * & % > < > > > % # % % % % % % # # @ @ # # % % # @ % O % , & & X % 2 n b V V H [ [ H G b b z b c g v v v v v k k v V h l b x p p u , # @ + + & 5 s p y 9 7 1 - # @ @ O @ # # # @ @ @ @ @ @ @ @ @ O O @ # # # # # # @ @ # @ O . + + + + @ @ , 5 i a a i 5 5 < , , , ",
"x M m Z Z K K ( ' ' ( ( K m b m b l y q 8 4 3 3 4 3 9 p p q 8 1 > > > > > 4 4 4 > > 4 4 9 i i 9 9 i p p y u u y y u x x z F K @.y.|.|.}.}.$.~ A V h v m m p 8 p 9 q i i i s 3 < < , > > > > 1 > + * & O O @ $ + * $ . . . + : < $ + + + + + + @ @ # # @ # # # @ O O O O O O O @ O O @ O @ # # @ O O O O O O @ @ @ @ # , e < # - p p 0 7 7 7 7 ; - ; ; 1 - # # , & % @ @ % & % + & & & & & , , , % % & & , , < 3 3 9 i a l x x x b Z Z H K H G G Z b b l p r 3 1 < > > < < , 4 4 3 3 3 9 p p p p p r p r p l p g r v H } } K V l q p p 9 8 9 9 3 > 4 3 u x K } -.{.XX@XXXXX.X{.{.s.XXXX{.|.XX@X#X3X3X1X+XOX@X2XyX3X*Xa.%...{ { ' ( K G G m x y 0 y y k z M v M M l x x l z p 8 q q q q q 8 1 1 1 - - - - - - - @ - @ @ # - > > 4 1 ; ; 1 > - # # - - - # > , 3 3 q u u q 9 9 u p i 9 9 4 4 4 4 8 i 9 7 1 1 3 9 3 i > , & + * * 6 2 b G / / @.}.-.-.} J J Q Q / *.' ' ' ' Q W ' [ [ Q Q J Z m m M i , > > < s a i a a p 9 1 - - > - - # @ @ @ - - - - - - - - - > O O # # - - # @ - - > # @ O @ # # # - , i a F F F F x a i i i i ",
"' ' } } @.@.%.&.&.&.&.&.=.[ ' J H b l q 8 8 p a a i 9 8 9 9 u p a a a i e i i 9 a a p p p q q q y y y z z z z v m Z ( J ( } *..X|. X|.|.oXy.[ W Q J m z u 4 8 8 y u p x a i i i 3 < 2 4 4 4 4 > + * % @ @ # $ O X X + * & $ O . & * + * $ + @ # # @ # # # @ # : # @ @ # $ @ @ # @ # # @ @ # # O % # @ @ @ @ @ @ # # @ - 2 1 - - - - ; 7 w 7 ; - ; ; ; - # O O O + @ @ @ % , % + % % > , , > , , , , < < < 3 3 9 p x b m Z G H J W ] ' { ' ' W W H H Z V z q 7 1 3 > > 3 a a z a F K } *.-.;.;.}..X{.{.{.{.{.{.{.#X#X#X#X$X$X$X$XoXoX}.$.' ' ' J B V A ~ $.}.oX+X1XyXZXZXVXZXZXyXyXKXKXpX:Xb.B.rXZXZXPXPXKXpX>X>XyXyXyX3X3X3XCXAXCX3X3X3X1X#Xa.t.{.oX+X+X@XoX@X+X#X3X1X1X3X#X.X#XoXoX.X.X}.%.@.$.W W W W W W W W A V A Q } *.*.-.}.&.$.@.[ ~ A S A H J J W Q Q H W W ] [ @.&.}..X.X}.}.&.&.s.s.}.&.%.%.@. .W B h q 1 i 3 % < < 5 L / $.-.&.#.#.! [ [ } *.&.$.$.&.&.&.%.&.s.}.{.{.{.}.}.&.' ' } ' K M M M a M F a p z z q 1 - > 4 0 b J ' [ ' H V V c c V V V G H K K K Q ' Q Q Q J J J J J G G b l z v G Q } } } } } ' H V H H J ",
".X.XoX#X+X+X*X<X*X2X<XoX#X.X&.*.} Q J J J H b x b b M G G b b x x x x p l x b x z b Z Z Z Z H J ( J J J ' [ [ [ @.{ [ ' } &.}.oX<X<X<X<X<X{.$.$.C V h v v y v z b v b H G b F K z z l l l l q q a 3 3 i p 4 > > , & & & & & 6 6 & & & & , , < 3 e 9 e a p p x L K F L L a 9 1 1 4 9 3 4 4 q 9 8 3 2 1 1 1 4 7 7 8 8 ; ; w w 7 w f 0 0 f 0 0 0 g 0 7 7 1 1 9 4 > # > 3 > > , 3 i 9 i a a p i i p e e e e q p z b b Z J Q ' [ @.@.O.t.t.y.y.t.#.#.#.$.@.} J V l h w q l l q q z K J Q } *.-..X#X$X3X<X<X+X+X+X<X<X<X<X2X2X3XdXdXZXKXKXZX<X@X+X<X+Xi.t.O.o.6.i.N.%X%X9XiXtX9XuXuX;XuX9X=X9XiX5X=XMXPXKXtX9X;XQ.&X9X-X>X>X&XZ.N.A.OXOX%X&X>XtXtX>X&X;XtXVXuXQ.M.N.T.N.;X;X5XpXrX>XrX>X;X2X2X2X*X:X*X2X2X2X<X:X*X2XyXyX3X3XyXZXfXyXyXyX2X2X3XdXdXZXZXyXdXAXZXKXKXZXZXZXZXZXdXVXyXyXyXyXyX2X2X2X2X2XyX2X2X;X:X:X*X@XoX.X*.} G 8 9 a p H $.}.#X#X+X@Xy.#.&.&.' ] $.%. .{.y.y.s.oX#X#XoX1XfXCX$X}.}.}.*.*.' } } K ( ( m K J J Z z h z Z ~ y.oX#X#X3X1X#X|.{.|.oX#X#X+X1X$X$X1X1X3X3X3X3XdXfX3XfXfX3X#X{.{..XoX#X1X3X3X+X<X3X+Xa.t.a.XX|.",
"@X1X3X3X2X;XrXpXKXKXZXyXyXyX1XoX.X}.%.&.@.' W ' [ @.} Q J H J ' } ' Q Q Q Q Q [ ~ $.@.%.#.#.{.}.{.s.s.t..XoXoX#XoX.Xo.| u.i.n.yX2XaXyXyX3XdXyXy.O.P ..[ C C C C !  .y.}.{.}.&.$.....[ [ $.&.$.[ A ' { @.@.J h y p i s < 5 s , 3 i < 3 i e L K F G K Z J *.} *.-.$X.X;.-.} A V A ' [ @.=.@.=.*.@.} [ [ ' ' Q A C A @.}.{.y.y.oX1X$X3X3X#X#X#X1X1X.X.Xs.&.&.@.' H G b z M 7 y z w Z Z J ' [ } } H V B B V A A W ' [  . . .#.a.XXXX&X2XtX;XC.N.OX*X<X<XXXa.s.%.[ A S S S A A I I W P ^  .| T | u.|.%X%X%X&X-X&X%X&XrXN.-XuX-X;XSXSXiXiX;XM.N.9XpXiXtXuXiX;XT.J.J.=X5X9X8X-X=X5X0X4X/.4XwXwXwXqXwXcXwXwXqX4XW.L.R.=X=XW.Y.N.M.n.N.C.Y.K.4X7X4X4XE.4X/.8X0X7X0X6X^.^.7X^.P.P.K.F.^.lX^.7X^.J.S.S.K.7XL.E.4X5X4X4X=X5XQ.&X=X&X%XT.T.%XT.%X%X%X;XuXMXMXMXKXKXKXPXKXKXLXLXKXiX9XiXMXuX=X4XE.Q.4X5X4X5XuX9X5X5X5X7X-X%X:X{.}.Q b q 8 F H $.{.oX+XyXyX1X@Xs.] U | | U | t.O.o.t.a.n.OX@XOXyX3XdXZXZX$X+XoX.X.X.X.Xs.%.[ ' &.@.&.}.[ @..X#X|.OXOXOXOXi.n.2X<X*X*X<X2XsX;XsX2X<X;X;X;X%X%XJ.;XpXKXpXpXPXPXpXKXKXtX>XrXrX>XrXuX-X;X&XM.C.;X-X",
"VXZXVXtXuXuXuX5XuXiXSXPXKXyX*XOX@X<X+X|.|.@XoXa.#.y.y.y..XoX}.y.#.#.t.y.{.+X+XXX@X2X@X*X*X*XdXyXyXVX3X2XZXKXZXyXKXKX;Xb.;XaXpXKXPXKXdXdXyXZXZX@X2X*XyX3X1X3XOXt. X*XaXyXyXyXyX3X3X3XaXaXyXdXyX2XZXVX3XyXVX*X%.{ Z x a u i a i a p q x G G ' -.}..X.X$.y..Xa.+XfXoX+X1X+Xa.t.XX2XZXyXVXVX3XyXZX3XZXZXyXyXyXyX3X2XyXZXKXKXaX;X;X;XtXVXKXPXPXPXVX*XyXyXZXKXAX+XXX3XfX.X&.&.A A [ ..&.}.#XfXfXdXAXdX+X+X|.r.t.|.*X<XOX*X2XyXZXZXZXKXSXPXPXFXSXLXPXKXpXaXyXyXdXdXyX3X<X1X1X<X@XOXOX:X:XN.N.%XN.v.v.f.T.Q.Q.T.N.C.Q.-XN.M.T.T.M.=XuX=XQ.Q.h.1.x.iXLXFXqX8X0X/.E./.^.4X4X8X8X4X7X0XqXqX6X6X6X6X).).0X0XcXwX6X6X0X0X/.H.c.L.W.8X9X8X;X-X/./.zX6X6XxX6X0XzXxXxXvXvX6X).xXhXP.I.P.jXjX(.(.!.(.(.(.(.^.!.P.zXxXvXcXzX6X/./.6XE.H.E.qXwX0XW.wX5XwXMX8XJ.7XmX8XmXFXMXMXMX4XE.E.qX8XE.E.cXcX7X^.K.L.E.7XqXxXcX8X6X6X6X6X7X=X%X@Xs.J z q q m ' .X+X@X%X>XtXtXtXC.i.+._ +.i.u.X.+.T T 6.n.:X<X:X<XZXKXdXZXZXZX3XAXyX*XXXu.6.O.e.{.a.XXa...a.3XyX;X;XT.N.M.b.N.;X%XrXSXSXtX9X=XJ.-XT.T.5X4XL.J.4X7X5XnXMXnXLXPXKXiXSXMXiXSXSXiXGXeX=X4X4XQ.5XnXwX",
"pXtXiXSXLXLXFXcXqX4XuXKXKXtXrXtXpXpXpX2XrXaXaX:X2X2X<XOXn.|.@X*X2XyXaX2X2XpXpXaXuXBXpXMXMXMXKXSXKXKXSXKXPXPXSXSXSXPXSX9XMXSXGXKXPXPXpXaXrXpXPXKXPXKXKXpXyXKXKXSXMXMXMXuX5X-XJ.m.%X-X;XrXrX;X;X5XGXwXqXeXGX9XZ.i.%.' Z z p x p x H W } ..~ [ }.oX{.3X3X2XrXrXpXtXSXVXpXiXtXpXSXSXSXVXiXuXeXuXiX9X&X&X&X;X,X8X;X;XMXnXnXwXwXqXwXwXwXwXeXqXqXnXGXFXPXLXMXMXtX;X;XKXZXZXZXAX|.a.y.t.@X1XyXaX;XrXMXKXMXKXLXMXuXMXSXrXSXKXKXKXKXKXKXKXLXLXLXFXFXLXHXnXMXuXiXSXKXpXVXKXKXKXKXKXpXuXuXuXMXuXMXMX8X4X=Xz.=XT.N.j.w.b.N.M.8.5.j.M.j.T.;XN.Q.W.Y.h.Y.GXLXGXGXeXwX8X0XcX0XwX/.4X4X/.^./.).).0X).).(.~.(.).).).0X6X^.^.^.E.H.4X0XqX8X4X4XwXnX0X0XcX0X0XxX6X6XzXcXvXvXcX).(.zX)._._.(.(.(.hXlXbXlX!.P.!.(.lXzXvXcXzX(.!.!.).0X)./.^./.0X0X0X8X5X5X9X5X5X4X5X5X=X=XW.5X=Xj.f.L.^.6X0XE.^.qXcX0XwX4X^.E./.6X6X^.4X4X6X6X6X7X=X%X@X@.Z q 1 8 l { 1XVXVXtXVXGXiXiX,XrX&XA.Z.,X>XC.:Xb.8.8.v.%XrXrXrX2X:XB.2X2XaXyX2X2X2X2X;X&X%X%X*Xi.u.n.OX3XZXrXrX9X&X%X;X&X%X%X;XtXtX>X-X-XY.j.T.Y.W.8X4X4X0XDX0X0XmXLXFXwX4XL.eXGXGXGXGXSXGXGXeX-X-XeXwXGXHXFX",
"GX9X8XFXPXLXFXHXHXFXFXLXLXKXKXPXLXKXFXKXMXuX9X>XuXtXpXuX-X-X9XrX-X9XtXtXuXuXMXSXMXFXFXMXnXwXnXnXFXFXMXLXGX9X=XiX9XMXGXGXMX8X9XSXPXPXKXpX&XN.;X9XiXiXSXiX9X9XuXGXMXxX7X^.7X7XH.d.z.x.R.4XW.L.Y./.R.).8XqXcXnXuXpX@X..' m z b z z A ~ $.#.! U o.u.OX2XrXpXiXiXSXGXLXFXDXFXIXIXLXwX/.W./.^.W./.8X^.R.E./././.E.^./.0X).~.!.~.).lX0X(.8XzX8X`.qXmXHXLXHXwXR.R./.wXFXKXPXPXrXu.OXOX|.*XyXpX;XJ.J.7XMXFXLXHXqX7XcXnX8X4X9XwXiXiXMXGXGXmXwXqXmXHXxXxXmXmXnXmXFXMX9XuXMXKXFXMXnXMXMXwX5X8XcXFXnX^.cXmX4X9X,XC.q.k.Z.j.,.,.R ) j.k.b.C.T.Q.eXGXeX9XiXGXiXwX9XeX8X8X0X/.4X/././.^.!.!.!.!.(.~.!.!.!.~.(.(.).zX6XR.H.E./.E./.8XwXwX4XW.K.K.K.E.8X^.^.8X^.E.R.0XxX6X6X).(.(.).).(._.!.!.hXbXhXhX).zXxXzXzX).(.!.F.l.[.G.U.~.)./.`.'./././.8X5X5X=XY.Q.-XY.f.W.Y.Y.Q.L.f.H.GXFXqX4XwXnXwX0XwX0X0X/./.6XnXnXwX8X8X0XzXzX7X=X%XoXQ M 4 > 1 w Q *XpXSXSXGXnXeXeX9X>X>X,X&XC.Q.&XN.b.N.N.b.B.N.N.;XOXv.6.;XC.N.N.yX2X;X;X;X=X&X;X%X4.4.%XrXrX;XQ.9X>X%XC.,X,XT.Z.&X;X&XN.j.j.M.k.j.T.E.H.R.0XcXwX0X^./.4XW.Y.Q.W.eXwXeXW.-X-X-X-XZ.k.k.Y.8XwXwXqX",
"HXDXnXwXwXwXcXDXFXFXFXFXGXiXeX9XMXMXFXFXGX9X9XuXMX5X&XQ.Q.9X9X&XQ.&X9XSXGX9X4X9XwXMXnXqX4X8XnXHXGXLXFXLXnXqXY.=X4X5X8X5XW.Y.=XSXKXKXtXiX9XM.k.j.=XMXGX9X4X4XqXwX6X7X/./.6X6X^.D.3.l.D.R.Y.l.c.R.(.0XzXzXmXDXGXKXOX| I Z Z K K J W  .#.O.U D N E %XN.Q.SXFX8XqXcXcXHXLXLXHXHXcX).~.~.`.zX0XzXbX).R.R./.).!.F.F.!.!.!.(.).kXkXhX).bXzXzXbXvXvXcX0X).xXxX).!./.mXIXIXIXIX5X8.N.b.n.A.yXVXtXiXnXmXHXvXvXxX6X/./././.E./.0XcXwX4XE.R.^.K.^.xXmXxXxXHXmXHXLXHXDXDXnXcXqX6X6X6X6X6X6X6X^.^.6X7XR.7XnXnX>X>X,XC.C.C.q.) ,._ ) q.k.b.Z.C.b.,XVXtXeXiXVXuX-X-XwXeXeXeXQ.E.4X7X).).^.^.~.(.!.P.].!.!.~.~.!.0X).K.S.H./.E.x.l.x.K.K.L.S.G.z.D.Y.8X4X0XcX0X0XD.R.E./.0X6X/.6XxX).R.R.(.).(.!.).).zXxXxXzX`.).(.(.).(.~.R.R.R.^.R.R.E./././.W.Q.Y.T.-X&XN.M.T.k.W.T.k.J.5XeXiXwX-XW.qXcXqX4X0X4X0X8X4X0XcXnXcXwX0XqXcXxX0X5X;XoXJ M 4 > 1 8 ' @XtXSXGXFXHXHXLXFX9XC.Q.&XC.k.v.8.5.9.8.q.b.N.B.b.%Xu.E 4.8.u.u.>X:X:X;X=XM.m.M.q.5.b.>X;XM.j.k.%XZ.q.9.q.v.v.b.v.b.N.C.j.5.j.N.j.N.J.M.Y.8X8X4XW.Y.H.M.j.M.W.&XQ.T.k.w.w.j.q.q.w.w.7.j.Y.W.T.Y.",
"/.nXDX6XW.4X8XW.=X5X5XQ.Y.H.k.d.x.4XwXqX0XnXGXGXFX8XQ.Y.H.8XGXwXFXeXW.=X8XW.x.f.g.H.8X4XE.4X8XnXwXLXGXGXqXGXJ.7.j.M.J.Y.W.9XiXeXuX-Xm.=XiX5XQ.J.M.MXnXW.4XnXFXqX).xXcXzX).^.!.R.~.'.0XqX0X/./.'.8X0X(.(.xXcX8X9XC.Y B Z Z K J Q ] #.t.t.o.D N N R 7.j.Q.W././.l.^.zXDXvX0X).(.!.!.(.zXbX0XzXzX(.~.^.).8X(.U.U.~.F.R.~.).hXkXzXzXkXkX).).(.(.).0XR.K.K.^.).^.6XLXHXmXLXFX-XN.Y U u.2XtX9X9XcXxXNX6X).).zXzX).!.!.^.!.R.!.R.D.G.l.G.L.^.(.6XzXbXvXvXHXHXHXvXmXcX8XR.^.).^.K.K./.qX0XL.x.Y.Q.M.x.T.b.%X>X;XT.N.k.8.w.b.b.q.b.C.C.n.C.%X&X;X>X9X9X9XT.W.iXSXGXuX&XW.^.^.^.).).^.).hX_.).).).`.).).).~.^.R.H.Y.R.L.k.x.x.x.z.S.L.^.^.R.E.qXwXwXcX0XqX4XE.^.wXnX/.R.0X).).8X0X0X).^.R.).`.`.).(.(.).0XzXzXzXzXzX0X0X6XR.^././.E.Y.R.R.M.M.M.T.-X8X-XW.k.Y.Y.T.eXGXeXQ.Y.W.4XE.R./././.0X0X0X4X4X0X0X8X8X8X0XxXzX6X/.&Xa.' x 8 > 1 h } OXuXKXLXLXLXHXLXKXVX>XC.Z.C.T.M.u.X.X.6.u.C.A.u.6.b.8.) T X.q.&X|.|.%X;X5XJ.m.v.N.OX;X&XC.M.z.h.N.b.q.8.8.5.9.v.C.q.8.b.T.N.M.M.J.v.k.Y.=XQ.Q.=XW.4X8XQ.N.N.N.j.M.j.w.q.N.b.q.q.b.n.j.b.Q.Q.Y.Y.",
"G./.cX0X4X4X=XT.T.M.k.k.x.x.D.H.h.Y.W.E.W.wXFXFX8XW.wXnXnXFXIXFXwX-Xx.7.h.M.k.<.R ,.H.x.x.H.x.Y.W.qXY.W.J.;X7.,.j.M.Q.;XuXSXSX9XiX5Xf.k.5X8X=XE.1.8XeXnXHXHXDXW./.wXvXcXcXcXJXJXqXcXJXcXqXwXeX8XwXnX0X0XnXmXiXrXOXP C Z Z J Q Q I ..s.oX@Xi.6.i.6.k.7.) ,.Y.eXS.D.H.R.^./.4X/./.!.(.qX0X).).).(./.R.R.^./.!.!.(.zX0X0X/.^.(.).zXP._.kXzX_.F.!.(.6XK.g.F.^.!.^.vXxX(.0X9XT.b.N D a.3X2X&X5X7X).xXvX).F.F.!.(.).0XF.l.2.3.G.F.R.^.K.7X6X7X7XzXbXzXvXvXvXvXvXbXzX(./.4X6X/.E.W.8XnXqX=Xj.k.&XN.7.j.j.N.Q.=XW.Y.T.T.T.-X-XT.T.Q.T.N.&XZ.b.M.N.M.T.&XN.T.5X5X4X=XJ.L.K.K.K.^.^.^.(.hX).zXbXbXxX0X8X`./.qXxX0XW.Y.Y.Q.m.J.E.7X6X7X^.K.R.H.E./.^.E.D.R.0XcXcXcXcX).R.(.R.`.JXJXzX).).).F.~.`.zXzX).~.~.(.^.!.!.!.^.).6X^.6XxX0XR.S.D.R.E./.W.D.R.8X/.c./.R.Q.cXHXwX/.8XW.0X8XR.R.^./.^.(.!.!.).0XzXzXzX/.^.(.hXhX_.^.Q.i.[ z 8 1 8 J }.n.;XuXMXnX8XW.W.=X9X>XN.q.b.N.v.T _ q.OXOXn.6.U X.6.n.ZX2XOXu.:X3X+X|.N.N.m.T.9XtX3X1XC.T.W.R.H.M.N.N.J.v.4.8.%X>XN.5.j.Q.-XJ.z.M.f.f.J.E.M.x.L.=XE.Y.M.j.M.%X%Xk.j.j.T.-XN.j.N.j.N.v.j.J.M.z.M.",
"qX^.^.0X4XN.J.;Xk.7.7.k.H.x.x.L.E.R.R.W.W./.cXHXDXR.Y.W.4XGXHX4X-XuXeXT.Y.W.M.<.w.7.k.1.1.h.h.Y.T.J.1.T.h.j.:.j.W.N.Q.9X5X&X;X;XJ.Y.g.x.8X8X8X8X4XnXwXLXIXwXwXDXcXcXcXcXDXHXDXJXcXDXJXcXJXDXGXeX8XwXcXqXxXcX9XtX*XP B H H ' } }  .a.@X3XCX1X%XtXSX-XM.T.x.x./.'.wXwX0X6X^.H.D.S.!.(.8X/.R.!.).(.0XR.H.W.0X0X8X0X(./.).6X).).).`.)._.!.~.!.F.F.F.F.K.F.G.S.K.K.).(.!.).R.M.N.N k t.3XpX9XnXcX6XxXzX^.F.F.!.).).(.).R.G.G.F.F.U.K.^.K.^.7X6X).6XzXxX).(.zXcX0X/.^.0X/.R.R./.0XqXeX5XSXW.j.&X>XN.b.T.M.M.Q.5X9X9X8X=X=X=X5X;XJ.k.T.w.4.) 9.4.,.j.&X9X=X=XY.H.Y.H.R.H.K.K.^.^.!.~.)._.).zXzX0X)././.qX/.R.R.R.Y.H.H.Y.J.K.E.^.^.^.K./.H.^./.4X/.R.0XR.DXHX6X/.xX0XR.!.(.`.0XzX0X).(.).(._._._.(.).kX(.(.(.).6X6X).).).).7X7X7X/.E.K.D.H.R.R.D.c.D.E.H.E./././.E.R.8XnXqX/./.6X6X`.6XzX(.~.).zX`.(.(./.^.(.).hX_.^.Q.n.=.z 9 1 0 &.1X:XsX5X5X4XE.J.=X%X%X%XC.T.N.j.) ) +.i.n.u.i.A.OXq.i.u.tX:XyX&XOX@Xn.i.N.N.T.9XKXtXtX1XOXC.M.Y.qXJ.J.J.N.q.) q.pXC.%X%XT.M.M.M.m.m.M.J.T.E.T.J.J.m.z.M.M.j.8.v.m.j.f.j.Q.=Xj.5.M.j.M.m.j.M.z.g.S.",
"cX4XE.W.5XJ.f.7.j.j.m.k.f.j.x.z.x.H.E.E.E.E.4XwXDXcX4X4XwXDXwXW.8XY.Y.J.k.T.Q.j.k.T.T.j.h.H.E.Y.Y.x.z.z.d.,.1.x.W.x.4X5X4X8XW.4X/.cXwXwXcXDXHXcXwXcXnXFXDXnXcXnXDXcXxXcXDXDXDXDXcXDXDXcXcXJXDXcXwXnXDXHXDXxX6X=XOXO.N W } @.W #.u.OX2XyXiXtX9XeXwXnXnX4XR.R./.0XcXcXcXcXzX(.R.K.6X6X).~.^.(.!.G.S.l.S.R.(.)./.`.~.(.`.zXzX).).kX_._._.].F.!.(.P.F.F.~.).F.F.!.F.!.kX(.).Y.q.D C i.1X9XcXcX(.~.!.F.F.R.^.(.^.K.D.S.z.z.D.R.R.~.R.R.^./.^.!.!.^.^.!.^.6X0X4X4X4X9X8XY.Y.W.8XqXwXqX8X9X8X8X;X-X>X9X9X9X9X4X5X9X9X9X=X=XJ.M.=X=Xm.m.8.6.4.4.R R 5.N.;X&XT.Y.Y.Y.T.W.E.^.R.F.F.!.(.(.(.~.).`.).).8X^.^.^.D.c.E.4XE.W.W.l.l.H.^.6X6XG.K.E./.4XqXcXcXwX0X0X4X^./.0X/.R.(.(.).).kX).~.P.~.hX).P._.NXvX_.!.(.).).).6XzXxX(./.^.^./.0X6X^.H.R.R.R.H.D.D.H.H.L.R.Y.H.H.Y.W.E.R.H.R.7XxXzX6XR.!.).6X6XzX0XR.^.^.~.~.!.!.E.T.XXH x 3 - z }.oX*XN.N.N.&X-Xm.T.%X9X5X9X-XJ.J.f.u.b.u.v.n.u.6.B.N.&XOXN.b.u.N.N.&XN.N.-X5X9XuX>X;XT.C.M.j.Q.9XQ.-Xb.N.v.b.q.OX&XOXN.C.%Xb.v.M.M.m.H.J.T.T.J.N.M.N.M.M.v.j.8.7.7.H.R.uX=Xk.j.7.J.=XQ.R.J.z.g.c.L.",
"6XqXE.x.H.Y.M.j.k.j.z.f.7.f.x.x.R.L.D.c.c.D.R.E.Y.R.cXLXHXW.c.Y.d.M.H.j.7.w.T.uX9X;XT.E./.8X8X/.L.W.E.z.d.l.x.x.c.l.W./.4XcXwXwXwXcXcXFXHXDXHXHXR.6XmXFXmXcXcXcXmXvXvXDXHXHXHXHXHXcXbXcXcX0XbXFXDXFXHXHXHXvXxX9X2Xu.B A ' [ ! y.) q.&XrX9XQ.Q.4X0X4X/./.cXHXDX6X0X0XzXzX6X).).zXzXzX(.!.F.!.!.F.2.S.R.R.R.R.).0XzX`.).`.kX_.].F._._._.)._.).zXlXbXlXxXcX).(.).R.!.kX_.(.E.j.N N | OX8XxXbX).).).U.F.F.R.^.^.D.g.S.E./.E.H.c.h.2.R.(.).).0X).!.D.R.E./.4X=XJ.j.f.j.M.Y.H.Y.8XwXW.4X4X4X9X9X9XuXuXMXFXGXuX5X=XQ.Y.=X;XY.Y.4XW.x.k.b.B.N.N.b.q.w.j.7.w.M.Q.W.T.Y.Y.~.W.R.R.R.!.~.~.(.!.~.(.~.(./.^.).6XR.K./.E.H.H.D.l.L.R.S.S.R.R.xX/.E.0XnXnXwX8X8XE.D.H.R./.4X4XzX~.F.F.~.hXhX).F.P._.!.P.F.I._.kX).~.(.kX).!.F.!.(./.^.E.^.^.^.E.R.R.H.H.H.R.E.W.W.W.Q.E.Y.Y.L.R.E.^.4X/./.6XxXzX6X).)./.0XxX4X0X0X8X/./.~.R.J.e.v p , > l }.|.r.9.V.B.%X%Xv.T.&X5X5X5X-X=X=XN.C.N.b.B.C.v.6.v.N.OXB.v.q.8.v.5.M.M.-XiXiXuX;XT.Q.T.=X=XJ.Y.Q.N.j.8.n.b.C.N.&X;XOXq.9.q.v.b.C.%XT.E.J.M.k.j.M.N.j.j.j.v.N.Q.=X5X9X4X4X4X5X5XR.J.W.K.H.H.L.K.E./.",
"E.^.L.l.l.l.7.<.j.j.m.M.M.M.J.x.g.l.D.R.4X4XW.R.Y./.0X0X/.R.Y.D.x.E.H.k.k.7.,.j.T.T.W.nXHXFXnXcX4X8XE.g.<.c.R.R.H.H./.R.H.R.H.c.4X0X4XcXwX4XwXcXHXFXnXcXmXHXmX0XHXHXDXmXmXDXHXHXHXcXcXDXDXcXbXDXDXDXDXJXHXJXDXMXrXi.A W [ .. .y.q.8.Z.T.;Xk.Y.4XR.E.^.^.0XDXHXDXHXvXcXcXvXvXDXHX0XzX6X).6X0X^.G.D.D.l.1.3.R.0X`.(.(.(.kXzXkX).).).U.U.!.).`.zX).).!.~.(.(.).0X).].).~.!.T.N.N k | :X8X).P.G.G.l.F.!.).^.K.G.D.K.L.^.^.D.l.Y.W.R.S.F.F.F.F.R.K.F.R.R.E.E.M.<.E E ,.h.x.k.x.E.E.R.E.R.R.=X9X9X9X5X9XnXnXuX-XT.J.J.Q.=XY.Y.W.R.H.M.N.B.b.B.v.v.b.M.T.N.j.7.1.7.M.4XY.R.R.R.R.~.(.~.).~.(.(.!.^./.^.^.^.R.E./.H.c.D.4XR.R.E.L.S.K.K./.R.R./.^.H.D.E.wXE.S.S.D.c.c.D.D.G.G.F.~.(.!.F.P.!._.)._.G.I.hX!._.hXkXzX).).(.).zX0X).!.K.R.E.^.E.R.H.H.L.R.E.4XW.W.W.4X4XE.L.L.E.7X7X/.^.6XvXmXzX6X).^.^.6X6X6X6X/././.~.R.J.6.B p , > y @.e.N.v.f.5.j.v.j.T.J.%XJ.%X=X=X5X=Xb.B.N.&XrX&Xv.q.q.v.8.v.N.%X;X%X-X&X9XiX9X5X;X=XQ.J.T.T.m.k.J.N.M.v.N.b.:X&X&XB.v.T E R 4.b.N.v.7.f.m.m.j.j.j.v.8.8.5.8.j.N.Q.=X=X4X4X5X4XW.7XE.W.R.L.R.E.R.K.D.",
"6XK.g.d.2.:.R 7.,.,.f.m.M.H.J.k.x.l.l.c.H.H.H.x.c.R.4X4X8X0XW.c.x.g.<.j.R.k.<.<.,.f.E.wXcX0X4X4XcX4XR.c.l.D.E.4X4XW.7X/.E./.E.H.E.0X7X4X4X4XwX/.qXDXDX0XE./.cXDX0XvXHXHXHXmXcXqXDXDXJXbXbXHXDXqXcXcXvXvXJXJXDXnX2Xi.] ] ..@.#.y.OXq.v.N.9XT.=X8XqXcXcX0X/.^.0XnXHXcX6X0XcXcXzX).).).).6XxXxX^.G.F.U.D.D.(.bX0X!.~.(.).`.(.!._.`.bX_.~.`.).).6X6XzX).!.R.R.!.(.~.U.!.].F.E.%XD f | *XwX(.P.I.!.R.R.~.(.!.F.G.P.7X^.^.^.R.R.^.R.G.D.F.K.D.D.R./.7X/.E.Y.H.f.R E E 7.7.h.z.x.h.l.H.H.H.M.Y.Q.=XQ.Y.J.R.=X4XQ.Y.T.T.m.M.M.M.J.J.L.J.N.m.f.8.8.j.M.N.k.T.;X8XQ.j.1.1.Y.R.R.R.!.(.(.~.).(.).).!.!.(.E.K.K.K.E.E.H.H.E.l.l.z.D.E.6X0X/.D.D.H.R.c.2.l.H.H.D.S.D.R.R.R.^.F.F.F.G.G.F.!.(.(.).hXhXhXzXkXhXkXzXbXbX).(.(.).).0XzX6X^.R.E.^.^.E.E.E.E.E.R.H./.E.E.W.4X4XW.R.E.^.^.E./.6X6X).cX6X6X0X^.R.^.^.)./.^.^.^.~.R.J.e.S z 2 4 q  .o.6.j.m.N.T.N.v.N.J.T.M.N.T.T.&XT.%Xb.8.8.v.M.T.-X%X-XT.%X-X;XuX9XQ.-XiXKXSXuX5XQ.&XJ.M.M.k.j.k.N.j.v.b.q.C.OX%XC.q.4.R R 4.N.N.9.R 4.8.v.v.v.q.8.8.8.9.,.1.7.j.m.z.7X7X7XK.g.J.E.W.^././.^.K.S.l.",
"^.K.K.E.L.1.R ,.:.R R R :.1.h.j.l.l.c.D.H.H.H.D.l.z.R.wXwX/.R.W.E.d.d.g.1.<.f.f.x.E.8X/.R.H.R.R.R.E.^.4X6X4X7X4XwX/.E.4X4XE.W.E.H.R.J.Y.4XwXnX0XcXwX4XE.^.7X^.L.0XxXcXxX0XwXcXqXcXJX0XG.U.cXFXcXDXDXvXvXNXvXzX4X;Xt.! I ]  .y.a.b.5.b.&XiX5X5X8XE.D.S.^.6X^.R.E.0X/.R.^./.^.R.F.^./.(.R.F.F.F.G.G.D.R././.^.~.~.!.R.U.U.].].~.(.).`.bXcX~.U.!./.!.!.K.K.K.R.R.~.U.U.!.D.E.;XN f ] :X9X)._.).zX).).R.G.G.!.^.^.K.P.S.D.K.R.D.G.l.R.R.E.^.^./.^.K.E.R.H.z.7.,.,.7.T.H.z.z.D.g.d.D.Y.Y.Y.J.J.J.N.M.x.x.H.H.J.J.M.M.j.j.k.k.l.k.H.H.M.J.J.N.M.m.k.m.T.Q.W.W.T.M.Z.T.R.R.^.^.(./.(.!.(.~.).).!.R.!.R.R.K.K.R.H.D.L.E.R.4X6X^.^./.R.G.^.R.R.K.R.R.R.K./.0X0X^.K.D.D.S.K.R.!.K.F.F.~.).(._._.hXkXzXkXhXbXhX_._.).`.).(.!.!.^.^.^.!.^./.6X7X/./.^.^.R.K.^././.W.E.E.R.R.7X8X4XR.^.6X).F.6X^.).0X/.^./.4X0X6X8X/./.~.R.Y.6.C l 1 4 q  .u.N.Q.T.%X%XM.M.N.&X-XZ.T.C.M.Z.M.T.b.8.,.) 7.M.T.9XiX9X;XQ.T.9X9XT.Q.9XiXMXMXiX5XY.M.k.J.Y.M.j.k.j.M.b.R 4.X.u.n.OXn.N.b.B.N.N.8.j.8.8.8.v.v.q.8.R R R ) ,.7.j.l.H.E.L.E.E.S.R.S.E./.6X).!.R.!.^.",
"S.^.6X6X4XY.7.,.7.,.:.,.:.,.7.d.d.c.E.4X0X4X/.W.E.x.h.c.Y.8X0X0Xl.:.<.x.h.L.wXwX4X0X0X/./.4X/.R.l.F.!.^.6XxXxX7XnX/.H./.R.l.x.x.Y.x.g.R.4X/.8XwX0XcXnX4XH.c.R.6XcXcXqX^.R.^././././.~.D.R.0XcXcXcXcXbXvXbXzX^.L.b.| ! I ] [ t.t.6.q.M.T.Y.Y.E.4XH.2.<.S.R.R.H.R.c.D.R.^.E.R.R.^.R.0XcX(.G.l.G.F.~.R.R.R.!.R.~.).).F.G.F.(.zX`.).~.].~.zX0X(.R.l.2.l.l.S.R.R.R.~.!.U.!.K.E.;XN f ] @X9X6X)._.~.F.).!.F.!.(.).!.F.G.g.g.G.G.l.U.8XR.D.c.S.R./.R.l.l.h.f.7.7.f.J.5XeXwXW.x.R.R.D.H.Y.E.E.Y.M.k.k.M.m.z.z.M.J.N.M.m.M.v.M.m.f.j.x.k.m.J.E.%XT.Y.J.N.j.M.T.8XeX8X-XW.W./.'./././.(.!.).(.`.`.~.!.^.R.^.R.!.K.l.l.S.x.D./././.cXDXxX^.R.^.^.R.R.E.^.R.l.H.R.S.l.D.R.R.F.D.K.^.).).~.F._.P.P.hXhXI.I.hX_._.].].~.).xXxX(.~.!.^.^.!.R.!.xX0X6X/.^.^.^./.R.E.7X/.^.E.W.4XR.6XqX^.E.6X6X^.^.K.R.!.!.(.8X0X)././.^.~.~.^.E.6.A l 1 1 q o.C.SXSX-XM.v.f.M.T.T.Q.Z.C.N.k.Z.N.M.M.Q.%XM.v.N.M.Q.9X5X&XY.M.5X9X9X=XQ.Q.=X9XuX9XT.J.k.k.J.J.k.m.N.v.4.E 4.6.6.i.2XOXOX&XN.8.v.b.v.8.8.q.v.v.6.X.R R ,.7.j.N.Y.Y.^.^.K.^./.^.^.K.^.).).^.R.!.0XxX",
"6X6X^.R.E.W.E.Q.T.M.J.J.j.j.j.z.R.R.J.L.H.H.H.R.H.H.h.1.D.0X0XH./.R.E.7X4X/.E.L.H.D.H.^././.R.F.G.G.F.K.^.6X0X6X/.E.D.E.L.x.=X-X4XE.M.=X8XW.8XwX/.D.g.c.H.E./.4XR.7X0X6X/.R.S.3.U.R.~.`.qX0X0X0X8X8XzXbXbXzX).R.8.U ] W [ ] #.| 6.C.M.M.7.Y.W.8XHXnX8X^.R.H.H.R.d.h.c.H.D.D.H.E.H.4XxX/.K.D.R.R./.8XcXDXHXDXqX!.cX`.!.(.).).(.!.`.~.~.0XcXcX0XD.H.R.S.l.H.R.U.R.0X!.(.R.Y.OXk f W XX5X0XhXhX0X).!.(.).).~.!.^.(.G.F.~.).~.F.G.F.^.R.D.c.H.E.E.L.2.<.7.f.f.k.T.4X0XnX4XR.4X4XY.W.L.R.E.E.H.m.m.M.M.k.m.J.J.M.M.M.m.j.M.J.z.k.H.z.m.M.H.H.J.=XQ.Q.J.M.Y.4X9XeXW.Y.Y.E.^././././.^.(.(.).).!.!.^.!.!.K.^.K.l.c.D.g.R.R.D.K.6X/.F.S.D.R.^.R.D.l.S.H.S.D.S.g.2.3.g.l.R.D.G.G.F.!.(.(.!.!._.hX_.I.].hXhXzXzXkX~.!.(.hXzX0X6X6X).^.R.!.zX0X6X/.^.^./.4XD.R.7X6X4X/.7X4XL.W.4X7X/./.6XxX!.K.K.R.R./.8X/.!.R.R.R.R.R.!.E.6.P z 1 1 f e.;X9XMX=X=XQ.M.T.Q.M.Z.k.M.k.w.C.T.-X&X9X9XT.Q.8X8XW.9X-XW.Y.k.Y.H.E.Y.=X4X4X4XW.x.Y.Q.m.f.M.M.k.M.v.4.R E  XOXOX:XOXB.B.N.v.8.v.v.6.5.6.8.u.u.5.) v.n.T.-X9X9X9X8X^.^.7X/.^.^.!.).).).(.~.(.6XzXzX",
"6X^./.cXDX8XE.8XwX5X=XQ.M.j.Y.Q.l.x.L.K.R.R.H.D.H.c.z.c.c.c.Y././.nXcXqXcX/.D.K./.H.D.R.R.D.F.R.!.G.G.).0X!.R.4XD.H.c.x.f.d.W.W.Y.W.Y.Y.W.W.qX4X/.H.x.R.R.H.x.L.K.R.D.g.g.S.K.H.D.R.^./.8XqXqX0X0XqXcXvXNXvXzX7Xv.T ] A W W #.o.X.T.M.Y.j.iXwXcXDXDXcX6X4X0X/.H.Y.x.l.x.H.R.R.H.H.D.c.l.S.^.6X/.^.JXHXHXDXJXcX0XR.R.~.(.~.!.(.`.R.~.0X/.R.^.0X0XH.D.<.<.c.R.W.qXcX(.6XE.Y.n.f 0 W |.%XE.!.F.~.~.~.~.!.K.K.!.).6X(.^.!.!.~.(.!.F.D.R./.E.H.D.S.x.d.f.j.M.H.M.M.M.W./.R.E.qXE.x.4XL.R.Q.W.Q.Y.J.J.J.J.J.T.J.m.j.v.8.5.m.Y.M.J.Y.m.J.J.J.R.4X4X=XJ.-XT.Y.W.8X;XT.k.c.D.Y.R.E././.(.R.R.!.!.F.F.R.K.G.F./.^.L.E./.S.c.H.H.R.R.g.g.).).R.K.^.^.D.l.l.S.l.l.S.D.S.D.K.D.D.K.R.!.!.!.!.!.hXhX_._.kXkX_.hXhX).).zXzX).(.0X6X6X6X6X/./.6X^.).6X6X^.^.^./.K.^.6XqX0X/.E.E.^.R.W.6X6X^.^.6X).^.(.^.^.6X6XR./.^.R.R.U.F.F.H.X.C l 1 w j a.pXSXLX5XT.J.j.T.T.C.T.b.b.j.8.n.T.&XW.eXeXW.Q.-XT.Y.W.Y.T.T.H.Y.z.Y.J.L.L.L.W.4XY.j.Y.J.k.J.M.f.8.v.N.B.r.OXr.u.OX6.B.N.u.v.%X%X6.u.6.+.X.X.+.5.6.C.C.&X;X,X;XW.Q.7XE.6X^.^.6X!.6X6X).).6XvXHXcX).",
"!.^.6XwXwX8XW.T.J.-X9X-XW.-XE.M.L.S.K.L.g.L.^.l.D.D.R./.E.H.H.W.H.4XnXcX4X/.^.^.6XK.!.6XR.3.l.R.K.!.^./.).R.D.R.R.D.D.L.L.z.h.j.M.k.k.z.M.J.H.k.g.z.L.W.E.L.D.D.c.<.g.R.K.E./././.Y.R.R.S.U./.^.0X/.`.xXhXlXxXwX&Xi.! B N W #.o.N.%XT.N.-XnXnXwX4XDXHXcX/.8XcX0XE.8XD.Y.c.g.<.l.c.2.:.2.R.R.H.6XcXHXJXqXcX(.D.(.R.F.U.).0X`.).!.`.~.R.R.D.D.H.R.L.x.R E d.D.R.wX).6XlXL.%Xu.0 0 ] a.C.4XzX).zX0X0X).!.^.6XlX(.K.).P.K.!.!.!.F.F.D.K.R.H.c.l.l.x.h.Y.=XQ.Q.=X4XQ./.S.H.W.E.E.4XE.R.Y.H.J.W.4XJ.l.J.x.j.k.T.&XM.,.,.N.T.j.k.m.z.k.R.H.x.J.Q.=X=X=XJ.T.J.k.T.Q.Q.=X8XR.c.z.H.R.R.K.R.R.!.(.~.K.F.F.!.!.R.K.H.K.E.4XH.H.H.D.S.S.F.F.R.R.R.R.R.R.!.!.F.K.F.F.K.!.R.F.!.!.(./.!.F.~.zXlX).(.(.hXhXhX_.kX!.).kXzXxX).zX).).^.R.R./.0XxX).R.R.6XzX6X6X0XxX0X0XxXnXcXwX0X7X4X^.7X0X6X^.K.G.K.!.K.R.!.R.H.!.^.^.R.~.~.!.L.5.C q p ; j *XrX9X9X=XM.M.Y.T.M.T.T.&XQ.w.w.C.T.-XW.W.W.-X-XW.W.4XH.H.-XW.x.l.H.E.L.M.m.J.R.Y.M.M.J.N.M.j.7.j.M.4.N.8.4.6.6.i.u.i.u.n. Xv.B.B.6.n.n.+.| 6._ T n.N.C.%XT.T.Y.M.k.W.W.6X/.F.!.6X(.(.(.zXvXvX(.F.l.",
"R.)./.D.S.W.8X-XT.=X-XW.E.W.T.H.S.x.R.E.z.S.R.l.c.R.E.H.H.E.E.H.wX6X6X6X/.R.^.0XqX0X6X(.R.(.(.K.G.F.G.l.K.R.D.c.D.R.E.L.H.H.h.,.j.Y.Q.J.j.f.h.z.D.H.H.x.D.R.E.R.g.2.L.4XE.H.R.^.R.D.Y.Y.c.U././.8X8X`.(.!.(.0X4XN.e.I N k I y.|.OX=XJ.J.4X8XE.D.0X4X/.R.D.R./././.wXR.R.4X/.c.<.<.g.l.D.R.S.D.8X8XDXcX8XqXR.3.l.U.!.zXzX(.~.).).~.!.R.D.g.<.d.J.g.M.<.E <.c.D.R.zXxXxXJ.&Xu.0 7 v y.T.4X(.R.0XcX!.`.bXvX6X!.F.F.(.(.6X).U.G.G.F.2.l.R.E.R.c.g.1.1.f.x.Y.5XwX8XW.^.D.H.E.R.R.W.R.l.L.W.Q.Y.L.H.M.m.J.Y.T.N.m.j.j.N.%XM.7.k.M.x.k.J.j.f.j.J.J.k.j.M.Y.Y.Y.W.=XT.Y.W./././.E.R.R.H.R.R.R.~.!.!.~.(.^.!.F.D.D.K.R.E.D.D.D.L.K.^.).).^.!.R.R.R.K.F.D.D.R.!.K.D.F.R.^.R.K.F.R.).zXzX6XlX).(.).hXhXbXNXzX).zXxXxXzX(.(.zXzXzX6X6X0X6X7X!.).6X^./.6X6X^.6X0XwXwX6X4XqXnX4X7X7X8XxX0X!.S.K.K.R.^.R.D.D.R.K.K.R.R.R.~.!.L.8.C w - ; @.3Xv.j.m.T.9X9XY.T.;X;XN.Q.9XC.w.N.&XQ.W.W.W.W.Q.T.T.Y.H.Y.W./.E.Y.Y.H.Y.E.J.k.k.M.J.M.M.M.M.m.j.j.v.N.B.R T 6.6.|.@X:Xu.u.n.u.4.8.v.N.n.X.Y T _ +.A.b.b.v.j.j.M.M.x.x.S.E././.zXmXbXxX(.F.G.l.3.2.2.",
"g.R./.^./.4XY.d.<.1.h.x.Y.W.W.E.z.z.W.4XS.x.L.x.D.c.c.H.R.Y.H.H.g.x.L.E.R.E.6XnX6XcXcX^.S.H.^.H.E.^.^.R.K.z.g.c.l.x.H.x.M.E.E.J.M.Q.W.Q.Y.J.M.k.W.W.H.f.g.M.H.l.7XK.K.E.D.l.L.7X/././.R.c.c.D.D.R.W.).!.P.).xX;X&Xi.] B f B $.@XN.v.7.f.Y.4X/./.E.c.l.K./.qXwX4XH.H.D.4XwXH.D.D.c.H.R.^./.^.^.8XbXcX8X~.`.(.R.^.D.!.0X8XR.R./.).G.R.~.^./.4XR.k.d.l.<.<.c.K.K.R.).).7XK.%Xe.0 7 v %.Z.E.(.~.`.)./.`.zX0X6X^.K.F.K.^.).).U.G.F.!.(.R.H.c.c.H.E.4X4X8XwX8X4X4X^.^.R.c.D.R.H.D.H.H.j.J.W.E.H.x.H.H.j.J.-X5X=XT.%X9X&X%XM.7.j.j.j.j.k.f.7.j.m.k.f.7.j.k.j.f.k.M.N.Y.Y.R.R.L.x.x.D.H.H.K.!.^.!.K.!.(.zX).!.K.R.E.^.E.^.R.K.K.!.^.^.^.!.!.(.).0X0X0X6XK./.0X0X(.^./.6X!.6XzX(.~.).).).lX).).).).).zXvXbXzXzX!.U.(.(.0XcXxX0X/.4XqXwX0XR.).6XE.R.^.^.R.^././.E.R.L./.wX^.R.L.L.E.^.!.K.!.K.R.!.R.F.D.!.K.K.U.D.R.!.!.L.X.C z - 7 }.dX%XJ.M.Q.9X9X%X5XSX9XN.b.T.b.8.b.;X&X-X8X-XW.T.Y.Y.z.H.Y.H.R.W.E.H.M.R.W.J.j.f.k.M.k.j.j.v.M.b.j.8.v.v.8.n.:XB.i.u.n.u.q.q.6.6.q.6.5.u.i.n.XXXXu.+.q.b.Z.%X&XQ.x.7.M.k.L.4X6X6X6X^.!.!.R.U.R.R.R.R.",
"R.S.c.Y./.E.x.h.7.d.k.Y.Y.c.l.c.S.z.J.E.S.z.x.x.D.d.2.D.R.D.c.c.d.L.R.L.E.wXcX/.)./.4X^.l.3.c.H.E.E.^.qXqXR.H.4XW.H.x.H.H.x.H.T.Y.Y.Y.Y.T.E.J.k.z.x.x.z.H.R.R.L.W.E.E.E.E.K.D.l.R.E./.^.R.R.W.W.Y.R./.).).xXcX;XN.O.] B f C %.1X>X=XM.m.Y.R.R.4X0XH.S.R.0XcX0XH.H.x.H.W.0Xx./.cX0X0X8X/.6X6X/.^.R.!.D.l.F.R.R.`.0XR.R.(./.8X).R.zX(.U.H.R.W.L.f.m.7.<.S.6X/.R.).P.K.K.L.N. .0 7 A s.OXY.!.)./.U.`.).~.^./.6X/.^.K.K.K.!.~.~.!.R.F.D.F.D.D.H.R.R.^.W.W.E.J.K.^.6XR.D.D.H.H.D.x.z.Y.J.M.k.x.x.L.H.L.Y.T.T.T.T.T.T.T.T.T.N.m.j.k.J.k.j.m.m.j.8.f.j.<.7.,.,.9.f.j.M.E.H.x.l.l.l.l.l.H.R./.6X).~._.(.).^.K.F.K.K.K.K.R.K.K.K.^.).6X6X6X).).6X6X).^.R.R.R.!.!.^.^.^.!.).!.F.!.xXJXxX!.(.lXxXzX).).).).(.`.vXbXzXcX)./.0XE.R.R.^./././.7XE.E././.R.R./.R.S.l.l.D.L.H.H.L.S.z.g.c.D.K.!.^.6X).K.F.!.E.R.^.!.R.R.R.!.R.J.^ N F q w *.1XrXrX9X=XM.T.uXpXuXuX9X&XM.b.T.;X;X-X8X8XW.Y.M.M.M.d.k.H.x.H.E.E.Y.E.Y.J.M.m.m.k.f.j.8.8.j.b.b.q.9.6.N.OXOXOX:X*X@Xi.i.q.X.+.6.6.R +.X.6.n.OX;X*Xb.C.%X&X-X-X&XT.M.k.j.H.4X4XE.F.G.F.(.bXqX8X/.D.h.",
"8XH.l.c.H.D.M.Y.W.W.4X4XR.l.l.S.L.x.S.S.z.g.l.l.g.l.l.g.c.R.H.1.m.H.z.g.R.cXqXL.4XS.l.H.H.D.D.D.4XY.c.Y.8X4XR.Y.H.k.M.Y.Y.k.j.k.k.N.J.k.j.j.j.j.f.j.H.W.Q.J.H.R.l.K.E.L.R.4XR.l.D.E.4X/./././././.R.^.0XzXzX0XQ.i...[ B f B ' XXrXiX9X9X4XH.L./.6XK.l.l.R.wXwXH.E.4X^.l.S.H.0XK.4XqXxX).R.K.R.K.R.~.~.R.!.)./.0XDXR.S.~.qXcX8X!.`.!.R.)./.l.g.M.k.7.d.L.4X^.R.).^.P.K.J.B.! 7 ; Z s.>XQ.R.!.R.~.R.W././.^.^.^././.^.K.P.(.(.!.D.F.R.(.0X0X4XE.K.D.g.<.l.E.7X7X7X!.K.D.H.E.R.H.k.Y.M.j.l.S.L.K.K.Y.Y.M.j.v.T.T.j.j.b.Q.5X4X=X=X=X&XT.N.M.b.j.j.j.9.7.f.f.k.j.f.k.W.W.W.W.Y.x.g.1.l.c.K.^.^.!.!.(.).^.!.K.K.K.R.R./.^.R.R.^.^.).(.).).).6X6X).!.R.).^.R.K.K.!.).6XK.^.lXzX).~.(.zX!.6XzX).).zX).K.F.!.zX8X/./.R.R.H.l.c.W./.x.d.g.L.l.g.D.H.S.S.H.D.g.2.h.H.H.z.g.x.L.K.K.K.D.F.F.6X6X).!.!.)./.R.).^.!.R.!.!.R.J.6.c p 4 7 ' y.n.;X9X%X8.m.rXuXT.=X9X5XT.Q.9X;XN.=X5X;XT.M.M.M.M.j.k.Y.T.Y.Y.4XqX=XY.M.k.m.M.j.7.j.w.j.v.b.b.q.8.q.v.B.q.6.u.n.n.i.+.T +.v.b.v.N.v.6.u.u.) ) 8.q.v.C.&X%XQ.T.J.M.,.7.k.T./.R.R.!.R.8XcX8XQ.x.h.1.",
"E.4X0XW.H.x.k.z.W.W./.^.R.D.R./.E.K.S.z.z.z.z.l.z.z.c.D.L.R.D.g.<.7.j.M.H.D.L.K.R.D.S.D.D.Y.H.l.J.E.x.7.z.Y.M.f.f.x.M.z.z.M.M.j.M.k.j.7.h.j.k.j.H.M.Y.W.J.d.1.h.x.7X7XL.L.E.E.E.D./.4X/././.R.Y.R.c.S.R.!.^.W.T.n.O.=.Z 0 k B | N.Q.=XQ.R.c.S./.K.H.R.R./.nXnX4X/.wXqXR.l.c./.D.R.R./.0X).6X6X^.).`.).^.).zXcXcX~.l.l.R.^./.'.).G.!.).0XwXqXJ.d.<.j.H.L.H.E.6X0X!.L.D.J.B.P 0 ; Z @.OXY.^.`.~.W.'./.~.R.R.R.R.E././.^.!.!.!.!.R.F.F.F.F.D.H.H.H.H.D.D.K.^./.^.L.R.R.S.D.R.Y.x.x.x.k.x.H.L.K.R.E.J.J.M.f.7.j.j.8.9.,.j.Q.4X5X4XJ.;XZ.b.N.T.Q.C.M.v.M.M.M.M.m.k.J.W.5X8X4XY.M.H.H.L.D.L.K.!.!.(.).).).).(./.^.^.^././.^.R.K.F.F.F.K.!.(.).0XzX0X0X).6XzXzX).(.).zXxX(.!.).zX).K.F.~.).^.K.R./.~.S.R.F.R.l.3.l.g.c.c.1.d.H.L.f.<.f.2.g.g.2.l.H.D.l.c.z.x.H.H.x.z.z.S.L.E.E.K.K.R.^.!.F.F.^.)././.0X(.!.R.R.~.~.R.J.o.B q # 1 K y.u.%X&XT.v.v.N.T.T.T.Q.J.N.Q.Q.J.J.=X8X5XW.Q.W.=XW.Q.T.W.4XQ.J.E.9XQ.Q.J.m.j.j.j.8.v.b.b.v.b.b.b.u.b.5.u.N.i.t.+.+.u.u.6.u.OX%XN.B.v.v.&XOXR E R X.8.b.&X&XT.k.d.<.) w.j.N.Y.H.D.E.R./.0X/.Y.x.Z.T.",
"W./.W.H.z.z.x.H.E.E.R.R.R.K.R.R.E.7XJ.S.S.L.z.g.L.z.D./.4XH.c.H.j.M.=X=XH.2.g.L.D.R./.R.z.D.D.d.:.h.j.7.h.k.M.T.E.=XW.x.j.k.z.h.N.j.7.7.j.Y.Y.k.j.j.k.M.k.f.f.z.z.4X6X4X4XR.c.c.g.L.Y.H./.4XW.W.z.h.l.F.F.K.E.N.u. .=.Z 0 v B | v.J.J.m.c.g.g.S./.6XcXmX8X/.E.Y.4XqXcXFX^.D.).xX/.K.!.zXvXHXHXxX^.R.S.l.l.R.).R.3.l.R.R.D.R./.^.`.zX~.l.D.0XW.7.f.H.R.L.L.^.0X).L.G.G.J.v.P 0 1 Z ] i.Y.8XvX~.R.0XW.D.c.D.H.L.L.K.E.!.K.F.R.!.R.F.K.!.!.R.R.K.H.g.K./.^.K.L.F.S.F.R.D.c.R.H.x.Y.J.M.H.Y.R.K.K.E.Y.J.m.j.,.R E R 5.) 9.j.j.J.Y.j.q.q.q.n.C.C.b.j.M.M.M.k.M.M.J.=X4X4X4XW.Y.J.Y.W.0X4X/.6X6XlXzXbX^.!.K.!.^.^.R.H.S.D.K.K.K.R.^.).R.!.(.(.^.!.!.!.!.^.).0X6X^.!.~.P.!.).hX).(.).zX).^.K.K.R.R.K.D.U.D.^.R.Y.D.g.l.D.z.l.k.x.k.k.J.D.L.R.H.R././.Y.H.H.R.Y.H.k.x.L.L.L.L.L.K.R./.6XG.G.F.).).(./.0X^.K.F.R.~.~.!.Y.T S 8 # - m }.n. XN.N.N.v.v.M.%X-X%XM.J.=XE.Y.5X;X9X9X5X5X9X9X5X5X=X-X5X=XJ.M.Y.Y.Y.J.M.j.M.N.N.N.n.b.q.u.b.b.i.OX5.u.N.n.OXOX1XOX3X1Xi.b.b.5.T v.B.C.b.5.6.N.:XC.%XT.M.j.j.k.k.w.Z.Z.k.k.z.z.H.R.R.W.Q.k.h.j.k.",
"z.,.,.j.N.j.j.J.x.H.R.^.6XzX6X^.L.7XE.S.S.S.g.2.z.K.^.E.E.E.R.z.x.k.h.7.h.M.L.H.R.H.R.R.Y.R.H.d.7.,.9.M.Q.j.f.Y.E.E.4X0X4XY.H.J.j.k.j.7.1.7.j.k.N.T.Y.M.k.j.h.d.L.K.x.z.K.S.g.D.H./.R.D.E.W.H.H.z.H.^.R.F.R.W.b.n.t.}.A 0 v k P 6.M.J.T.4X/.L.S.E.^.wXwXD.2.l.H.R.(.(.xXR./.6X!.zX).zXcX).6XvXvXvXqX/.^.(.8X^.l.D.qXDXqXR.^./.U.).U.U.(./.E./.qX8XE.R.E.!.^.!.G.^.L.S.E.v.C 7 - v W A.W.8X0XU.R.h.H.W.E.H.c.c.H.E.R.L.S.F.F.F.G.F.F.F.F.S.D.K.R.R.6X0X/.^.^.K.S.G.!.R.H.R.L.L.4X8XY.x.H.R.R.L.H.H.f.j.J.J.f.f.N.b.j.j.8.:.5.M.j.R X.q.b.q.,.R R 7.j.k.J.Q.Y.Y.4XwXqX8X8X9X4XR.x.E.K.K.^.6XlXhXhX).!.R.!././.R.D.D.K.^.^.^.!.^.).R.^.6X0X)./.6X0XcX).K.R.(.).).).).6X).).6XxX6X!.).K.F./.6X^.^.6X^.H.R.R.R.R.L.W.L.W.W.R.Y.Y.J.x.H.D.H.E.E.H.H.E.R.R.L.L.H.x.H.L.K.K.K.R.^.^.!.K.K.0XbXzX(.(.(.!.(.R.R.!.).(.R.N.| Z - - 4 x s.a.6.u.B.N.N.N.N.N.m.N.M.H.-XQ.H.T.;X9X9X9X9XuX9X=X-X=X=X5X5X=XQ.Y.J.J.M.m.N.&X;X&XC.b.v.8.q.v.b.u.n.q.C.q.) 0.i.n.1X1Xi.+.5.X.q.&X&X&XN.u.v.%X%XM.M.T.Q.Q.Q.W.T.T.N.-XT.k.M.M.M.E.Q.M.x.k.k.j.Z.Q.",
"R R ) ,.,.8.N.J.J.E.W.W.^./.7X7X7XK.x.H.E.K.S.S.7X/.^.W.R.L.R.W.N.T.N.7.7.j.N.T.N.J.j.<.h.H.D.z.,.R 7.H.f.7.S.H.^.7X^.H.c.H.R.R.Y.M.z.h.7.f.j.m.Q.T.j.N.;X9X&Xf.x.S.S.H.R.7X4XE.^.E.x.S.4X^.D.H.R.R.D.K.wX5XH.j.B.|.{.A 7 h b Z o.u.Z.M.z.E.4XR.W.8XW.c.R.D.H.L.!.^.(.).xXbXzX).0X).).xXvXxXxXmXcXcXnX0X4X4XD.l./.R.^.cXvX(.D.K.(.6X0X^.D.l.S.K.6X^.!.~.!.F.F.K.F.(.^.=Xn.P 7 ; z ] u.Q.R.R.l.Z.Y.x.z.z.c.D.E.4XR.H.K.R.R.R.F.l.c.S.D.H.D.S.D.!.6X^.^./.^.S.l.z.K.!./.^.R.H.R.R.x.M.J.Y.Y.H.m.f.j.l.z.j.k.N.&X5XT.N.M.j.9.,.8.8.E R 5.8.4.R E R :.,.<.g.z.L.R.W.6X4X6XnXwXK.K.nXcX6X7X6X6X^.^.).!.R.R.~.!.R.^.6X/.D.l.K.^.^.K.F.).).).0XzX8X^.R.4XD.l.S.R.F.F.F.G.F.P./.7X7X7X4XE.E.^././.E.F.D./.6X6X/.^.E.K.L.K.^.7X4X/.H.x.H.D.U.R.R.R.H.D.S.S.l.D.R.R.L.H.E.D.D.c.c.F.G.G.F.P.).kX_.!.!._.!.~.W.R.F.!.8X5Xn.W z > # - l } @.U o.u.u.8.8.v.M.v.b.M.T.=XR.H.E.9XiX5XpXSXuXMX9XMX5X=X=XY.Y.Q.J.L.L.k.f.m.T.=XT.j.8.8.8.8.9.5.v.,.X.6.v.u.O.+.6.X.T t.i.T T b.C.rX%Xb.v.M.%XQ.M.M.1.h.T.M.h.j.j.M.M.M.M.j.7.w.v.7.j.M.f.j.:.<.J.",
"X.E R X.X.4.j.N.j.k.k.x.L.E.E.J.W.K.l.g.x.S.L.E.K.L.L.L.H.S.H.J.T.N.j.w.j.b.b.u.8.j.7.7.j.k.x.H.k.7.f.f.:.7.S.z.L.L.S.z.D.^.R.D.D.x.x.x.M.k.j.f.k.J.v.7.,.,.b.Y.L.z.g.S.W.^.R.L.z.L.H.H.E.L.L.W.4X7XR.K.7X=Xz.8.8.t.t.C 7 y z m P _ q.j.h.H./.8X0X/.Y.x.E.D.c.E.K.lX).F.F.xXbX!.~.(.).).6X6X^.K././.cXnXDXDX0XqX/.wXzXR.F.K.R.R.l.D.E./.^.R.D.F.^.!.!.).).!.F.F.!.7X7X=Xp.A 1 7 y ' i.=XR.R.k.x.M.j.z.Y.Y.h.h.H.H.H.H.R.R.^.^.^.H.c.c.D.R.R.K.F.R.R.^.^./.E.R.H.K.K.K.K.H.D.S.x.H.L.E.=XE.Y.J.H.j.m.L.E.=XQ.J.M.j.7.j.b.b.b.b.q.X.u.N.b.q.8.5.,.7.d.d.g.l.S.L.K.4X8X4XE.^.6XqXcX7X/.^.^.6XlX).!.~.~.~.).~.R.R.R.F.R.^.^.R.F.K.^.l.G.F.K.K.H.E.8XE.H.H.R./.(.!.^.^.K.S.g.g.H.7X9XW.L.H.R.H.c.l.S.L.P./.^.^.E.E.E.7XE.S.z.D.c.l.z.D.c.l.S.Y.R.~.R.R./.^.D.K.7X4XR.4X/.H.S.F.F.!.zXkX(._.)._.!._.0XR.W.~.K.R.7X%Xp.Q z > # - l } @.] ] o.i.N.B.j.f.T.%XT.T.&X=XR.L.J.,XuXSXtX5X5X-XJ.=X=XJ.M.T.N.<.M.Y.R.H.m.M.N.N.v.8.8.q.M.N.M.v.v.v.q.6.u.n.n.i.X.| +.X.T u.%Xv.b.b.N.N.N.=X5X=XR.H.E.8X4X5X9X-X4X7XR.Q.-X%XM.q.q.b.j.R ,.7.x.J.",
"A.0.X.) R R ) 4.4.5.7.7.d.j.m.M.=X/.H.g.g.l.S.E.H.D.c.c.c.h.g.h.1.,.,.9.7.8.9.4.5.8.7.j.k.j.x.Q.j.9.j.M.f.7.d.:.d.l.c.D.R.W.R.D.D.x.z.z.x.J.J.M.j.M.k.j.7.R 1.7.l.L.E.K.H.H.L.J.H.L.L.H.H.j.g.M.S.L.H.l.x.z.7.,.4.X. .B 0 q z Z D T 9.M.H.R.~./.0X/.D.R.^.^.R.).F.!.~.~.^.).6X).vXvXcX(.(.zX0XE.4XE.0XwXqX4XK.^.S.8XcX6XR.^.K.g.l.d.<.<.g.D.E./.(.R.F.R.!.K.K.!.!.F.L.v.p.[ 7 1 h %.v.Q.L.c.x.h.x.x.Y.E.Y.l.l.H.H.H.D.D.c.S.D.H.R.D.x.H.E.E.R.K.G.F.R.K.H.R.H.c.R.K.F.F.D.L.D.c.x.L.Y.Y.M.M.J.Y.T.j.9.,.7.j.M.N.C.b.b.b.v.i.b.q.OX;XOXq.9.q.j.w.m.k.k.k.x.L.E./.j.Y.Y.L.=X0XR.l.R.^.^.^.7XzX6XR.8X'.'.0X0X8X/./.E././.E.K.K.D.S.D.R.E.E.H.c.z.j.H.H.H.H.H.R.^./.7X6X8X5X=XH.j.7.J.j.h.z.x.l.S.R.K.K.^.^.^.K.K.R.E./.E.R.E.Y.L.W.W.W.Q.Y.R.R.W.~.W.E./.wXnXcX4XR.R./.4X4X6X^.!.).bX).~.).).(.`.cX~.W.^.!.!.K.N.s.H l > > - z *.&.{ ] | 6.q.8.v.%XC.;X&XC.%X-XY.N.M.M.N.m.M.=XT.J.f.m.M.M.N.-X;XN.M.Q.&XT.M.b.v.q.q.b.N.N.N.N.N.N.q.b.N.C.OXOXn.O.T X.u.q.5.N.;XC.Z.N.C.N.j.M.Y.H.E.W./.E.Y.W.Q.k.H.R.Y.J.J.C.b.8.b.N.T.M.5X5X4XR.",
"6.t.u.6.5.b.b.) ) 5.8.9.R :.7.j.M.E.Y.x.H.R.E.^.R.H.D.x.x.h.7.<.<.<.7.k.w.,.4.8.5.8.f.j.k.j.z.Y.N.,.,.M.j.<.f.M.l.x.D.H./.8X^.D.R.S.l.g.c.H.R.J.m.m.k.T.M.1.) E g.^.qXR.l.H.R.L.l.d.7.f.M.J.J.J.M.E.Q.H.x.k.f.9.4.^  .A 0 y x J | 6.8.j.Y.R.R.F.^.qX/./.R.xX).^.F.F.R.6XxXzXzXcXcXmXcX^.^.qXcX0X/.E.4X4X4X8X^.6X^.R.R.^./.^.R.R.l.l.c.D.Y.R.R.H.E.K.S.D.D.D.F.R.L.d.m.V.{.&.7 4 b }.q.J.z.l.x.h.D.W./.x.l.H.E.E.E.E.E.R.H.D.S.c.c.H.R.E.H.D.D.R.K.R.R.R.R.R.H.D.^.R.D.D.K.R.L.H.x.H.L.x.f.f.k.J.M.j.f.8.7.8.j.b.q.q.q.6.) ) 6.0.OXA.u.+.X.6.q.j.N.N.J.J.Y.W.4X4X5XQ.J.J.W.L.H.R.4XcXmXcX0X6X6X6X^.R.R.R.^.^.^.^.^./.^.L.D.K.L.l.c.c.x.D.D.x.h.1.d.h.x.x.H.R.^.E.6XW.H.g.7.f.M.T.M.k.j.j.k.H.E./.E.E.W.7X^.K.L.R.D.R.R.R.E.H.H.-X8X8XeX/.R.Y.Y.Y.R.Y./.nXDX8XR.H.W.4XE.W.4X/.^.6X`.zX0X(.(.0XqX'.W.~.~.~.~.K.M.u.S u - # > z *.-..Xs.t.0.4.X.8.N.2X>XN.8.q.N.=XuXeX&X=Xj.j.-XT.%X&XM.M.%XQ.T.&X&XN.N.b.u.u.i.0.+.q.n.OXOXN.Z.C.N.b.b.N.OXN.u.i.A.u.6.6.6.T T 6.v.C.j.8.j.j.Y.=XW.H.R.E.Y.Y.W.W.Y.x.L.Y.m.j.M.b.q.N.q.v.N.9X4X4X4X",
"T 5.b.i.Z.*XC.) 5.8.8.,.R ) <.1.R 1.h.k.E.4XE.R.H.H.H.x.x.j.h.1.j.j.N.T.j.,.,.j.7.f.7.7.h.j.z.k.b.9.5.N.b.7.j.W.E.H.c.Y.8XqX/.D.!.R.D.F.D.R.K.D.H.Y.x.M.h.R ,.,.L.^.E.K.K.E.K.x.4XH.g.d.d.7.7.7.J.=X5XQ.H.k.f.5.6.o.#.I f q b ' XX;X-XJ./.qXzXzX0XcXqX/.F.6X(.!.(.`.).R.).DXDXcX/.8XqXcXqX0X0X0XR.^.0X/.8XcX0X/./.R.H.E./././.8X/.E.Y.x.c.c.c.D.c.S.D.R.R.D.c.l.g.l.-X X{.} 1 9 z y.6.H.S.F.R.c.Y./.E.l.d.H././.E.R.H.H.R.Y.H.H.h.x.R.R.D.l.c.H.D.c.D.R.R.H.H.R.R.Y.D.D.D.H.H.L.H.L.H.z.g.h.M.Q.j.M.T.Q.b.5.9.q.q.q.u.0._ U T T T T ) 6.q.q.q.b.T.T.Y.Y.T.Q.Y.Y.8XW.Y.Q.W.x.H.wXqXwXcXwX^.D.K./.W.~.R.R.W.W.R.H.D.^./.H.S.R.^.E.Y.H.z.h.h.k.k.k.1.h.M.R./.4X^.R.d.f.k.M.N.M.j.j.Z.T.Y.j.j.M.Y.H.L.L.R././.E.E.4XqX4XY.Y.W.4XW.4XQ.Q.Q.Q.Y.Y.Y.Y.H.W.4XM.x.E.E.M.=XQ.H.H.^./.^.).!.0XqX8X/./.W.Y.~.R.].!.~.E.M.t.S u % % > z *.}.}.s.t.0.b.OXZ.q.&XOXZ.N.n.j.N.9XeXMXLX5XM.T.m.T.T.v.N.&X&XT.C.C.b.q.+.X.+.+.+.O.a.a.a.i.A.OXC.u.q.q.N.%XC.b.n.OX;Xu.X.) 5.b.&X>XiX;XT.J.M.J.R.H.E.E.E.E./.W.R.E./.E.H.j.N.Q.b.,.j.7.j.M.-XE.4X/.",
"q.0.q.q.6.q.6.,.q.9.,.,.7.w.7.,.j.J.Q.8XnXwX/.R.l.l.c.c.x.k.k.j.j.h.w.j.8.,.,.5.7.f.7.<.j.k.j.j.1.q.b.b.k.j.j.h.H.R.R.R.U.R.!.).`.`.~.!.^.0X0X4X/./.Y.x.l.1.x.Y.E.L.H.W.E.S.l.L.x.f.j.f.,.9.v.N.v.v.T.Y.k.f.f.4.8.6.e.P f q x Q t.2XpXuXnXHXmXHXbX0X).(.F.K.(.zXzX0X).8XqXcXqX8X8X'.qXcXcX8X8XwXR./.xX/.8XcX^.S.l.R.wXcXwX4XE.H.l.x.R.E.R.x.l.d.D.H.R.R.H.x.c.c.f.j.N.n.y.' 1 4 z %.u.W.K.K.Y.x.R.H.D.c.c.z.x.H.D.h.2.2.h.k.x.x.x.x.H.Y.H.D.D.H.c.d.g.x.D.h.l.H.D.D.D.D.c.c.c.D.H.H.H.x.z.x.Y.W.J.T.T.J.j.9.j.C.&XN.q.5._ _ T Y Y E Y 5.q.8.q.N.T.T.Y.Y.T.Q.Y.H.j.M.Y.Y.E.Y.R.8XwX4XW.E.R.c.c.D.0XwXcXcXDXcXqX4XR.E.R.L.H./.4XE.W.8X-XJ.j.j.j.k.M.x.x.D.R.R.R.H.m.M.M.M.J.N.M.b.N.T.T.j.j.k.k.j.D.L.R.W.W.E.E.W.H.H.D.D.R.Y.H.Y.W.D.c.x.Y.Q.E.Y.Y.W.Q.M.z.Y.=X5XY.H.l.x.E.^.R.R.^.^./.0X/.x.h.c.R.U.F.F.!.^.M.6.A u % % - y *.&.@.%.O.+.u.&X;XC.N.n.Z.OXC.q.9.k.;X9XuX-XN.M.q.u.8.8.u.v.v.C.&XC.0.0.0. .|  .0.i.i.s.t.6.+.6.6.5.5.v.N.Z.C.C.b.5.) 4.) R 5.%XuXuXT.J.Q.-XW.4XwXcX4X^.R.R.R.S.l.D.H.L.L.H.Y.T.M.7.j.M.=XT.=X4XwXE.",
"b.5.,.1.,.7.j.b.h.7.7.7.k.J.x.f.M.x.k.x.Y.c.2.<.2.l.c.z.c.x.x.k.j.7.7.8.j.j.f.f.f.f.7.7.k.j.f.h.j.b.w.,.1.h.h.c.l.Y.(.R.G.G.!.bXbXbXkX_.(.zXvXcX/.4XR.Y.Q.Q.W.Y.D.S.K.J.S.g.l.L.J.M.J.m.:.R 5.j.v.8.m.T.v.8.j.8.8.O.#.S 0 q z Z C i.%X-XnXxX^.(.).R.^.!.!.~.bXbXzX~.(.cXvX/.R./.0X/.W././.W.R./.R.R.4X/.xXDX0XR.H.0XcX4XE./.E.D.R.Y.D.D.D.R.4X0X/././.R.D.S.H.R.M.j.4.X.@.H 4 > v %.C.6X^.!.S.R.^.H.D.R.R.D.l.h.z.h.d.1.d.j.z.x.D.c.c.H.R.Y.Y.H.H.c.c.c.c.z.x.H.x.c.D.x.D.c.x.x.D.x.x.H.H.Y.L.J.M.M.Y.=XT.M.M.C.q.) R T T +.0.6.5.4.) 9.8.w.M.Q.T.Y.H.Y.Y.E.R.Q.Y.T.D.z.H./.wXnXnXcX8X/.E.R.R.R.4X8XwXqXqX0X8X/./.R.D.x.R.W.R.x.z.Y.Q.J.k.k.k.z.Y.x.l.l.c.S.H.E.x.l.f.j.k.M.N.J.M.M.M.M.k.j.z.H.K.E.^.E.R.R.Y.Y.c.R.W.'.8XW.R././.R.D.D.R.E.E.R.L.Y.W.4X4XR.=X9X4XK.g.g.L.R.E.4X/.R.R.^.W.x.c.D.D.U.U.F.F.E.N.6.A y % % - y } }.&.t.t.+.5.v.N.Z.&XC.i.q.b.q.k.Q.-XQ.M.N.N.N.N.u.B.u.0.+._ 6.q.0.+.O.O.O. ...O.t.O.o.+._ T Y _ 5.n.Z.b.w.w.M.N.b.j.T.;XT.T.&X;X;X=XQ.4X8X4X/.^.R.K.K.F.F.^.R.D.(.S.K././.E.Y.Y.Q.=XT.=Xx.c.H.wX0X",
"7.j.J.M.k.M.H.h.d.z.H.H.H.L.R.L.x.h.1.2.l.g.g.c.g.c.D.x.c.x.x.z.j.7.7.7.7.7.7.8.f.7.7.j.m.7.,.7.w.w.7.h.M.j.h.h.D.S.G.G.U._.).kXkXbXbXkX).).^.K.K.^.R.Y.Y.Y.R.Y.l.K.L.g.l.R.L.d.m.j.M.v.,.,.q.j.b.9.8.M.8.9.8.9.6.o. .V 0 l l l W O.6.v.5X7XF.K.K.R.0X!.^.zXHX).(.).)./././.8X8X8X/./.8XqX8XR.D.4XK.K.R./.wX^.R.0X0X4XE.E.E.R.D.D.D.R.^././.^.E./.0XxX8XR.H.H.R.=X%X5.U A q > > x @.%X8X!.!.D.0X(.(.^.^././.D.2.1.1.7.d.7.7.h.h.h.h.z.x.H.H.H.Y.l.z.h.d.d.j.x.x.x.x.D.Y.Y.Y.Y.H.H.x.H.Y.E.E.H.z.M.f.f.j.k.j.7.8.9.4.5.q.q.u.n.b.q.v.b.v.M.T.Q.-X5XW.Y.H.H.H.H.D.R.H.c.H.4X0X/.4X/.0X0XR.c.S.D.D./.4X/.Y.D.x.H.M.l.x.H.M.x.x.H.H.W.W.T.x.H.E.R.D.2.2.l.R./.^./.0X7XE.H.z.j.j.j.j.Q.M.M.T.Y.h.z.E.R././.R.K.R.R.D.^.R.D.D.~.~.U.R.R.W./.^.R.H.R.E.H.0XwXW.K.W.4XL.L.K.E.7XxX0X^.E.^.^.R.D.Y.W.W.R.c.R.!.F.F.R.N.t.Z u # % % p *..X%.| | 6.C.%XT.N.N.C.Z.OX>X>X&XQ.b.N.q.b.b.6.u.6.6.T | O.+._ | +. .| |  .O...| ]  .Y D Y U _ 5.q.q.j.N.Q.Y.M.Y.5X9X5XQ.W.9X9X5X9X9XR.E.4XqX0X/.D.F.R.F.G.R.F.G.F.!.H.D.H.R.Y.Y.Y./.H.4X4XE.D.^.^.",
"H.4XR.H.4XR.l.c.H.H.R.7X6XE.K.6XW.H.H.R.R.D.D.R.F.S.S.D.H.H.D.k.k.j.j.j.8.5.5.w.9.5.8.8.5.9.9.9.j.j.j.j.h.d.c.D.R.!.!.!._.zXbXhXhX_.bXbXzX).G.F.!.4X/.H.Q.8XW.x.c.S.S.L.L.m.x.j.7.j.M.N.b.R E b.q.Z.q.R 9.q.8.6.u.e.! C g q p q H U 6.OX-XJ.L.K.!.^.^.)./.^.(.).).zXzX(.D.S.Y.^.Y.R.Y.8X/.).DX).xXH.H.E.H.L.E.E.0XR.D.H.L.R.E.R.g.K.).).lXxX6XK.)./.)./.K.L.K.x.M.4.^ C j y > > y }.N.E.P.G././.6XF.F.0XxXR.z.z.l.H.M.d.1.h.j.h.J.Y.H.h.d.j.k.k.z.T.T.J.J.j.h.Y.k.x.Y.Q.E.Y.H.M.j.f.h.M.E.J.f.,.d.g.j.,.f.f.k.7.,.7.j.j.w.w.b.T.J.Y.Y.J.J.W.W.R.R.g.l.Y.^.R.R.4X4XD.H.R.4XcX8XcXnX4XK.D.D.F.F.D.Y.M.J.T.Q.Y.x.k.H.M.J.J.H.j.f.1.x.h.g.z.H.H.S.c.S.K./.6X0X6X6X4X7XP.L.z.f.7.f.k.k.k.k.x.x.D.R.^.^.^.!.R.F.H.D.S.~.F.U.R.R.R.!.~.^.R.K.K.R.R.^././.4XK.7XcX8X^.g.L.^.6X6X6X6X^.K.^.!.R.R.R.E.E.R.E.S.F.K.K.H.v. .v 4 + + % p K } ..| o.u.B.C.T.b.v.q.0.N.b.n.>Xv.q.u.u.6.o.! U P P P U ! U Y Y Y Y U ! ! |  .| | Y Y Y U 6.A.Z.i.C.M.N.J.h.d.Y.qXwX4X0XnX8Xx.j.H.H.H.L.W.7X4XE.S.R.D.G.K.K.F.F.!.^.F.S.D.D.S.L.E.R.R.R.R.K.K.R.^.",
"4XW.H.E.0XH.2.D./.6X0XxXxX^.F.R./.E.R.E./.^.E.R.R.L.S.c.D.H.H.H.9.4.9.j.v.j.7.,.j.,.4.j.j.4.) 9.w.j.j.k.M.Y.R.Y.U.F.]._.kXkXhX_.hX).zX(.(.lX/.6X0XR.H.E.Q.x.h.h.S.S.S.S.x.k.z.j.j.j.8.5.j.8.9.v.6.5.R ) u.v.6.u.e.t.[ V 0 4 3 4 7 A #.u.N.-X7XP.6X6X6X^.S.2.G.).zX6X).).)./.~.Y.W.H./.wX8X6XcXmXwXR.H.R.S.S.K.R.H.D.z.g.<.g.D.D.xXvXbXzXzXxX0X^.^.^./.7X^.E./.R.8.Y E N h u % > M }.b.S.F.g.K.S.S.D.D.D.L.R./.7X4XL.M.J.M.h.f.k.Y.x.x.H.H.k.k.M.j.Y.M.j.j.7.7.j.j.k.x.Y.M.j.j.h.j.7.7.7.j.j.j.j.M.k.M.f.m.j.j.<.9.7.7.7.7.8.M.%X4X7XW.K.L.S.z.g.g.c.R.R.K.E.4XcX/.D.R./.qXwXR.E.R.K.R.E.E.K.D.S.j.h.j.M.J.M.k.j.T.T.Y.M.k.j.j.k.2.<.2.l.H.R.R.R.6X6X6X6X)./.E.K.K.L.K.J.J.m.k.k.x.x.x.x.z.c.D.H./.4X).^.!.E.R.R.!.U.R.!.R.U.~.!.F.K.R.!.^./.7X4X6X0XE.R.L.L.W.K.z.z.z.g.g.S.K.!.K.R.R.R.D.D.H.R.H.c.S.K.L.N.u.[ x 4 + + # 4 b A W ! 6.i.v.B.N.N.b.i.u.A.i.i.&Xu.Y o.n.XX%.! S B I A S A A I I ! ^ ! ! ~ P Y Y | O.i.@X+XOXA.OX*XN.k.j.7.<.l.R.W.^./.wXnXwXY.d.:.E 7.L.E.J.m.J.R.H.x.D.R.R.K.R.^.K.L.K.E.R.S.c.D.D.H.E.E.R.K.H.H.",
"J.9XnX8X6XE.z.x.L.^./.6XqX7XK.K.E.R.Y.L.E.7X^.L.D.z.g.d.g.g.l.f.8.R R R 8.v.v.j.9.8.8.6.9.6.8.q.w.j.k.j.z.x.H.D.R.F.U.).zX).hXkXhXhXzXF.G.K.G.G.L.d.2.x.H.h.h.x.x.x.z.l.l.j.j.j.j.M.j.w.C.&XN.q.0.+.T 5.N.u.T Y U @.} v 9 2 , 3 1 G ..o.5.M.J.S.L.H.E.0X8X^.^.7XvXzX6X6X0X4XY.z.1.:.x.H.D./.0XHXwX4X/.E.S.x.D.l.<.<.<.l.c.c.R.6XxXlX^.K.F.F.K.K.D.S.D.R.R.R.E.J.N.Y N j h u # % M &.q.z.F.F.^.S.l.D.F.l.g.l.z.l.l.x.x.x.Y.=X-XQ.Y.D.x.L.Q.Q.Y.T.M.T.M.7.j.j.7.7.<.1.7.j.M.k.k.M.j.7.9.9.9.8.N.-X=XJ.J.M.Q.M.j.7.7.7.j.j.k.M.M.M.E.J.L.L.S.z.d.d.z.L.K.K.R.R.E.E.cXR.H.H.E.4XE.^.R.K.R.E.K.H.D.x.Y.v.7.,.,.,.7.j.,.,.,.,.,.1.h.k.x.l.g.l.c.D.K.^.R.K.L.K.^.7X4X7XL.S.z.m.M.M.M.M.H.J.J.H.H.x.H.Y.R.E.E.R.R.E.R.R.R.H.R.~.U.U.R.R.F.F.F.K.K.K.K.K.K.4XE.E.L.S.R.L.<.z.L.K.K.R.K.K.K.K.K.K.D.D.H.Y.M.M.L.J.J.N.e.H p > + + # 4 z Z B Y | e.u.B.B.6.t.6.O.%.| O.n.t.t...! P S A A G V v V H ' W H I ~ ^  .o.#.%.y..Xy.%.%.a.a.t.u.i.v.b.v.8.j.4XcX7X^.^.L.x.x.Y.J.j.j.f.8.5.4.9.8.v.v.j.k.J.J.m.x.H.x.z.x.H.x.l.x.L.x.L.W.4XW.L.S.z.",
"M.;X-Xj.j.J.J.m.j.J.L.H.R.E.K.L.k.k.k.k.M.H.x.l.H.x.x.m.m.j.j.7.R E E 4.v.N.v.q.,.4.4.) 4.u.i.u.j.b.M.j.7.7.x.W.E.K.F.R.!.!.!.).~.~.!.F.F.K.L.D.S.S.l.h.h.h.7.1.z.l.l.j.g.f.f.7.,.7.w.8.j.N.v.9.i.i.0.+.6.6.Y f C ' } x 9 < , 5 9 l V ~ o.r.J.5XuX5X=X4X8XwXqX8XqXcXcXwX4XY.M.Z.k.N.Q.h.7.Y.4XwX8X9X8XW.R.R.H.g.d.g.g.c.E.0XxXxX).!.F.F.F.F.R.).^.L.H.Y.R.W.W.T.%X^ Y C Z u % > ( }.N.L.L.K.K.g.l.2.2.g.z.l.g.l.g.x.M.j.k.Y.Y.h.x.L.H.z.M.=X&XM.M.N.j.7.j.M.j.7.h.7.7.w.j.f.w.j.j.8.8.8.8.v.%X>XpX9X9X;XtX-X&XQ.N.T.%X-X5X5X=XT.J.L.S.L.L.L.L.J.L.L.L.8XcX4X4X4XW.J.L.R.W.E.J.H.l.z.k.m.M.H.J.J.7.7.j.j.j.7.,.R R R ,.7.j.M.T.T.=XE.R.H.D.D.D.K.E.R.L.D.H.L.Y.J.J.m.z.m.J.T.J.J.M.J.J.Y.Y.Y.Y.Q.Y.E.E.E.W.4X4X/./.W.4X8X^.^./././.!.F.D.H.K.R.H.S.L.L.W.4XR.J.f.9.f.x.x.x.S.L.K.R.L.S.S.H.R.H.k.j.b.J.J.N.N.#.Z 9 % X X + 3 x Z B A  .a.p.p.p.t.#. .[ ] U | t.#.#.' S v v V G G K G K K J J Z A  .#.#.#.y.y.#.I  .U I | O.O.O.+.u.b.n.N.%XiXMX4XK.R.R.Y.=X9X>XC.OX6.R Y X.t.i.n.i.u.u.v.q.5.9.5.7.7.f.d.7.9.f.m.j.M.Y.Q.Y.M.j.f.",
"OXn.u.i.C.n.q.8.C.%XN.8.8.j.j.j.j.8.q.v.j.7.7.j.M.M.M.M.M.v.q.8.T T R 4.u.v.q.8.b.R E X.u.X.| 6.8.9.9.w.w.8.M.5X5X4XW.R.R.E./.^.).K.l.G.G.G.D.L.z.L.S.f.d.k.j.1.j.j.j.j.j.f.7.7.7.7.7.5.9.7.j.q.0.0.+.T U U Y C C H ' n , , $ 6 a 9 q H #.u.C.9X9XuXuX&XT.Q.4X4X4X9XuX5Xj.R R R u.OXq.) ,.7.Q.Y.M.J.M.k.M.J.z.<.R.cX7XG.K.xXxX/./.P.K.^.^.^.7XqX4XL.m.M.M.J.Y.N.6.U ! ! J p % % K &.%X=XK.K.J.g.L.g.g.g.x.S.L.R.H.x.x.J.M.d.<.7.d.H.L.l.j.M.M.8.8.8.9.5.w.b.j.9.7.,.,.9.5.8.j.v.8.6.6.8.u.b.OX;XtX;X>X,XtX&X,X>X;X;X-X%X=X-X-X=XJ.m.V.m.S.S.H.J.J.4X8XMX9Xm.L.T.k.M.M.T.J.M.M.M.M.M.M.M.M.j.7.,.5.5.9.,.5.j.N.Q.T.T.T.&X>X9X9X9XQ.4X4X8X6X4XW.W.4X4X4XQ.T.N.N.J.m.m.M.T.&XT.M.j.b.N.Z.C.T.T.Y.T.T.T.Q.T.Q.&X=XW.Y.Y.W.W.E.Q.4X/.E.L.l.c.R./.W.Y.E.Q.M.J.Q.T.T.j.v.M.J.N.N.J.J.L.H.x.x.x.M.H.M.M.u.v.N.N.B.p.@.F 5 $ X X X > x G g V @.&.@. .#.@.W S Z Z Z H W H Z H J G b b K ( } ( K F z z Z Q $.$.%.y.$.' B g S { &.&...{ ] ..a.t.n.C.%X-X-XJ.E.W.5XuXuX;XOXn.y. .! P I ! ..%.%.#.O.O.O.O.6.6.u.v.N.N.b.8.6.8.q.u.b.b.v.q.8.6.",
"#X#X@X{.#.| U U i.n.t.X.X.+.5.8.b.u.v.N.u.4.9.b.v.v.v.u.q.6.5.+.6.+.X.4.6.8.u.b.b.6.5.6.| Y Y o.T E E ) 8.8.8.j.N.Q.W.T.T.8X8X=X/.K.g.z.z.7.g.d.f.f.f.g.j.j.j.j.j.j.k.k.j.j.f.f.M.8.8.j.j.j.j.5.U D U X._ Y !  .S l F e # & $ 6 a e r V  .t.B.b.w.N.C.N.M.N.M.j.M.J.&X&XN.X.U Y _ O.U X.q.8.%X>XT.Q.J.m.J.R.H.x.R.5XqXqXxX/.K.7XK.L.K.J.K.H.H.L.Y.j.9.7.9.9.8.8.^ ^ e.%.' x % % p ' OX4XE.K.E.H.L.^.^.L.c.S.S.l.x.H.L.R.Y.J.H.x.z.x.L.Y.M.7.,.9.9.) 4.8.w.j.j.9.R R E R 5.j.M.C.q.6.6.6.u.u.n.OXA.i.n.i.A.i.C.%XOX&X&XT.C.C.T.M.J.m.V.V.m.m.J.J.T.iX9X9X=Xm.M.9.v.N.v.b.b.v.C.C.&X%XN.v.q.q.9.) 8.v.M.N.T.%X%XQ.tX>X&X&X-X;X;X&X;X=X=X4X5X5X5X9X-X5X9X;X-X&X&X;XN.M.M.C.%XOXN.b.C.C.T.Q.%XT.T.C.T.%XC.C.C.C.C.N.M.M.Z.T.Y.W.,XW.H.x.j.M.Q.-XQ.J.N.T.M.N.T.C.%Xb.4.8.v.B.b.b.j.f.k.M.Y.J.k.k.N.T.OX|. XB.6.o.W n < o o X X < x K x z Z Q [ [ W V c h z x m Z z h m b x p e a L K F F L a p l G } / ~ } }.@.B c W ' &.}.*.Q S A { .X%.s.XXOXOX%X=XuX5X;X>X:Xn.i..Xs.} H v h f h B Z Z S A W [ #.%.| O.O.O.X.| | | t.u.i.i.u.t.t.u.",
"-.-.[ k t 0 B S A ! ! U U ^ | e.t.t.e.6.O.X.+.6.u.u.u.u.0.O.X.| T ^ 6.b.N.i.q.q.5.C.OX6.Y D U ^ Y T T T X.5.5.X.) 4.5.9.w.j.b.M.k.L.x.K.J.S.J.L.J.m.z.z.j.7.<.7.j.j.j.j.j.j.j.j.7.9.8.v.j.w.7.R Y D U 0.O.| O.#.W 7 p 3 O & & = $ > 2 l W #.p.v.OXb.9.9.9.4.,.,.) 4.u.&X1X@Xa.a.t.y.t.XX@Xn.n.&X;XuX9X9XiX9X4X4XL.J./.mXHX^.G.0XL.L.H.x.j.g.j.j.M.7.,.4.4.5.q.u.r.r.|.y.J a % > M ' OX5XK.S.z.l.g.S.K.J.L.H.z.g.S.E.W.L.L.4XR.g.S.l.H.T.M.,.,.w.q.4.5.b.v.v.M.j.f.7.9.5.8.8.9.4.6.5.+.X.X.o.6.t.O. .O.X.O.+.u.u.b.OX,X&XC.N.N.v.N.L.M.M.J.%X:X%XB.&Xm.%X;X%X;X8.X.u.u.n.N.u.q.| 6.6.+.| +.u.n.OX%X%XN.B.v.M.C.T.&XT.Z.b.k.b.M.C.8XQ.M.k.k.m.J.Q.%X%XT.C.n.u.0.0.C.B.v.b.Z.C.C.OXA.A.Z.Z.Z.N.b.b.n.n.N.b.b.b.b.v.b.v.b.N.C.&X9X;XT.Y.N.T.Q.-X%XT.q.b.q.b.N.B.b.6.u.t.6.6.q.b.C.C.j.M.N.N.b.b.Z.C.@Xa.u.O.T P c 9 & o   o X < L K K x n G J Q G h l p F x F G z z p q 2 2 5 5 < # : : 2 e p l F K / / } } V w q H -.} J J K Z J ' } ] ] t.i.n.C.%X%XOX%X;XOXi.O.@.Q l 7 8 9 q u y q q q y z Z J ] .... . . . .#.%. ...#.#.#.O.O.O.",
"G 8 - 1 8 8 0 y h Z J H H A A W W ! U Y C Y P Y U ^  .o. .U Y N P U ! o.6.t.t.i.0.t.t.| Y P P Y Y 6.i.+._ 0.n.v.5.) T R R R ) 6.M.=XM.z.f.7.J.m.m.m.M.m.m.M.M.M.j.j.w.8.8.f.j.j.f.8.v.j.,.9.q.5.+._ | | | t..X}.$.1 r 3 O & $ & 6 < 3 p v A ] #.t.6.t.n.t.U E X.U U  .%.s.@.[ { A { &.@.%.@.C U X.n.OX:X>X%XN.&X%XuX=XS.W.7XH.L.z.j.f.9.,.5.8.q.8.T T X.X.+.0.u.a.e.y.~ c 9 > s a Z a.;XR.L.L.J.^.l.d.L.R.z.g.z.g.7.d.x.L.L.H.x.j.j.j.8.9.4.8.v.n.5.j.C.M.j.M.M.M.m.v.v.v.8.+.^ U U U ~ P Y P W C B B j S C Y A ..t.i.O.| | o.6.o.6.e.6.6.r.e.6.e.s.O.a.t.Y o.| | O.!  . .! ! C B S P P I ] ..#.X.6.u.u.u.i.u.q.0.q.0.5.) _ +.6.i.u.8.6.6.X.) _ 6.+.| | ] W I S P P I ]  . .] ] ] ] |  ...] ] ] I W W I I W W W ] U ] | O.a..Xs.t.0.6.6.0.u.i.n.XXa.o.O.#.#. .P C S W  .%.t.O.| t.O.o.O.t.a.s.%.$.W P C j f q 2 & X X X . % a x e p x x 9 9 q e 3 3 i 3 s a i x > > # @ O O O + + O O @ , 3 a L K $.$.K n n x F F q 4 p x x x F z y v A W ! ] ! ! ! ! ] W A v l 9 > > 9 a i 3 3 3 3 4 4 8 q p z V Z Z A A Z Z V c V A H A Z Z Z ",
"% # # # # % % , , % > 3 i 9 9 p y y h h h h k k v B B W [ [ A j j B V B A  .&.&..... .] ]  .#.#.X.u.+.T b.2X>X&Xb.u.u.6.5.X._ T 6.v.B.r.8.8.r.6.6.6.v.v.m.m.z.j.v.v.q.j.q.8.8.j.9.5.8.6.6.+.X.X.t.O.O.y.}.&.} / L 2 - @ O O , 6 5 , < p p p G *..X$X$X.X@.' W A H b x z l r q 8 1 u x x e 4 1 9 h c W $.}.y.#.t.a.e.5.6.r.B.B.V.u.6.4.r.B.u.6.o.T U Y Y Y Y ]  . .y.&.W y 1 4 9 M ( t.OX%XQ.W.=XR.l.D.R.S.z.H.R.c.l.H././.H.D.Y.C.n.i.0.+.X.0.b.b.7.1.h.M.L.R.=X=XJ.J.N.v.6.^ I A S Z A H Z Z b q y p p y y l l z z z l h h z b G Z Z H J J Z v V V v z l l p l h c q p z q q i < 3 9 q l c b b v Z Z v V A A B D C D A S C C I ] I ] %.[ C k V k h z b p 3 > # > 3 3 4 1 4 8 8 9 8 3 3 3 3 4 4 > > 4 > > > > > 4 8 8 8 q l z p p p l v Z H Q [ Q V b L x p 8 - # > 3 a M x x x b b M F G K K F a q 8 8 9 9 3 , < + + + # < i i a e 3 5 < # # & $ + + $ + . O $ . & * + + X           o o . $ 5 i 5 5 < & & , 6 & & * $ $ * & & % > > 4 3 8 3 9 q q q q 9 9 3 < , , < < , , & # # # # # # # : , 9 9 9 3 5 3 3 3 1 2 9 e < , < 6 ",
"@ + + + + + + * * * * % & , , > 2 4 4 3 3 8 9 9 q 8 8 p b b h w p l l x b z z b c v v V H Q @.@.] #...O.a.a.o.| O.O.o. .| ] ] ] U  .o.| ^ | ! W  .] ! Y U ^ 5.8.O.o.o.O.O.+.O.6.i.u.O.| U ] [ ..#.[ A Z V z r e r : - : @ @ : : 5 < e p e e a K } } } K b z z l i 3 , , : # @ @ @ @ # # $ + + O - - 1 q l g g c H H A A W ~ ! ! O. .o.y.{.y.#. . .~ W V V V Z A H Q ' m q 1 4 u y m { %.i.n.C.T.J.M.Y.-X=XQ.=X;X;X=XQ.T.Q.=X=X&XOXXXa.s.%.....O.+.5.7.j.j.j.V.v.-XJ.v.8.6.o.! I W Z V b m b b z p a p p i q 9 q q 9 8 8 8 8 q q 8 2 1 4 8 r p l q 8 8 9 3 2 < 3 7 q > % > # # O X * & , 2 8 3 3 p h h h h k v B k j B V B j j B k h k Z B 0 7 0 w - @ @ O O $ % + $ # @ @ @ # # @ @ # @ @ @ + @ % # + X X + + + @ # - - - # # @ @ # # - - 7 w 9 ; - # # O O @ # @ + + % % # # # - - - - > 2 > - > - # # - > 4 2 9 > - > > i M M 9 > # # # # @ @ @ @ @ + $ & , & + $ + + + . . = o       X . O @ O O @ $ + . . . . .             @ @ O O O O @ @ @ @ @ @ @ @ @ @ + + $ $ + + + O $ . O $ $ O O $ O O O O O . . . . O O O .       ",
"% * & & & & & & * & & + + , > # + + + % % % , , , > # > , 2 > > 3 , < s 5 > # > - > > 1 3 a x x K G G K ' K v Z Z K K K K G m M p z b V Z H G b p l x b Z V B V Z Z Z A A A A W ] W ' ' K Z x z Z v y w 4 > - > , O O + @ @ # # i p p p 8 1 1 2 9 q 9 4 - - > # @ . . . . . . O O . . . . . . . O O O @ @ @ @ - - 1 2 9 7 7 w 0 w w 0 p l p q 8 p p 8 4 1 > 4 4 1 4 9 2 > # % 3 > 3 p Z { @.y.a.t.i.i.i.n.i.6.6.6.u.t.6.i.2XyX1XoX&.{ A Z J { =...t.A.A.i.s.a.a.+X|.e.#.#.@.' W Q J Z Z Z V v h z z z z z z l p p u q u p p y q y p y y q q q q q q q 8 9 8 9 9 ; 8 > % # - > @   X * , 4 1 1 4 y h h v j j N C C I ] [ ] ] ! W [ I C k f 0 f v c 0 8 8 1 - # O O @ > > 4 > - @ # - > - # # # % # @ + + X + + @ # - - - - # # # @ + @ O @ - - - - - - - # @ # - - # # - - - ; 1 ; ; ; ; ; 1 ; - 1 1 1 7 w y l z v v v Z Z J ' Z l q 7 1 7 q 9 2 - > - # - 2 4 - > - # @ $ + O . o . X + + # - - - - - - # @ @ @ # @ @ @ # $ # @ + + @ O + O + O + O + . + X + + . . + X X . . . . . . . O . . . @ @ @ + + X X X + + + + X o     ",
"+ + % & & & & & * % % + # % # @ . X X X X X + + $ @ + + @ @ # $ + + + $ + . . + O @ O O O @ @ @ < # @ # > # # < > < 3 s s < > % > > 4 4 2 2 2 > 3 , , 3 3 3 3 9 i i 9 9 9 8 9 q z p u q 9 3 4 4 > - - - @ @ @ @ # @ @ @ @ # s L K J G b p 8 7 1 # # # @ + @ + . X . . . . . O + . O X .     . X . . . O O . O O O O @ # @ @ @ - # @ @ @ @ @ @ # # # @ @ @ + + @ @ @ @ > , % < s 5 3 4 4 9 h k v H [ Q H ' H v k h v v k V ' [ H V c 0 0 y y z v A { @.[ W W Q ' Q W A A Z Z V v v Z H ' [ ] I B V v h h l l l h h q q f h g 0 7 0 0 h f 0 0 0 0 h f f q 0 w 8 7 0 0 > > - - 4 # X X + > 1 1 4 9 0 j C A I ! ! | O.t.a.a.a.XX.Xa.%.%.%.%... .] ] A j f 0 7 1 1 - 1 1 1 1 1 7 w 0 7 7 7 7 1 1 1 > 1 > > > > % > 1 1 - - 1 1 1 > > + + + O @ # - @ # # @ - 1 1 1 1 7 1 7 7 0 0 h c B B N j v B V v A W ]  .@.@.#.$...#.s.s.s.a.s...~ P C j k c f 0 h l c h h c c h w 8 8 1 - - > O O $ & > - - ; 7 7 7 ; ; ; ; ; 1 ; - - - - - - @ # @ @ + # # @ O @ @ @ @ + + + + @ + # + @ + @ @ @ $ # O @ $ # O O @ @ O . . . . + O . .   o     ",
"% % & , < < , & 5 < < 3 3 4 > > $ $ & & & & & & $ $ & $ $ $ & & $ & & $ $ $ $ + $ $ $ @ @ + @ @ O . + + + @ @ @ @ + + X X X + + $ $ @ O O O O O # O . + + X X + $ $ @ @ @ @ - - > - # # # @ # % % > 4 4 > - % > # > > # > 3 L } } @.W V c h q 8 > - # # + + X X + . . . . . . . . O O . . . . . . . . + + . . . O O @ @ @ @ @ O @ @ + . . O O + O . . . . . . O # @ O , , , 3 i a i 4 > > 1 1 1 # > # @ , > @ @ @ > > > > > > # 7 7 1 1 > 4 4 4 7 w q 8 4 2 2 2 4 1 4 4 7 7 0 h Z ' &.oX1X3X3X$X{.&.@.[ [ [ [ ' ' ' ' ' W W A A S A W W W [ %.s.&.%.%.@.} } } } @.~ Z F x u p 4 & * + % 1 0 l V C | O.O.t.XX@XOX2X2X2X3XyXZXZXyXCXVXVXCX3X1X@XXX{.#. .' A S Z V b Z Q ' ' Q Q Q v k h h k h 0 0 7 7 8 8 4 1 4 y y 0 0 h v l 0 > @ + + + $ # # - 1 8 8 q V J ' @.%.%.&.s.s.y.a.{.a.|.|.a.|.XXoXXX|.OX:X*X*X*X;X:XtXtXiXtXuXpXSXtX2X2X<XOXa.a.t.O.#.#.#.y.t.%.y.{.s.$.@.W 0 ; 1 1 - - 4 8 h j j N C C W ! ~ W H A A Z V V V V c h q 8 4 8 9 q 8 1 4 8 8 q 9 8 8 4 1 > 1 > - - > > - - - - 1 2 8 9 q u e 3 2 > > > > > > # + X X o ",
"< < 3 3 3 3 3 3 i 3 4 q u 7 7 9 , < 3 < < , , 2 , 2 2 2 < 2 2 , # < 5 , , < , # @ # - # # # # @ O O # # @ @ % O O O O O O O O O O @ @ - - 1 2 2 - @ O + +       . O @ O # - 1 1 - - ; 4 4 > > 4 u z z h y q 9 8 p m G H J ' *..XoX.X%.] A Z v l 9 1 # @ + . X X O O O @ # : : : 2 - - - 2 3 2 : , : # @ @ @ @ @ # # # # # - - # @ # # # # # @ O O @ @ # # % # # > - - 2 i x x F x p 8 1 1 7 7 1 # @ @ @ % % % > @ O @ # # @ # > 1 ; ; - > 4 u i 1 - - - # @ . . # # @ # - 1 y V ] &.#XCXPXPXUXUXPXAXAXAXAXAXAXAXAXAXAXAXfXfXfX3X3XCXAXAXAXAXAXPXAXAXAXAXAXAXAXAXAX3X$X$X}.*.*.F % + + 3 b W @.-..X1X2X&X;XKXPXPXKXKXKXKXKXPXKXKXPXKXKXVXVXVXVXVXyX2X2X3X<X+X+XoX.XoX$X$X+X{.y.t.t.#.O.O.%.%...[ I A Z Z m v Z ] %.$.%.y..X&.] z , + + $ & # > 3 p ( *.&..X{.{.+XXXXXOX@X:XOXOX%XN.N.N.N.C.%X&X&X;X;X;X;X;X;X-X-X=XQ.4X4X/.E.E.Y.=X5X9X5X-X-X&X%X%XOX&X;X&XC.&X2XKX<X@X+Xy.~ B q l 0 h J }.oXXXn.*X*X<X<X<X<X@XoXoXXXXXoXoXoXXX{.&.*.@.} } } @.} @.@.&.&.&.*.@.} [ [ { ] Q Q ' ' @.Q [ -.}.-.}.$XoXoX.X.X-.*.*.*.} ' K F a s < * ",
"y y u u u y y y z h h h k c V V c b v b v v v V V V V V V V v c l l l p q q g g g l l l h l g f q w w 8 1 1 w 1 1 ; 1 1 1 9 q q r l v G H Q / [ [ V 0 - @ . X $ @ 2 9 p z b Z V H A V V V v Z { &..X.X.X.X{.s.y.y.oX1X3XdXdXdXKXKXZX2X1X@X{.&.@.J Z z p 9 < < 3 9 7 w z G / } } } / Q Q [ } ' Q H G V v v n c c v v v v b V Z G K K K K ' } ' J G K K ( } } } } } } } } *.}.{.{.&.@.] I S V B k V c h c f 0 f h Z V v v v c v v f f v Z K ( m y p 1 - # # .   X $ + @ # > 7 h Z W t.@X1X2XVXPXPXPXPXKXKXPXPXPXPXPXPXPXKXKXKXKXKXZXZXPXPXPXZXZXyXVXyX3X3X3XyXZXZXKXdXfXfX$X1X#XK % + > M } }..X+X2XVXpXuXuXLXPXLXiXuXwXiXiXuX9XuXT.T.-XuXSXSXiXtX>X%XC.OXC.*XZXPXZX3XOXn.i.i.C.*XtX2X1X1X1X1X*X@X1X@XoXoXoX.X.X@X3XyXyX3XVXdX@X} 3 + . O @ O : p G -..XoX@Xi.5.q.v.v.M.T.%XT.T.T.J.T.T.T.T.=X=X=X4X=XQ.Q.W.W.E.R.^.R.6XcXzX^.!.F.D.D.H.E.W.W.W.4XE.Q.W.Q.T.Y.Y.Q.9XB.N.;X<X<X}.W A v H }.3XyXtXtXrX;X&X%X%X%X%X%XC. XOXOX%XOX&X:X2XyXyX3X1X*X2X2X2X2X2X2X2X2X*X*X2X2X1X*X*X*X1X2X2X*X2XZXZXdXdXKXKXKXAXZX3X1X1X3XoX}.%.} ' G u > ",
"Q Q H H A H W W ..@... .O.a.oXoX{.oX@X#X@X@X+X<X<X<X<X*X+X+X@X|.oXy.#.#. .^  .e.XX@X+X+X<X1X1X+X<XoXoX#X}.y.%...! P B c A @..X$X$X1X3XfX3X<X<X2X|.e.! H x 2 @ O 8 z G Q [ $.$.#.e.p.|.+XXXt.#.t.Z.*X2X3X2X>X&XN.;XpXKXPXIXPXLXPXLXSXSXKXKXZX3X1X#X.X}.-.*.} ( ' W P ~ $..X$XfXfX1X3XfX3X#X#X#X1X3X3X1X#X#X@XoX|.XXoXoXoXoXoX#X1X#X#X#X#X1XfXfX3X1X3X3XfXZXdXZXdXZXZXfX3X3XZXdX3XZXZXZXZXZXAXZXCXZX1X3X3X@X|.@X@X+X+X@X@X+X<X<X@X+X@XoXoX$X$X$X-.J h 1 > % + + 6 & , , 3 u l V A | i.&X%XT.Q.-X,XpXaXaXaXaXyXdXdXpX2X*X*X2XrX2X;X>X>X2X2X>X>X,X;X&XOXC.C.C.OX&X,X5XuXaX2X*XyX#XV > # 3 G %.a.i.n.;X5X5X5X4X0X6X4X7X7X6XqX6X^.4X8X0XW.W.qXwXqX8X9X5X=X5X5XQ.T.;X9X,X%XC.%X&X-X;X9XuXuX9X>X;X&X%XOXVXrX2XyXCX2X*X%XtXiXuX5X9XyX>Xs.n & O $ & # 9 G -.$X+XOX;XQ.j.M.k.k.J.Q.=XQ.E.Q.R.W.W.R.R.E.E.E.4X7X4X4X0X0X/.R.R.F.!.0X).~.~.).).!.R.!.!.K.D.F.R.!.R.R.R.^./.R.L.=X5Xv.4.n.oX~ S S [ {.@XN.M.E.J.J.T.=X-X-X=XT.T.T.T.N.N.N.M.M.T.9XSXSX9X-X5XuX-X-X=X=XQ.T.J.J.J.J.J.M.M.M.J.T.uXKXKXMXMXKXMX9XiXiXpXtX2X>X2X2XN.t.O.O.%.} m 7 ",
"+X+X1XfX+X+XyX@X3X:XtXZX2X2XKXZXtXrX9X;XrXpXSXKXuX9XuXSXLXMX9X9XuXrXrXrX>X;X>X;XuXuXuXuXuXtXpXSXpXrXKXtXrXpX>XaXpXtX;X:X2XpXZXpXpXpX;X;XtX9XL.R.9X-X;Xn.&.G - - h ~ s.y.t.|.n.8.q.B.%XtXSXVXtXtXVXLXGXGXMXMXFX5XnX7XxXLXIXIXHXHXnXnXnXiXiXMXpXrXZXZXyXAXZX1X1X1X1X<X@X@X@X1XyXdX3XyXyX;X&X2X>XN.&XpXpXrX;X%XrX2X>XpXrXrX&Xb.&X;X,X2XC.%XVXrXT.;X9X9XMXFXMX5XQ.&X>X;XpXKXKXKXPXLXPXSXuX9X&XZ.b.N.M.;XtXpXMXSXKXKXMXuX9XuXSXKXKXKXpX%XT.>XCXZXAX$X+X..V h 8 s s < 5 e 9 F Q }.#X3X3XtXtXuX8XQ.Q.-X%X%X;X;X;X%X;XrXrX;X;X;X;X;X;X>X&X&X&X&X&X&X;X;X%X;X;X&XT.&X-X&X7X7X-X X;X;X@XC 1 % > [ t.N.N.T.W.4X0X0X6X).).6X^.6XzXzX6X/.7X4XcXcX0X0XcX4XR.4XwX/.0XnX4XR.E.L.;XQ.Q.Q.T.J.Y.E.W.9XMXuX8X;X9XtXGX9X9X9XVXtX&X5XcXwXcXxX8X8X9XXXK : O @ # , p } .X+X%XJ.H.L.R.H.L.H.H.H.R.W.W.W.E.E.W./.^.E.E.7X4X4X/.W././.8X8XR.G.R.).!.).zX!.~.~.!.F.U.~.!.!.~.U.F.U.!.!.U.F.E.S.J.%XN. Xi.P j f S XXN.%XR.W.W.E.W.W.=X=X=X=XR.Y.Y.=X5X5X9X5X^.6XqXqXqXE.R.6X6XJ.K.6XqX7X^.7XR.H.D.H.E.^.R.S.D.W.7XJ.L.E.cXFXFXW.H.5XuX5X9XiX;XT.6.t.oX..h 0 ",
"yXyXZXZX;X&XpX;X;XT.9XuXQ.T.%XM.=X=X-X4X4XeXnXGXLXFXDXDXnX6X/./.E.W.W.W.R.R.E.E.R.R.R.R.K.R.E.W.R.^.cXnXnXnXMXFXiXGXGXiX9X9XMXFXqX7X7X8X8Xg.<.K.!.!.4X%XXX@.w 7 j ! y.a.i.B.N.M.k.H.J.H.R.qXFXPXFXHXcXcXmXmXmX6XP.6XvXHXHXHXbXlX/.6XqX0X6XwXnXFXKXPXPXPXKXSXKXKXKXZXtX&Xn.b.Z.%X,Xq.) w.T.;X&XT.4X4XY.L.R.=X9X4XW.W.M.Q.&XT.W.M.W.0XW.Y.E.R.E.nXcXcXcXxX).(.!.R.eXZ.T.eXGXLXIXIXIXLXwXY.h.w.k.Z.T.R.4XnXnXwXnXLXFXFXFXFXHXmXnXcXR.W.W.T.W.VXVXZ.q.n.@X%.k 8 i i 9 i p K &.#XyXKXKXSXeX8XW.Q.W.,X=XT.J.=X-X5X=X=X9X-X=X-X-X-X-X-X5X8X8X;X-X-X&X&X&X&X&XQ.&X;X-XW.).7X5X=X5X5X:XP 1 > 1 { u.N.J.R.7X6X6XzXxXxXxXxXHXNXbXzXzXxXvXmXxXcX/.^.4XR.D.W.H.H.4XwXE.R.4XxXwX9X4X4X4X4X0XwXDXDXDXnXGXFXLXFXcXFXHXnXGXLX4XK.^.~.).).^./.R.u.Q > @ # # 2 b @.@X;X5XE.K.R.R.D./.E.R.R.E./.W.E.E.R.R.E.R.K.K.R.0X8X8X8X4X/.W.W.^.D.R.~.S.R.).U.!.~.~.!.U.!.~.~.!.~.).~.U.F.(.cX/.R.W.-X%XOXa.! C k S XXOX;X7X7X7X4X^.7X4XW.W.W.H.W.4X4XR.H.L.R.W.^.7XcXmXcX/.7X6X7XE.K./.6X7XE./.4X6XE.D.z.l.c.D.L.^.8XcXqX/.E.cXnX8Xj.<.f.&XiXT.%XB.i..X@.k y ",
"uXpXSXiXJ.m.=XT.8X4X8X5XJ.M.M.7.7.7.j.j.k.Y.4XwXFXDXcX/.K.S.c.c.D.H.H.H.H.H.K.K.R.R.R.H.H.H.R.R.zXmXcXcX0X4XcXnXFXFXDXnXcXnXnXnXmXHXDXnX0XY.D.!.G.G.R.Y.OXs.v 0 C  .a.XXN.u.8.j.j.E.eX0XcXFXLXGXLXHXnXDXmXnXmXmXmXHXHXmX6X).(.!.6X0XxX6XE.R.6XmXLXLXmXLXLXmXFXLXiXVXVXrXZ.5._ T 5.) w.C.&XT.T.W.H./.E.E.R.H.E.H.0XW.Y.Y.h.1.x.8X/./.!.R.(.8X0X0X).zXzX!.U.!.!.F.W.x.M.-XwXGXHXDXDXGXwXQ.Z.T.W.-X&XT.Q.9XeX8XeXGXFXLXLXFXnX4XR.K.~.).zXcX0X0XeX/.Q.iXKX*X] j z y u q v W {.3XKXLXMXuX8X8XeX8X-X-X-XT.J.Q.5X5X=X=X5X=XT.=X=X-X=XQ.=X=X=X-X-X-X-X-X;X;X=X-X8X9X4X/.).6XqX4X5X7X*XU 1 > 1 { b.J.K.R./.).).zXxXbXxXxXbXzX(.).6X6X).!.R.R.R.R.E.D.S.R.R.D.D.D.S.R.8X0X4X4X/.E.^.8XwXxXvXHXHXHXDXDXFXFXHXHXDX^./.cXzX0XvXzXhX).!.!.R.u.} 9 - - # 7 v ..OX-X6X/.!.!.R.R.R.R.R.R.Q.W.W.E.W.E.R.E.E.E.R.R.Y.Y.T.Q.E.T.Y.H.x.h.x.x.c.Y.8X/.R.R.!.R.!.!.~.~.~.!.U.U.R.R.~./.R.E.E.=X%XOX#.I V h V {.OX-XW.R.E.E.E.R.R.R.R.H.H.H.R.R.R.Y.L.Y.H.x.z.L.4X4X4X4Xx.W.8X4XR.R.E.W.8XE.c.h.h.H.4XqXqXY.l.z.D.k.z.k.l.W.-XM.w.j.j.,.9.b.i.t.{.=.m u ",
"T.=X5X;Xk.d.k.g.L.L.W.Q.M.M.M.7.1.,.,.7.j.Y.-XwXwXwX/.H.c.c.S.S.D.D.R.R.R.R.R.R.Y.R.R.R.K.R.R.^.6XvX6XzX0X4XDXDXHXDXcXwXcXnXnXcXvXmXcX8XeX0X/.U.G.G.c.j.n.s.H 0 j Y O.u.b.N.Q.;XGXDXnXwXcXGX8XY.W.8X8X0X7X^.cXHXmXxXlX7X^.^.W.R.R.E.^.^.K.K.).cXHXxX6XmXmXzXcXmXMXtXeXQ.w.) ,.6.) C.VXVX,X,X,XW.H./.0X0X/.R.R.D.8XY.Y.eX8Xc.d.x.R.0XHXbXU.U.0XzXF.~.).~.~._.~.F.h.Z.Q.Q.8XGXGX8XeXwXwXwXwXeX-XW.W.W.W.Q.W.8X0X8X0X0XqXqX/.R.R.~._.jXbXvXzX~.).0XHXHXFX,X6.I V h v h B P a.<XSXMX8X4X4X0XqXeX-XW.Q.=X4X5X=XQ.4X8X4X=X=X=X4X4X=X=XW.W.=X-X-X-X;X-XQ.T.E.Q.W./.E.R.(.).wX7X7X7X%XI 4 > 4 ] N.R.!.(.).).).zXzXzXzXhX_.!.~.(.6X).!.F.G.F.R.^./.R.D.H.4XW.R.Y.R./.^.D.E./.^.R.^.0XcXxX6XcXcX0X^./.0XcXvXxXcXcXcX0X~.xXHXbXzXzX)./.E.b.' 9 1 - - 8 Z O.%X4X6X~.P.K.Y.H.S.S.D.L.L.Y.J.H.x.z.z.x.H.H.D.D.M.M.Y.T.Q.Q.Q.E.M.j.k.k.h.j.M.H.R.D.D.D.R.(.!.U.0X~.R.~.0X8XR.S.G.K.L.J.%Xn. .S j f B s.u.v.l.z.S.S.S.D.H.H.D.D.H.S.c.D.H.E.4X4X5X5XQ.Y.J.j.h.M.k.7.7.H.W.Y.z.h.k.j.k.Y.8XeXiXeXeX5X=XW.T.J.M.Y.-XM.1.R ) 9.q.w.4.q.t.t.}.=.m u ",
"7.M.Z.T.M.j.k.7.<.f.M.Y.T.T.N.6.0.) T _ 5.k.C.-XT.Y.x.h.z.D.D.c.S.D.F.F.K.K.K.R.H.K.R.R.R.R.^.(.F.^.!.0X0X/.wX/.4X0XcXwXqX0XcXDXxXR.H.=X8XQ.Y.R.F.F.l.f.q.#.A 7 N U o.O.u.%X9XeXeX4XW.~.W.~.Y.x.c.H.E.W.E.^.8XmX7X^.E.4X4XY.k.z.H.D.S.D.D.D.D.F.g.6XzX!.G.K.zX/.W.5XiXGXeXT.k.j.C.>XiX9X;XiXiXW.8X4X4X4X8XqXE.M.1.Y.wXwXW.Z.Z.W.DX0X(.R.F.!.).F.F.R.(.0XzXzX0X6X/.wXwXQ.Q.eXwXeXqX4XW.8XwX8X8X0X/.6X).(.^.).^.P.).(._._._.!._._.].bXbX)._.kXkX_.bXvXnX9Xu.Y C A Z z V P i.:XiXqXxXlX)././.W.-X-XT.W.5X5XE.Y.W.eXW.4X4X4X=X=X4X4X8X9X8X8X;X=X&XQ.W.W.=X4X4X/.^.(.).).wX4X4X=XOXP 4 > > A C.R.!.).zXzXcXcXxXzXzXzXkX).~.!.!.(.(.^.R.R./.4X/.Y.H.x.x.-XwXnXcX4XR.H.H.E.E.R.R.6X0X6XxX).D.l.c.E.4X0XR.D./.nXcXR.l.).(.!._.).)./.Y.q.H 8 > # > v [ n.5X5X).!.F.c.x.j.D.D.D.D.x.x.j.h.j.f.f.j.x.c.c.c.H.M.H.M.M.M.M.M.j.j.k.j.h.f.j.j.z.z.c.c.D.H.F.D.R.(.8X4XW.H.S.c.S.K.K.J.%Xn. .S h h S a.6.5.d.z.c.c.c.D.H.H.H.D.H.K.E.H.D.D./.wXqXiXiXiX9XW.M.J.-XM.j.M.Y.T.Y.Y.M.W.eXwXeX-X-X8XT.8XeXeX9XeX9X9XW.W.-XeX;XN.k.N.T.C.C.n.s.{ Z M ",
"R 5.8.b.M.k.j.7.,.9.9.5.q.b.b.i.+._ T T ) ) 5.w.N.k.j.z.D.D.D.c.S.G.F.F.D.D.F.L.R.R.!.!.!.!.^.^.!.^.!././.R.Y.x.D.L.W.0XcXxXxXxX/.R.R.Q.T.Q.W.R.R.R.D.M.i...A ; j  .a.XXOX%X%XJ.f.c.E.8X8X/./.0X0X/.4X4XqXnXqXqXE.L.H.R.J.h.w.M.Y.H.D.D.H.H.S.3.l.^.!.F.G.F./.(.nXxX0X0X8X4X8X9X-XT.E.-X4X9XwX4X0X4XwX8X0X4Xx.h.E.W.W.x.8XLXFX'.R.R.).(.G.D.~.R.!.R.!.).6X6X6X0XDXDXnX0XW.H.M.8X8XY.H.E.4X7X6XxXxX6X).zXzX!.P._.hX_._.(.hX_._._.).zXkX).zXzXkXzXkXzXqXuX;XO.A A Z Z V P u.&X9X7X/.).6X)./.4X-X4X5X=XW.=X=XW.W.4XE.4X8X5X=X=X4X5X8X8X4X-X-X&X&XW.8X8X8X8X0X4X4X6X).).eX-X4X%XOXA > % > Z C.Y.!.).zXcXvXcXbXzXzXxXxX`.(.!.!.^.^./.^.K.R.E.Y.Y.Y.M.7.k.Y.Q.8X4XE.W.H.Y.R.R.R./././.vXxX4XR.Y.E.E.E.E.H.H.x.x.x.S.0X).K.F.R.H.Y.N.t.' q > @ 1 K &.@X9X6X(.P.D.x.k.b.x.D.L.H.H.x.k.j.M.k.k.x.H.D.D.S.x.z.l.g.d.f.f.f.j.j.k.k.M.M.M.M.7.h.x.x.l.g.c.K.S.R.^.R.c.h.c.D.S.L.P.Y.N.n.@.A h h W .Xu.j.x.R.K.L.L.L.R.R.H.H.H.K.E.E.R.R.R.E.R.E.W.4XnXGXwXwX4XnXFX8XY.W.8XwXW.Q.R.R.R.R.W.4XE.E.H.z.H.4XqX0X8X0XwXwXeX8X8X9X5X5X;XOXo.A H } ",
"R ) ) 5.w.w.w.w.q.5.R T _ _ U ` X.X.6.0.+.R ) 5.T.M.J.W.^.E.K.K.F.F.K.F.F.I.K.K.L.K.K.F.F.F.F.F.^.!.^.!.!.^.E.7XR.x.c.E.qXxX6X^.G.L.K.j.w.T.-Xx.~.^.R.4XN.o.W t f U n.*X;X-X=XR.6XmXHXvX8X(.8XcXcX6X0X(.lXmX6X^.G.g.2.1.,.<.j.Y.h.x.H.L./.wXqXW.DX4XD./.'.Y.W.qX(.(.lXvXvXxX6XqX7XL.K.6XxX7X7X6X/.6XFXnX7XR.g.l.H.E.qX/.0XDX0X/.^.F.K.6XxXxX).F.^.^.^.R.!./.).^.^.(.^.)./.D.z.W.4XE.K.^.^.P.P.K.qX^.^./.^.L.K./.K.K.P.(.lXlXlXlX).~.R./.cX).~.xXzXzX4X9XaXXX~ V m Z Z ] t.&X5X^.F.!.).)./.8X8X-XwX4XW.4X5X5X4X=XW.5X8X5X4X5X4X5XW.W.W.=X-X;X;X,X;XW.W.W./.E.E.^././.8X;X5X%XOXA > * % M OXY.!.`.0XqXzXbXzX0X0X`.zX0X0XqXqX0X/.W.E.D.H.L.H.Y.W.N.M.j.<.1.M.J.H.W.-XW.W.4X4X0XwXcXcXDXDXwX/.Y.H.x.Y.W.-XY.T.W.E.wXcX(.K.H.x.M.n.t.' i > # 4 ( &.OX5X/.K.F.H.Y.Z.Z.M.L.H.H.L.H.H.M.k.k.k.x.x.c.c.H.K.L.L.L.L.L.L.J.W.Q.J.m.M.k.j.k.j.k.x.x.c.l.S.R.R.R.R.H.L.R.R.R.K.F.J.T.B.p.#.A h f A .Xn.N.K.^.E.E.R.R.R.R.H.H.K.L.H.^.6X6XR.c.R.!.K.K.).6X6XzX7XzX6X^.^.6X^.G.G.l.l.F.).`.(.K.!.R.K.K.K.^.!.K.U.F.F.R./././.^.^.7X4XN.+.U ] { ",
",.q.) ) 5.w.b.n.b.u.6.0.0.T N N E _ i.n.5.E E 9.j.f.k.L.K.S.z.L.L.K.K.K.F.F.K.K.K.K.P.K.K.F.F.K.^.!.xX7X/.7XK.W.W.L.L.K.K.R.^./.F.g.d.j.j.M.Q.Y.^.^.W.5X XO.~ f C ^ B.%XN.m.J.5XnXHXLXDXzXzX0X).(.~.zX^.lXHXvXxXlX/.D.1.<.<.,.,.l.R.4XW.4XnXnX8XwX8XY.Y.c.2.x.R._.P._.hXlXzXvXHXmX^.L.7X6X6X7X^.qX^.8X7X7X6XK.R.^.2.l.H.R.H.l.4XxX6X6XxXzX).^.^.!.6X6XR.R.).).K.P.(.F.G.F.z.2.g.g.z.S.G.F.P.!.P.K.R.L.l.g.S.L.K.xX6X(.^.^.!.P.!.!.0X/.^.cXvXzXzX(.zX7X=X2X@X .Q Z ( A ..u.9X4X/.).(.!.F.H.E.4X4X9X8X5X5X4X=X=X4X4X8X8X8X8X9X9X5XqX9X9X8X9X9X9X9XeX8X=X4X8X4X/./.^.E.&X&X;X%XOXH > % % M +XT.(.zXbXzX0XqXzXzX`.).).~.~./.0X8X/.R.8XR.E.W.Y.W.=XM.T.Q.M.k.M.7.f.Q./.E.Y.W././.0XcXDXcX4XR.R.E.Y.M.M.Y.T.N.Y.Q.E.wX4XR.R.W.W.T.b.+.A 9 > > u } s.N.9X^.L.D.Y.T.Z.n.Y.R.R.R.H.D.x.x.L.L.Y.E.E.R.R./.^.^.E.E.J.J.J.J.R.L.l.g.k.M.M.Y.W.H.z.D.R.R.K.H.K.R.H.H.Y.W.E.H.^.S.R.E.v.i.#.S h 8 B a.N.T.L.L.R.H.H.H.H.H.D.D.D.K.^.7X).^.K.D.G.^.).^.).^.).xX6X).!.!.K.L.K.^.!.R.F.F.F.F.!.^.~.R.R.^.!.F.K.^.(.F.F.).0X^.!.).^./.7XM.8.6.] N ",
"Q.Y.k.<.7.j.h.R M.j.j.8.7.R E E R 8.w.w.j.9.R ,.R 1.d.l.L.D.c.R.H.R.R.R.K.K.K.K.!.^.!.L.G.F.L.K.R.D.l.l.x.Y.W.4XR.H.c.c.K.E.S.<.2.2.c.Y.k.1.7.Y.x.z.E.T.v.e.e.f j ! n.%Xm.L.MXFXFXnXGXnX0X6X~.F.F.).(.!.xXmXcXcX/.6X^.c.d.<.g.K.4XcXwX4XqXnXeX8XwXW.W.c.h.D.D./.vXNXhX!.).zXzXHXHX6XK.7XnXmX5XW.4X8X8X8X4X0XcXR.F.F.F.(.).6XcXDXcX0XxXHXvX_.]._.!.(.).!.U.!.~.R.!.F.[.F.R.S.S.2.<.<.2.l.H.E.^.^.^.L.c.H.H.D.K.).(.).(.P.I._.jXjX_._.~.`.bX`.).bXNX(.(.7X=X>XoXW m K [ | %XuXR.).zX(.R.R././.W.Q.W.R.W.4X7X4X4X5X5XuXiX4XQ.=X=XQ.-X5X;X&X-XeXuXuXeX5X&XW.-X-X=XW.7X7XT.;XT.C.*X! 1 # - ' b.E.).`.bX).(.6XzX0X).).qXR.R./.qX4XR.H./.wXcXW.H.W.4XH.x.x.-XT.T.7.k.Y.c.R.R.H.R.4XcXwXnX0XE.D.x.R.E.H.j.Y.R.x.l.H.E.E.L.R.4XnX9X9XeX6.W q % > 7 { 2X9XqXwX4XR.K.R.T.Y.K.^.K.S.R./.^.R.R.D.R.E.~.R.R./.4X/.R.R.R.E.E.R.R.L.H.L.Y.L.H.H./.(.!.R./.6X4X^.Y./.0X4XR.x.c.D.^.^.H.N.N.v.i.! h 7 k y.N.E.L.K.K.K.R.H.D.R.^.D.R.F.R.^.).^.!.~.(./.^.K.D.D.K.^.R.R.R.R.K.L.K.R.K.K.F.G.S.S.D.H.H.K.H.W.E.x.H.H.R.R.!.^././.6X0XR.K.R.=Xq.O.o.N ",
"Y.J.L.Y.L.m.k.M.j.M.J.M.j.7.f.j.h.T.Y.j.Y.-XY.j.1.z.k.x.Y.H.c.H.z.d.2.c.R.R.F.F.F.F.F.G.G.K.^.7XL.L.z.<.1.x.Y.M.H.H.H.H.x.z.c.S.L.L.S.g.j.M.k.1.,.f.=X%XB.e.t.g f ! p.%XE.7XFXmXnX=XJ.Y.E.).(.P.F.).(.^.).^.D.L.D.E.E.R.E.^.6XvXxXxXqXcXcX/.R.W.4XH.Y.D.R.^.S.F.bXvXhX).zXzXzXvXcXcXcXcX8XW.J.J.h.M.T.4X/.8XDXcXR.l.G.D.^.qX^.8X0XbXJXJXzX!.]._._._._._.~.~.~.).~.~.F.!.!.D.R.H.D.H.H.H.H.H.R.R.R.K.L.D.F.K.!.^.).hX).(._._.P.I.hXhX).).).~.~.kXNXzXzX).L.&Xn.C Z ( } o.%X9X!.(.R.R.~./.4X/.8XiX4X6X8XwX8X7X4X4X5X5X4X5X5X4X5X9X8X8X-XQ.Q.Q.Q.T.&X-X;X-X&XQ.Q.Q.E.=XT.;XT.C.*X[ 7 > - Q B.W.(.).~.!.^.).).).(.(.K.0XcX0XE.E././.c.D./.0XW.R.Y.H.W.4XqXE.E.z.M.H.E.l.l.R.8X0X0XwXE.E.4XwX8X/.E.H.z.z.l.c.R.7X^.H.E.4X0X4XL.=XeXb.! f % > y %.tX0X/.E.Y.D.F.G.D.H.K.E.K.D.!.(.!.!.R.U.U.R.R.D.Y.R.4X4X4X4X4X4X0X0X4X/.W././.E.E.^.R.!.!.!./.6X/.E.R.E.W.E.Y.H.H.D.4X4X%X%XC.N.n.| 0 1 k y.N.W.E.E.7XK.K.^.R.K.R.R.l.l.G.R.(.).0XbX/././.E.H.D.D.H.E.R.R.R.R.H.H.H.E.R.K.H.K.K.H.D.H.L.z.z.z.k.T.R.S.L.R.E.^./.4X8X^.K.H.Y.v.6.O.N ",
"H.g.d.z.J.J.M.x.z.H.J.m.j.j.M.T.Y.8XW.M.-XiXeXY.M.E.R.D.H.H.c.l.c.l.l.c.K.R.D.G.F.K.K.K.L.K.K.H.M.M.k.f.1.7.1.,.R f.=XwX8XY.W.cXqX^.c.c.H.Y.J.x.g.H.9X-Xv.6.#.k w W e.n.4XnXMX7XQ.j.7.k.Y.^.(.!.F.P.!.).xX6X^./.H.E.E.E./.^.R.^.0X6X6X0X4Xx.h.H.x.H.4X0X0XxX0XzXzXzX).).zXzX).6X6XwXcX8XW.L.k.f.j.z.x.E.L.R.4X^.8X^.6X/.E.W.Y././.cXvXzX).).)._.)._._.kXkX~.~.zX).).~.^.!.K./.4X4X/.W.E.R.H.H.H.H.K.K.D.D.K.!.K.^.!.^.).hX(.P.I._.hX_.!.~.(.).bXI.G.I.K.m.N.e.N Z K { o.C.9XE.(.).`.8X4XE.H.Y.W.W.4X8X8X4X7X4X7X5XQ.W.4X9X5X5X9XeX9X8X;X5X9X5X&X-X5X8X;XW.Y.T.J.H.J.N.%XC.N.OX] 8 > - Q B.W.R.!.U.^.).).)././.^.R.0XxX6X^./.4X/.cXE.c.3.1.g.R.4XE.4X8XE.W.W.8XE.H.K.R./.nXFXcX^.R.R.4XcX4XR.Y.R.R.R.R.E./.^.E.R.E.E.W.4XR.Y.=Xv.! h % > M .XuXE.z.h.z.H.K.F.F.E.K.K.L.K.E.R.K.R.).R.R.R.R.D.D.R./.4X8X8X4X4X0XwX0X4X4X4X/.E.^./.!.^.(.).0XzX6X/./.W.E.R.R.R.Y.H.K.L.B.N.T.%XN.| 0 7 v s.N.^.^./.0XE.^./.R.K.R.E.l.l.S.D.U.R.!.).^./././.^.E.E.E.L.D.x.H.L.L.H.H.K.D.D.K.^./.E.H.H.W.Y.J.M.x.M.7.2.g.D.H.H.K.R.R.^.R.E.5X&XA.t.D ",
"W.L.l.d.x.Q.R.z.H.m.l.j.l.k.H.J.4XW.W.8XqX4XE.E./.8X/.D.S.D.S.g.3.H.R.D.S.F.F.G.g.G.S.D.L.K.L.S.k.j.k.Q.J.<.R R 1.k.Q.Y.j.7.Y.iX4XE.H.H.H.H.R.4X^.R.E.v.4.U [ h 0 W  .i.5X7XJ.g.7.9.j.Q.E.R.^.(.~.F.G.^.6X^.K.D.K.R.R.^.zXxX6X).F.R.R.D.D.l.d.g.2.l.R./.(.).zXvXzX).(.(.6X6X(.^./.0X4XL.x.l.f.7.d.1.1.c.H.H.^.E././.^.E.x.h.x.Y./.).(.!.(.zXkX_.).).kXzXkX).`.kX).).(.(.!.R./.4X/.E.R.E./.^.K.S.L.H.D.D.D.F.K.K.K.F.K.(.).(.P.!.I.!.F.F.!.0XxXvXNX_._.zX9XN.o.C z J ' O.%X9X4X).(.^.R.E.E.W.Q.Q.R.W.W.R.W.4X4X4X5X=X=X4X=XQ.Q.=XY.Y.Y.Q.&X;X=XW.=XQ.T.T.Q.T.Y.M.L.L.M.C.N.M.n.W 4 - - Q v.L.R.!.!.).0X0X6X0X0X).wX^.R./.wX0X4X4XcXwX0X/.E.4X/.l.H.Y.E.E.4X8X8XW.D.^.^.H.R.0XqX^.x.D.R./.E.W.0XwX8X4X4X4X^.H.K.^./.c.l.4X4XY.J.8.! f > > m @X9XD.1.g.D.E.(.~.!.^.R.K.D.K.R.D.D.E./.R.R.R.R.R.R.R.^./././././.4X8X/./././.R.H.R.E.R.!.!.!.^.^.R.H./.E.R.R.E.E.E.R.4XW.N.C.&X%XB.P 0 7 m s.M.E.E.^.^././.R.D.R.E.D.U.R.R.F.F.G.F.R.K.R.E.E.E.E.E.E.H.D.D.H.L.H.H.H.H.D.S.D.R.E.E.R.D.x.7.1.7.j.Y.H.d.S.K.K.D.D.D.D.K.K.H.=X%Xi.o.N ",
"W.4X4XH.l.x.H.Y.L.H.D.x.D.H.L.Y.0XE./.qX/.D.H.4X0X0X/.D.l.D.D.g.<.h.D.D.S.S.G.G.D.F.S.g.g.l.l.j.f.7.M.-X&Xj.,.9.5.j.M.7.R ,.j.N.f.J.R.g.1.x.R.K.^.g.:.R U C A h 0 A  .|.rXJ.9.R R R M.;X-XE.^.(.(.G.G.K.K.D.S.D.K.K.F.R.zXxXlX6XF.D.l.3.l.g.2.2.S.c.G.F.^.).).(.xX).(.^.!.!.^.R.H.W.R.g.:.:.7.l.g.l.2.c.L.S.K.^.^./.d.x.M.h.&XH./.R.D.U.(.).)._._.kXkXkX).`.`._._._.).~.!.^.^.^.0X^.D.l.c.F.^.6XR.D.D.K.K.G.G.K.!.K.K.!.K.F.F.!.P.!.F.F.!.).).).hXI.F.^.J.X.N f z K [ t.&X9X8X/.R.R.R.R.E.-X5X5XW.E.J.J.W.4X4XW.E.4X5XQ.Y.Y.T.T.H.M.M.M.J.M.M.k.k.k.k.M.J.Y.Q.=X^.E.M.N.T.N.t.A 1 - - Q i.J.R.(.(.).6X/.8XxXzX6X0X/.^.6X8X6X8XcXDXwX^.H.D.E.0X/.W.E.E.4X8X4XY.H.D.D.E.0X0X/.R./.R.E.4X/.E.4X4XE./.R.H.E./.R.K.K.E.H.l.Y.4XQ.Q.v.I f > > Z #X-XD.x.E./.^.^.)./.R.4XE.H.R.E.H.H././.R.Y.Y.R.R.R.R.^.E.R.^././././.^.E.E.E.R.D.H.R.(.^.!.!.!.R.R.K.R.R.R.R.R.R.Y.L.H.K.M.%XT.N.B.U 0 8 m s.b.R.E.E.H.R.E.L.c.H.R.S.K.R.!.R.D.F.!.(.D.L.H.H.D.D.x.x.E.E.R.R.L.H.J.R./.E.K.D.D.H.L.Y.E.x.1.1.f.j.T.E.L.^.4X/.E.R.R.R.R.!.K.Y.M.6.| N ",
"S.c.H.E.R.x.D.W.R.E.E.R.D.c.D.H.E.E.E.Y.l.l.R./././.E.H.c.D.H.c.c.1.1.D.R.c.l.L./.6X7XR.x.f.<.:.,.8.j.j.v.b.v.8.R 9.8.5.5.8.9.) ,.7.g.f.l.D.K.K.^.g.:.R X.P H h 7 V ..@X>Xm.,.E E R 8.C.W.4X).^.F.G.D.K.D.D.^.0XK.K.S.G.!.~.P.F.^.K.l.l.D.l.3.G.R.^.!.).hX).zX).zX/.^.R.F.D.L.c.l.g.<.:.:.7.l.x.E.0X/.E.D.2.g.K.7X0Xx.H.M.j.;XQ.W.R.R.(.(.!._.zX_.kXkX_._.)._.!._._.hX_.(.).!.R.l.R.0XzX/.K.F.K.).K.K.!.R.G.G.R.K.K.F.D.S.G.D.!.!.!.F.D.R.R.U.!.I._.lX^.M.6.P k z J ' y.OX-X4XR.K.R.E.Y.M.H.Y.Q.=XE.R.W.7XE.J.H.H.W.-XY.J.T.=XQ.Y.Y.J.J.M.k.k.k.z.H.T.Y.J.Y.-XwX6XE.M.N.Q.C.5.C 1 - 1 [ i.L.R.).!.!.!.^./.0X0X0X/.qXqX/./.qXcXwX^.R.E.4XR.c.H.4X0X/.E.wX4XE.x.D.R.R./.cXDXDXqX/.4X0X0XE.D.R.R.l.c.x.L./.^.H.D.H.l.4X4XW.W.8X9Xv.Y q 4 > K #X=XK.4XwXwX^.^.xXxX4X0X/.H.R./.E.R.4X/.W.R.R.R.R.R.R.R.K.K.R./././././.^.^.^.E.R.R.^.0X).).)././././././.4X/.E.H.x.c.<.l.M.C.m.v.v.| 0 0 Z s.N.7X4X^.E.L.R.^.R.D.R.E.!.(.(.R.F.F.F.F.K.H.H.H.L.H.H.H.L.L.Y.Y.J.J.Y./.4X/.E.H.H.H.R.W.4XY.h.k.M.j.M.k.L.^./.^.R.^.^.!.K.).7X4X%Xq.| N ",
"x.g.z.^.0X/.E.E.K.R.R.H.S.c.l.z.x.z.z.1.:.2.H.D.H.x.Y.R.c.x.Y.x.H.h.h.M.L.x.x.H.S.Y.Q.Y.M.j.8.8.7.w.7.,.9.v.b.q.q.9.R R T ) R R 1.R 1.H./.R.!.6X).^.S.8.u.[ ' h 7 v  .{.N.8.7.R R ) 8.b.Y.4X0X^.R.S.F.K.c.l.H.D.G.S.G.F._.).!.~.(./.!.R.(.^.!.).!.6X).zXhX_.lX6X).R.^.E.S.c.L.c.l.<.:.1.J.W.Q.L.^.xX7X^.K.G.L.7XE.R.R.j.,.,.5.M.D.S.D.!.(.~.(.zX_.).hX_._._._._._._.zX(.~.).K.R.).).^.F.G.F.).bX6X(.!.!.R.F.D.F.S.S.S.c.S.D.K.K.!.!.U.R.^.R.U.(.hXNXvX/.M.+.D f h Z W #.B.T.4XL.l.S.H.H.J.Y.W.W.W.R.R.7XQ.M.m.J.M.J.Y.Y.J.T.T.Q.H.M.M.M.k.z.k.Y.W.=X-X-XW.=X8X8X6X7XQ.T.,X&X+.C 1 > 1 [ n.Y.~./.(.^.(.).).).6X0X0XwX0X4X8XxXqX/.0X/.qXDXwXE./.cX8X0X/.8XR./.R.R.6X0XR.S.R.cXDX0XR.R.R.S.c.Y./.E.l.L.7X6X/.R.K.E.z.0XwX4X8X9X5Xv.U 0 > > K $X-X6XwXwX8X^.(.zXxX6XW.K.z.S.E.W.R.W.E.W.W.E.R.R.R.R.R.R.R.!.^.(.(././.^.!.^.(.^.^.(.^.R.R.R.!.R.R.^.4X4X4X/.R.D.z.l.D.R.T.%XN.v.u.U h y Z s.N.7X^.E.E.L.E.7XE.H.E././.6X).R.F.l.l.g.H.H.R.E.E.^.W.E.x.x.k.M.H.J.E.W.E.R.R.R.R.E.W.W.Y.z.,.,.7.j.T.E.L.!.E.K.K.R.^.R.F.^.^.=XT.6.Y N ",
"g.H.E.E.R.H.D.c.D.l.g.l.D.K.D.l.h.1.1.,.R 1.l.d.d.1.x.T.k.k.M.k.h.T.T.k.j.N.T.Y.J.J.v.9.R ) 8.v.C.b.8.9.5.8.q.q.5.R R 9.q.q.6.8.9.7.k.Y./.6X6X).~.0X4Xj.t. .' q 7 v ' O.) 4.v.5.5.q.n.N.M.4X0X^./.F.F.R.R.E.R.l.l.S.G.F.~.!.F.F.F.zXcX(.`.DXHXvXDXNX).zXbXhXlX!.R.H./.4XR.R.E.H.z.g.x.W.8X8X4XW.6XxX^.K.(.^.^.^.W.g.J.,.R w.R 7.2.2.2.G.!.(._.~._._._.jX_.].!.)._._.bX(.~.(.F.R.!.K.R.^.6X0X)._.).6X(.R.F.F.D.F.S.D.S.l.S.H.H.S.!.~.!.^.^.R.R.zXhX).!.E.T.6.D f z Z W #.b.T.8XR.D.D.H.Y.=X9X4XY.W.J.R.4XE.m.H.5XT.J.M.Y.T.M.m.J.E.Y.T.Y.J.M.Y.-X9XW.Y.W.eXeX9X4X6X6XeX9XiX9X6.W 4 > > ' n.Q.R.~.qX0XzXcX0X/.).xX0X6X0XcXqX/.^./.0X/.0XcXcXnXnXwX4XwX/./.D./././.).(./.wXcXxX0X8X/.E.E.R.D.D.H.H.L.L.K.E.0XwX6X^.6X6XR.E.4XW.Q.C.! 0 > > ( 3X;XcXwX4XE.E.^.^.R.H.S.l.d.g.L.R.L.L.x.H.R.E.R.R.R.R.!.(.)./.(.(.(.).^.R.R.!.^.^.!.^.^.R.R.!.!.R.R.E.D.D.D.H.H.H.D.c.l.g.7.b.=X-XN.U h 8 v %.u.L.H.z.H.K.^.E.L.R.^.H.E./.(.!.R.F.D.S.D.H.H.L.R.H.H.x.E.L.x.M.J.J.J.J.R.H.H.R.E.E.Y.x.H.J.j.k.J.T.W.x.^.).^.R.R././.^.6XxXR.H.v.5.| Y ",
"E.H.H./.8XE.D.l.l.S.F.R.R.F.l.3.f.1.7.z.z.1.1.7.,.<.7.7.7.j.j.q.w.b.w.,.,.) ,.N.N.v.9.T ) 6.6.6.v.8.5.8.8.6.5.6.q.4.) ) 4.4.6.u.8.j.k.M.R.^.(.~.).).E.,.T I A h 8 m W #.u.q.M.M.N.OXn.9.1.Y.4X(.0X).(.(.(.(.^.R.0XzXzX).).zXbXhXcX(.R.).vXJXvXNXlXHXvX(._._.(.zX/.E.H.L./.D.g.L.<.c.K.E.4X/.E./.K.).^.K.!.6X).H.E.DXW.j.7.R ) ,.:.l.H.D.K.).hX_._.hXhX_.].].!._.I._.P.P.zXzX~.!.!.K.K.!.~._.).zX0X~.!.!.F.F.R.K.R.K.S.c.S.H.H.K.).!.F.D.R.R.!.~.hXF.F.^.Q.6.P k z Z A | 6.T.L.K.H.H.L.J.E.-X4X4X9X4XY.H.Y.4X=XJ.J.M.M.J.M.j.k.J.Y.E.Q.Q.E.E.Q.W.9X5X4X5X4XW.Q.W.E.7X-X9X9X>XC.I 4 > > ' i.T.R./.8XqXcXqX/.^./.0X).).0XxXzX6X6X0X6X0XxXxXnXDXxX/./.0XxXcXcXcXcXcX).0X0X0XzXcXxX/.^./.4X4X4XR.H.^.R././.R./.cXcX/./.6XE.E.E.x.Y.%X .f # > } 3X9XR.D.Y.Y.H.K.^.^.L.S.L.L.R.R.Y.Y.J.Y.Y.E.R.D.D.!.6XR.R.R.R.^./.^.K./.!.R.!./.).(.R.K.R.R.R.^.R.D.R.H.H.H.H.D.D.H.R.S.c.7.v.T.-X%X| v y v  .v.H.L.H.l.z.K.7XE.z.c.E.E.E.R.R.R.R.K.S.l.D.R.H.c.z.z.c.x.h.z.R.E.M.x.J.H.W./.R.R./.R.h.1.x.H.x.H.j.h.R.L.G.D.!.R.^.0XzXxX/.R.L.v.6.| P ",
"x.c.c.D.H.D.c.c.2.2.g.G.F.S.F.D.M.h.f.z.x.h.1.<.j.j.j.7.w.w.q.5.5.6.5.) _ E E q.9.6.5.T U _ 0.i.X.4.4.4.5.9.5.X.4.6.4.E R q.b.8.w.j.j.j.c.D.F.F.!.^./.j.6.U C 0 8 Z { t.b.M.T.J.T.C.j.R R z.!.~.^.^.^.(.(.R.D.l.G.(.vXJXvXbXzXkXvXvXzX`.bXHXHXHXlXhX_.(.bXhXF.F.L.D.<.:.:.<.<.c.z.l.l.H./.E.H.R.mXzX^.!.R.!.^.^.E.FXwX8X=Xj.7.f.R.^.6X0XzX0X).!._._._.!.].F.]._.hXlX(.~.(.K.G.R.K.F.F.F.F.G.F.P.(.!.).6X^.!.R.F.R.^.^.R.E.4X/.K.).!.G.F.R.^.!.F.G.P.).^.j.X.Y v z Z B ] u.-XY.H.x.H.J.M.J.Q.=X4X=X4X=XQ.Y.J.T.=X5X=XY.Y.=X5X-XQ.T.E.Y.M.k.x.Y.4XY.Y.Q.=XW.Y.H.L.^.7XW.;X-X%Xi.A 1 > > ' i.J.R.~.R./.4X/.^.R.^.4X!.R.^.).0X6X8X0X0X8X/.E./.wXmXDXDXcXcXcXvXnXvXvX0XmXHXvX0X).6XqXwX/.H.^.0X^.D.D.D.l.S.^.6X^.^./.R.0X7X/.4X4XE.8.^ q # , } 3X9XW.x.g.l.L.^.!.L.L.L.H.x.m.J.J.J.M.Y.H.H.H.E.^.^.!.!.R.R.K.R.!.R.K.^.!.R.R.R.R.R.R.K.^.R.H.R.K.D.S././.E.R.D.S.c.S.F.R.M.b.j.M.C.o.v 8 k [ v.M.L.J.E.W.^.E.L.S.L.R.E.^.E.R.^.^.!.R.D.R.R.H.D.x.D.D.x.H.E.R.H.k.x.Y.D.D.S.D.E.4XH.<.2.x.L.E./.H.c.H.L.G.D.R.R.^.6X6XzX^.R.J.v.6.| P ",
"z.x.x.z.z.D.R.E.^.R.D.F.S.G.F.D.z.j.j.k.M.H.x.z.h.f.7.9.5.5.) U E _ 0.i.q.) E ) 4.6.6.) Y U | 6.R R R 9.9.) R ) 4.8.5.R 9.N.N.j.7.7.7.7.h.c.F.F.F.g.2.:.v.u.O.B 8 Z { e.u.v.Y.M.T.T.T.N.H.E.)._.!.R.F.F.F.F.U.R./.!.R.!.(.).zXbX_.`.zXkXxXvXbX).P.P.F.F._.P.K.P.K.S.<.<.c.H.c.d.g.c.c.l.c.S.R.6X^.^.).0XzX6X).)./.6Xc.l.x.z.Y.8XqX7X^./.).~.!._._.!._._.).).zXJXHXNXvXxX).G.G.(.F.K.!.!.F.F.P._.!.F.~.).!.F.F.F.G.S.S.D.R.^.^.R._._.!.R./.qX0X~.hX).!.L.T.C.| 0 l Z Z | u.%XM.m.k.M.M.M.M.J.T.=XE.=X4X4XT.J.Y.=XT.T.J.M.Q.5X-XJ.J.W.qX9X8X=XW.=XQ.E.Y.Y.J.J.Y.4X6XxX8X9X9X;XOX[ 1 - > ' n.Y.R.^.^./.6X8X6X8X0XwX6X(.!.^././.).(.0X6X/.R.K.K.^.0X0X0X0X0X6X).(.^.xXDXHXDX6XR.(.zX/.S.g.K.wX0XE.E.^.E.R.K.F.K.R.^.6XcX6X0XnXGXnXN.! q # < ( #X&XJ.M.f.h.Y.7X^.H.x.x.x.l.g.f.f.j.k.N.M.k.D.R.^.R.K.R.R.R.R.R.R.R.^.E.^.^.R.D.D.H.R.K./.E.D.R.^.K.S.g.g.l.l.l.S.D.R.R.R.Y.T.j.8.u. .v 8 v  .v.j.m.H.L.E.K.g.d.S.K.L.E.W.E.R.^././.^.E.E.R.H.D.H.R.R.R.4X4XE.L.Y.E.E.R.^./.E.E.E.H.g.S.L.E.4XqX/.H.K.L.G.L.!.R.!.).(.).!.K.H.8.5.T D ",
"z.D.x.h.h.D.E./.E.K.F.G.G.G.F.K.d.k.J.H.H.R.E.E.H.k.j.j.j.q.) Y E _ X.) X.q.8.) 8.6.9.X.) T Y E R ) 5.9.4.4.4.4.,.R R 8.m.j.7.7.<.1.7.d.h.S.R.!.F.F.K.L.tX2Xp.B 0 Z ] o.9.f.H.k.j.m.T.8XqX0X(.~.!.!.F.G.G.F.!./.!.F.G.U.(.)._._.).~.`.vXvXkX_.).).zXlX!.P.!.(.7XK.H.x.L.0XwXR.g.L./.R.3.2.l.F.!.^.0X`.R.R.).0X).).R.l.K.qXwX0XwXmXzX/.^.(.(.).hX_._._.!.!._.kXbXNXNXNXxX(.F.F.).^.^.^.!.F.G.F.P.(.~.).).!.U.!.!.R.G.G.F.R.D.R.).P.).0X).).0XzXkXhXhXhX^.Q.OXO.f q Z A | +.B.j.M.J.J.J.N.J.T.Q.=X=X=XQ.E.Q.Q.Y.M.J.Q.&XQ.=X=X%XT.Y.Q.=X=XW.W.4X9X=XW.E.Y.Y.Y.=XqX7X6X4X;X;X-XOX[ 4 > 1 } n.Q.~.).R.^./.4X6X8X0X0XcX0X).(.^.^.^.^.K.K.R./.^.R.!.).0X0X6X!.F.K.).xXzXzXzXcXzX(.^./.4X^.K.R.4X/.R.R.R.^.^.K.K./.xXmXxX6X^.wXcX0X8XN.~ q # % F &.u.f.j.k.M.M.E.7XR.l.l.m.m.f.,.R 9.j.j.M.H.D.c.S.F.R.D.D.R.E.E.R.R.R.E.^.^.R.D.S.D.R.l.D.S.l.D.R.H.S.D.D.S.S.S.S.D.F.(.D.k.&XJ.9.X.^ v y v [ 8.j.m.m.J.E.L.g.z.E.7X^.^.E.R.K.R.^.^.^.R.R.K.D.L.R.^.E.4X7X/.W./.4X/.E.K.R.E.L.S.S.S.S.R.K.K.^.4X/.R.R.K.F.K.!.R.^.).(.).!.K.x.8.5.T D ",
"h.h.h.1.2.z.H.H.R.R.D.D.F.S.S.D.c.L.E.K.E.7X7X/.^.K.H.M.M.8.R E _ 5.6.5.9.q.j.,.5.4.,.4.6.4.R E R v.N.4.4.B.M.9.f.:.9.J.T.f.<.d.d.h.x.h.c.c.D.F.F.).cX4X5X;X X^ f S ! o.8.j.=XW.J.J.Q.8XwX0XhXhX_.!.!.!.R.R.R.R.l.G.R.).`.(.(.kXbX`.).kXkX_.hXbXvXbXzX6X^.L.S.S.K.L.E.4XE.K.^.0XmXcX!.F.R.R.G.l.F.R.!.F.U.~.`.(.`.~.(.vXHXDX8X8XxXvXvXzX).(.!.P.F.!.!.P.].).zXzX).zXxX).F.F.F.F.R.R.!.!.~.(.).).).~.~.~.F.F.!.!.).(.!.F.G.l.F.U.I._.).).(.(._._.I.I._./.=XOXO.B q Z A ] X.b.M.Q.Q.T.J.T.Q.&X=X=X=X=XT.M.Y.=XT.j.J.J.Q.5X;XQ.J.Y.J.Y.Y.E.W.=X4X4XE.Q.4X5X=XY.Y.W./.7XW.-XW.Q.n.! 4 > 1 } A.=XW.^.^./././.6X6X6X/.).6X).(.^.^.).).).^.^./.).(.).zX^.).6X6X).(.).6X).(.).xXcX0X/./.0XcX0X/.6X6XE.E.E.H.E.wX0XR.^.xX)./.6XnX8XE.R.q.W 8 # % x ..5.7.7.j.m.m.L.W.R.H.H.H.H.f.<.:.,.9.9.j.J.H.c.S.K.R.D.D.D.D.D.c.c.D.R.R.H.D.c.c.D.D.c.c.l.c.R.R.K.R.^.E.R.K.D.D.D.F.R.D.k.T.M.9.4.! h y v ! 8.J.J.m.L.L.S.S.L.E.W.W.^.W.R.H.K.E.E.R.R.R.K.K.K.E.^.R.^.K.K.E./.E.R.R./.^.K.!.).0X6X^.R.D.S.K.!.!.R.K.K.F.K.!.R.^.).).).!.R.H.j.6.| Y ",
"j.j.h.h.h.c.D.c./.E.^.^.R.D.G.S.K.L.L.P.6XvXxX(.^.K.L.H.m.8.,.R R R q.C.M.5.5.7.7.7.7.7.8.5.5.5.8.8.8.8.8.5.8.v.J.H.H.J.E.H.z.z.l.x.D.x.z.c.D.D.U.(.).l.x.H.C.e.f B U o.f.M.wXnXiX9XwXnXxX0XhXzX_._.!.!.!.!.!.!.~.R.U.R.!.~.`.xX~.`.`._._.hXkXhXvX~.^.6XD.2.d.L.R.x.L.E.S.z.^.xX0X^.R.zXJX).R.).3.3.D.).`.~._._.~.U._.).~.!.R.0X).lX6X(.!.!.I.F.G.F.].F.!.).0XzX(.zXxX).F.R.R.S.R.K.K.!.).bXvXvX).!.!.~.F.F.R.U.!.xXxXU.G.U.!.G.I.I.F.!.).)._.I._.I.P./.W.N.o.B l Z Z ! t.:X%X=XT.M.k.M.T.Q.E.T.T.=X=XJ.J.Y.Y.M.M.j.k.T.-XQ.N.N.J.Y.Q.5X8X8X=XE.W.=X4X5XW.Y.J.K.^.7X=X5X5X-XOX .1 # > } n.Q.R.R./.4X6X8X6X4X/./.R.^./.^.!.^.).).cX0X6X6X6X).(.(.R.R.^.6XxXzX^.F.).6XzXvXcX0X6X).8XxX0X4XxXcX0X4X4X4X6X6X/.K.F.K.R./.6X0XE./.8Xj.A 7 + % x } 6.f.m.j.M.Y.K.S.M.Y.L.m.f.7.7.7.,.R 9.j.M.Y.E.^.!.D.S.c.l.l.l.D.H.R.D.D.S.c.c.c.c.c.H.H.D.H.E.R.H.R.S.S.c.S.D.D.K.F.l.R.T.j.1.5.b.o.h u v ! 8.J.J.m.l.g.z.S.K.L.H.L.R.K.K.L.K.E.R.K.!.^.!.R.R.!.R.K.R.H.R./.^.S.D.^.R.R.^./.6X/.^.^.!.F.K.^.^.^.^.K.P.K.!.!.R.^.).(.^.R.K.x.8.6.X.Y ",
"M.M.M.J.H.M.D.H.c.c.D.R.R.K.K.K.K.K.P.(.lXbXbXhX(.^.^.E.L.k.k.M.5.R ,.j.7.9.j.J.S.x.S.H.m.m.m.M.B.4.4.v.v.,.9.J.m.H.H.z.z.z.g.d.l.x.D.x.x.c.D.D./.(.).^.4XJ.j.R f B P 6.j.m.qXFXnXnXnXcX0X(._._.hX_.P.F.F.!.~.(.!.R.R.R.(.).!.F.U._.kXkXkXbXkX_.).P.!.^.l.g.E.6Xz.d.g.L.S.L.K.D.G.F.(.bXJXcXxXHXcX'.^.).`.~.]._.F.G.kXkX_._.!.`.zX).!.!.!._._.)._.P.!.~.U.G.G.F.(.(.0X6X!.!./.R.^.^.R.F.F.!.~.!.zX_.~.~.~.~.).(.!.kXzX~.~.`.`.!.!.I.F.).xXzXhXhX_.hXbX7Xx.9.X.A l Z Z ] u.;X-X-Xk.j.j.M.J.T.J.J.E.Y.Q.Q.T.J.J.Q.Y.J.J.T.=X=XQ.Q.-XQ.J.x.x.H.Y.Q.=XQ.E.Y.Y.J.J.K.F.P.Y.Q.Q.T.N.] 1 # > } XXQ.Y.R.R.E.^.W.R.R.K.K.R.^.).).).).).^.R.R.^./.6X0X6X(.vXzX).^.(.).zXzX(.6XzXzX0X6X/.^.8X)./.4X8X^.K.^.R.6X/.K.R.0XzX^.K.F.L.K.D.E.8Xj.A 7 + + x [ 6.f.N.N.T.Q.J.z.z.H.m.z.f.d.f.8.9.,.j.j.M.H.^.6X^.S.D.H.H.c.H.W./.R.D.D.D.D.x.c.x.D.D.H.D.c.D.c.l.c.D.D.D.H.K.R.K.F.G.R.Y.j.7.j.%Xt.b q l [ B.J.J.L.z.l.x.J.J.L.S.S.z.S.S.D.H.R.R.K.K.!.!.!.!.!.!.K.R.R.^.^.^.R.^.4X/.0XvXvX0X^./.zX^.K.(.zX).).6X^.!.!./.).^.).6X^.!.K.D.l.7.6.X.Y ",
"M.k.M.Y.Y.c.c.H.W.E.^./.(.!.!.!.F.P.(.lX(._._.jX(.(.^.K.z.g.l.J.Y.j.j.L.E.4X7XL.E.K.J.7X7X=XE.T.f.B.v.5.7.m.m.j.f.z.m.m.z.g.g.d.c.H.Y.x.c.c.c.D.D.G.K.^.7XS.z.8.N C U r.v.z.7XMXFXFXFXwX/.!.).hX_._._._._.~.U.F.G.R.(.R.F.R.!.~.U.G.F._.).~.!.(.G.G.G.d.g.4X/.1.l.z.E.4XK.E./.K.D.).6X^.zXDXcX).zXcXJXvXJXvXkX].).].)._._.zX).zX).F.G.!.).!.I.P.).F.!.zXzXU.U.0XF.S.R.^.F.F.(.^.K.R.R.F.K.(.0XzX).F.G.G.G.F.!.!.~.F.G.R.!.F.F.!.hX_.).bXbX)._.hXkX_.P.G.M.N.+.k f m A [ O.OXC.%Xj.j.k.J.Y.Y.Y.Q.=XM.M.4X5XT.J.=XN.=X-XJ.M.N.Q.=XQ.W.W.E.H.x.x.M.k.k.M.Y.E.J.x.x.^.7XW.W.Y.M.u.A 4 > 1 } XX=XQ.R.^./.6X4X^.R.R.R.R.!.).6XzXcXzX).(.)./.R.R.^.^.!.^.zXvXvXzX~.!.~.(.(.~.!.(.).!.F.l.l.S.^.^.l.G.0X^.!.^.6XzXzX).^.).F.F.0X0X7X7X8.P 7 @ + a ' X.9.7.M.J.M.H.L.J.m.j.m.M.m.f.8.j.b.M.N.H.x.H.^.!.L.R./.4XR.E.4XE.l.Y.R.E.R.H.L.H.R.R.4X^.D.D.R.D.D.l.l.S.D.R.!.R.R.R.S.h.Y.R.J.OXi.Z 7 q  . XJ.J.=Xx.m.m.m.z.g.<.<.2.g.l.c.L.R.R.K.G.K.K.K.K.!.^.^.R.R.K.K.^.0X0X6X6X^.!.(.(.~.!.^.(.P.(.lX(.(.lX).(.(.zXzX6X0X0X~.^.R.L.z.8.q.6.Y ",
"Y.H.h.f.H.H.D.D.c.R.6XzX(.!.).zX(.(.P.G.G.F.P.P.).^.K.K.R.K.L.R.0XwXE.K.0XcX0X6X^.6X6X/.E.W.=X=Xm.f.f.m.J.J.L.S.R.m.z.m.M.m.f.7.k.h.d.h.D.R.H.D.l.K.R.F.L.^.K.f.N k 6.v.J.<.R.7XR.4X4XR.4X0X).).!._._.!._.)._.F.G.F.K.R.H.x.g.1.<.l.^.7X^.^.!.G.l.<.<.2.8XeX-Xh.H.H.E.4X0X/.R.R.S.~.0X0X(.!.).zXJXvXbX`.zXbXzX!._.).)._.~.(.).6X7X^.!.K.K.K.K.F.F.F.F.!.(.(.~.R.D.c.g.2.l.D.R.!.K.^.6X6X)./.6XzXG.R.R.l.l.!.6X^.!.(.~.F.F.F.R.lXzXbXvXzXU.F.!.!.hX!.R.R.J.b.X.N h M K A  .i.i.9.j.m.M.M.N.J.T.N.E.J.J.M.J.T.=X-X-X9X9XT.j.j.M.J.M.=X8X=XH.k.k.M.Y.E.R.L.H.H.R.4X4X4X4XK.M.N...l - > q {.b.E.R.R.^.^.^.7X6X(.).6X!.).xXxX).).xXvXlXxXvXxX6X^.!.^.!.^.).).(.^._.!.0XR.R.G.F.R.G.D.S.l.D.~.R.l.l.R.K.F.!.lXbXbXkX)._._.).0X6XqX7Xv.~ t @ # x ..T :.,.7.k.j.2.d.H.T.M.j.j.j.j.j.M.T.8.7.f.j.D.K.E.E.R.^.E.R.R.H.c.g.E.H.H.H.R.E.R.R./.H.D.E.E.D.S.K.K.R.^.K.K.P.P.K.D.h.1.c.E.4X&Xt.v 8 z } a.C.L.L.z.-XJ.7.7.<.1.x.D.D.D.D.D.^././.K.F.!.^.R.!.^.K./.^.R.K.^.6X6X6XhX).(._._.!.I.]._.hXhX(._.(.).(.(.(.hXlXzX).^.!.!.D.z.z.f.9.4.R ",
"z.z.d.f.H.R.K.E.D.D.D.F.!.).lXzXzX(.I.F.P.P.K.P.!.!.K.K.^.R.R./.cXcX0X/.xXcXzXcX0XxXwX8X4X8X8X=Xm.m.f.f.z.z.S.z.J.m.z.m.m.7.5.j.h.h.z.c.c.D.H.R.H.H.S.G.^.mXLXLXR N X.N.SXMXnXH.g.<.f.k.x.L.W.K.(.P.P._.!.G.G.!.!.F.l.l.x.k.7.,.<.g.^.xXqX7XF.2.2.<.3.l.Y.h.k.Y.D.6XcX7X!.(.6X).cXbX).F.F._.zXzXxXJXHXbX!.P.).bXHXxX^.).xXvX).K.^.lX6XS.g.P.lXzXzX6X^.K.F.R.!.!.H.x.l.l.c.D.K.R.).7X6X/.K.G.g.g.G.S.S.D.F.F.!.(.vXcX^.F.~.).zXbX).).).(.!.~.`._.].F.F.H.N.b.+.N h M K J { %.t.9.j.m.J.Y.T.Q.T.m.M.N.J.T.T.J.J.J.J.T.T.M.j.j.M.M.Y.E.Y.Y.Q.=XQ.J.Y.Y.Y.Q.W.W.W.E.T.M.c.l.z.B.} b - > 0 {.B.=XR.E.^.^.^.P.^.7X6X7X6X!.R.R.R.).0X6XzXxXxXzX/.!.R.R.D.D.D.K.^.6XzXbXzX).bX0X`.`.D.F.U.R.R.~.R.R.R.R./.).).~.].].hXbXhX(.).6X7X7X7XJ.P t @ # x %.u.Y.=XQ.J.k.z.K.W.J.=XY.J.k.j.w.j.N.M.M.N.Y.E.W.W.E.^.R.L.c.c.H.L.L.z.m.H.H.S.x.D.K.c.c.S.S.D.D.L.L.G.D.L.L.K.K.K.L.d.h.z.K.E.E.;Xa.Z 7 y ' .X%XD.<.f.T.J.j.H.Y.Y.8X'./.^.R.!.^.^./.^.K.!.^.R.!.^.R.R.K.R.^.6X6X6X).hXhXhXzXzXhXhXhXjXhXhX_._.(.).(._._._.(.(.(.(.~.R.D.x.k.8.9.4.R ",
"x.x.l.g.c.c.l.c.D.S.F.K.~.(.(.~.).K.F.!.!.K.!.).6X6X).^./.!.R./.4X0X6X/./.^.^.0X/././.E.T.W.T.M.J.J.z.<.<.z.J.E.L.z.f.j.7.,.1.M.z.l.h.z.H.R.K.H.D.D.H.E.6XxX6XQ.+.D X.q.>X9X9XM.M.R ,.f.,.7.R.H.R.F.F.!.F.g.G.!.!.!././.R.z.1.:.z.G.^.xXzX6X(.!.G.F.).).R.<.1.c.R.).).!.P.(.(.!.!.hXkX_.jXkXhXI._.zXJXJXNXvXHXHXJXxX).).).!.F.F.G.!.).!.F.F.K.K.).6X).K.F.U.F.D.Y.x.x.H.H.D.F.R.G.F.K.K.K.D.S.G.6XR.F.F.F.F._.bX_._._.hXvXbXkXhXvXzXzX0X).`.).F.U.U.R.Y.Y.C.0.B z M K J W ! X.4.8.k.J.Y.W.=XQ.J.T.T.T.T.Y.T.Q.=X;X-X&XQ.Q.&X&XQ.&XT.M.N.W.5X=XY.9XQ.J.Y.W.8X8X-XT.k.D.L.T.p.' y - > f {.N.=XQ.R.^.7XW.L.P.6XwX7X4XR.R.^.6X0X0XE.^.!.F.S.l.c.H.E.4XW.R.R.^./.).(.bXzXzX).~.~.!.(.!.(.(.R.!.).`.!.D.^.0X6X~.U.U.!.~.!.6XwX8X4X=XN.P w % + p @.N.9X9X=XN.h.g.L.L.l.M.M.j.7.7.7.j.b.7.w.k.J.Y.E.Y.H.D.R.4X8X8X=XM.f.h.j.x.x.z.l.x.S.g.c.c.h.g.H.H.D.z.S.D.D.D.L.D.S.g.c.D.K.L.L.%X|.A 7 0 [ .X;X4Xg.z.L.H.x./.4X/.0XbX`.).).).(.).6X).!.~.!.K.R.^.!./.!.R.(.).(.(.).^.(.hXbXbXzXhXzXhXhX_._._.(.(._.).(.!.!.!.R.R.R.R.D.k.k.8.9.4.R ",
"d.h.h.d.l.l.l.D.2.l.F.F.F.G.F.F.F.F.K.!.K.F.!.6X^./.^.R.K.S.S.K.0X0X4X4X/.H.R./././.E.H.M.N.M.j.J.L.H.k.x.L.E.^.L.z.g.7.,.,.7.j.x.c.z.D.R.R.K.D.R.D.D.K.E././.=X_ D ` X.q.j.5X9XY.7.7.j.,.1.k.c.D.R.^.^.!.^.(.(.!.R.H.z.1.1.7.z.F.G.F.!.P.F.!.).zXbXbX).(.).qXbX0X_.!.).hX)._._._.kXbXjX_.jXjX_._.hXkXzXNXHXvXkX`.).hX(.F.3.G.^.zXK.G.K.R.F.F.!.F.!.!.R.U.R.R.D.Y.x.c.Y.Y.S.F.R.F.F.K.K.R.R.R.K.F.!.).kX)._.].F.I.!.!.!._._._.kXhX(.).xXbXbX`.U.!.~.).R.T.OXt.B k x K Q W U +.q.v.J.Y.J.J.Y.W.=XQ.=X=XT.Y.T.=X5X=X=XQ.Q.&X&XQ.T.T.C.Z.N.T.Q.&X&X9XQ.N.N.&X>X,X-XQ.T.W.4X=Xn.Q 8 > > l {.n.N.Y.L.R.R.H.x.H.W.W.L.H.D.R./.E.R.R.H.D.R././.E.Y.Y.Y.E.E.E.W.4X4X/.!.!.(.zXbXxXlX_.!.!.(._.F.!.lXhX!.R.E.^.!.(.).).~.R.R.8XqX8X9X&Xu.~ 0 > @ u @.b.9X9X=XY.L.D.K.R.L.W.W.Y.j.7.w.w.7.7.w.j.N.Y.Y.Y.H.R.W.W.Q.E.T.N.j.j.j.j.j.M.M.x.j.z.D.x.h.h.x.x.g.g.z.S.H.L.L.L.x.L.H.S.G.G.m.%Xs.' 0 h ' O.b.J.g.g.L.L.L.^./.^.^.`.~.!.).).~.(.6X).^.^.R.K.R.^.!.6X(./.zXxX6X).0X^.^.).xXbXbXbXzXzXhXhX(.).hX).).).(.!.P.U.U.F.D.Y.x.k.j.8.8.4.R ",
"c.D.D.c.D.c.l.D.S.D.U.F.G.G.!.).K.!.!.K.K.^.^.!.F.!.R.R.R.K.K.6X0X4X/.4XE.Y.R.E.E.W.Q.j.7.7.7.7.j.g.H.4X4XK.c.l.R.H.h.1.7.j.k.j.d.D.E.E.D.l.x.R.H.c.l.z.S.L.7X9X..B I +.5.R 8.j.;X&Xj.,.R <.h.Y.z.D.H.R.E./.E.H.K.c.g.d.z.H.Y.R.R.G.G.^.~.P.F.F._.).`.0XzXcX8X^.~.!.(.)._.F.!.kXNXvXbXkXhX_.jXkX_.kXkX!.].kXbXkXhX~.~.).).~.~.).).F.[.F.!.U.F.R.F.F.U.F.D.R././.D.c.c.D.D.l.S.R.!.R.K.K.R.E.E.E.!.~.~.!.F.F.!.).(.`.)._._._.!._.).!.~.).~.~.!.F.!.~./.R.Z.C.+.N y z Z ' ] | u.OXT.=X=XL.x.m.Y.Q.J.Y.=X=X=XQ.Y.Y.J.Y.Y.T.Y.Y.M.M.Z.Z.Z.C.T.Q.;X>XT.T.Q.&X,X&XZ.k.Z.C.T.M.j.u.[ p # > v }.n.v.N.Y.W.Y.Y.E.W.W.Y.Y.R.H.Y.E.H.H.W./.8XwXcX0XW.Y.E.=XQ.E.Q.E.E.E.E.E.G.F.!.).6X(.^.P.~.!.!.!.(.).).^.6X/.W.^.0XbXzX)./.8X4XE.T.9X;Xt.P w % @ p &.N.4X5XH.Y.4X6X/.7X4XE./.E.H.x.k.k.h.j.j.j.j.k.k.j.h.M.j.7.,.1.w.M.N.k.j.j.j.M.M.k.j.T.Y.x.x.M.x.h.7.d.j.x.x.H.Y.Y.H.E.E.K.S.G.m.C.t.W q y J  .v.E.L.l.L.R.R.^.(.!.~.~.U.F.!.~.P.!.(./.R.R.R.R.R./.^.R.R.).DXHXcXzXzX0X0XzXvXvXvXvXNXNXbXbXzXzXbXzXzX(.!.].!.~.).!.D.H.x.M.j.8.8.+.T ",
"W.8X8XW.R.D.c.D.!.R.!.!.~.~.~.^.!.!.K.K.).cXzXK.!.)./.).6X/.).cX/.R.R.E.R.R.R.H.H.Y.x.1.,.R ,.,.7.<.g.W.4XL.c.D.K.D.h.d.h.M.x.h.d.D.R.R.D.l.l.D.z.S.H.H.S.z.S.M.s.A U O.X.E ) 5.Z.>X;XC.Y.j.1.h.M.h.j.Y.Y.c.l.S.c.H.E.4X4X4X/.W./.S.l.R.6X6X).R.R.F.R.8X^.D.3.l.!.^.!.K.K.(.).).zXkXkXNXJXbXhX_._.bXbX_._.kXbXkX!.P.!.zXvXxXhX).G.P.!.F.F.U.F.3.G.F.F.D.U.U.U.R.Y.D.D.Y.R.F.U.!.!.R.K.K.R.^.4X8X!.R.).cXcX^.R.8X!.^.~.(.zX).U.F.zX(.~.].G.G.G.F._.~.).R.Z.Z.+.k y z Z J W ] 6.v.j.N.T.L.H.H.R.W.=X=X=X=XQ.Y.Y.J.J.Y.T.E.T.Y.Y.Q.&XC.C.T.-X-XW.Q.T.Q.&XQ.C.b.w.w.5.j.H.j.7.u.{ y # - z s.i.q.Z.Y.-XQ.Q.-X5X=XE.E.4XY.R./././.8X8X4X0X8XW.H.H.Y.W.qXeX4XE.H.H.H.L.K.R.D.L.K.K././.).^.R./.0X6X).6X6X4X8X8X0X).).).'.0X8XT.Y.>X&X6.W w % + M .XC.4XW.l.x.8XvXzX4XE.S.D.H.R.R.E.Y.H.k.j.h.7.7.7.7.7.7.7.7.9.7.w.w.8.w.j.b.j.8.7.w.k.W.c.h.Y.Y.z.h.h.x.H.M.k.k.M.M.k.H.^./.^.D.m. Xt.A 0 0 A s.:X=XL.S.L.^.^.!.!.!.!.R.F.F.R.!.!.!.(.W.Q.Q.R.Y.R.^.^.^.R.R.!.(.~.).0X0X8X0XzXxXxXbXvXNXbXzXzXzXlXlXzXzX).(.).zX`.~.U.D.x.M.j.8.6.4.Y ",
"D.E.W.W./.R.R.R.F.F.F.!.~.!.F.G.!.K.K.R.6XxX6XR.F.K.K.K.K.D.D.!.^.H.R.E.E.4X4XR.H.R.H.l.d.h.h.d.h.d.l.H.R.H.H.E.H.c.l.c.D.c.x.D.z.c.D.H.Y.H.c.l.D.L.L.x.z.H.K.T.t.A I O.+.5.C.>XtX-XC.N.k.k.R.4XY.M.N.Y.M.h.x./.R./.4XR.c.l.D.E.H.l.g.c.c.L.E.E.4XE.c.Y.h.h.x.0X/.E.R.R./.cXcX0X`.(.~.(.).zXzXbXbXkXkXkXkXhX].G.I.!.hXzXlXhX).(.hXbXkXU.G.!._.!.F.G.F.].].G.G.G.R.U.R.R.~.~.~.!.`.).^.R.K.R.R.E.cX8XW./.8X/./.wXR.Y.c.h.S.R.R.8X).].].].F.]._.kX)._.).W.Y.b.+.B y z Z H W ! T T 4.f.m.H.H.R.W.=X9X5XE.Y.T.Q.Q.Q.H.M.M.M.M.H.Q.W.9X&XQ.W.-XT.M.j.Y.Y.Y.M.j.w.q.w.w.j.x.x.j.u.W y > - h %.i.8.N.M.M.M.M.x.M.H.H.D.R.c.H././.^.^.!.D.R./.0X8XW.Y.S./.W.R.R.R.R.^./.E.8X4XwX0XW.0X/.4X/.E./.8X4X0XwXmX0X~.!.R.U.).vX)./.8X4XT.T.N.8.! q > # m oX-X0X0XW.4XcXvXvXzX!.).(.(.).4XE.H.D./.R.M.k.j.j.j.j.j.j.w.8.q.q.j.w.w.k.M.j.1.<.w.M.Q.c.z.D.H.z.c.Y.W.Q.Y.k.j.j.j.j.x.R.E.P.S.m.N.o.S h 0 Z {.OX8.<.K.K.^./.E.R.R.R.R.R.R.R.!.~.(.^.E.Z.H.x.c.U.~.~.`.R.S.3.2.l.D.R.R.R.!.^.).).hXlXkXhXhXhXhX_.jXhXxXzXzXzXkX_.U.F.D.x.k.j.8.8.4.Y ",
"x.R.R.R.R.D.l.l.S.D.U.R.!.(.).6X^.^./.).^.K.F.K.S.G.S.S.G.G.l.D.l.3.G.F.F.^./.D.S.D.D.S.D.R.R.D.g.x.Y.R.H.x.c.c.D.c.c.W.R.c.c.W.h.c.R.E.Y.H.D.D.c.D.c.h.g.x.S.v.%.S N U ) 6.j.7.,.R M.SXiX4XR.d.1.j.k.7.R <.x.4XE.E.E.R.D.c.l.d.x.H.Q.Y.7.<.k.Y.H.W.Y.Y.d.h.1.d.l.g.c.E.^.R.!.0X~.`.`.~.!._.zXbXkX_.jXbXbX_._.bXjXhXhXhXhXhXhX_._._._._._._._.!.`.U.G.U.U.G.G.R.F.F.F.U.!.!.!.F.!.!.K.F.F.F.R.R.R./.W.R.W./.Q.h.h.D.D.c.x.D.R.8X`._._.).!.]._.hXkX_.(.W.Z.q._ N 0 z Z J '  .| T 8.f.j.z.M.Y.Q.Q.Q.T.J.T.=X=XE.J.T.M.j.k.k.M.Y.W.T.T.Q.W.T.M.j.j.h.j.M.N.M.j.w.w.Z.j.h.g.f.6.' x 4 - h @.i.8.b.8.k.H.M.h.h.H.R.H.E.K.R.^.R.R.).zXzX(.D.l.l.F.F.F.U.D.F.F.R.!.R.R.W.9XQ.E.Y.k.8X0X4X4XW.E./.8X0XwXxX(.~.zXbXkX).zXkX!.^.E.x.j.M.N.! 0 - # Z +X9XDX6XxXDXcXhXzX6XR.!.F.K.^.(.R.D.D.8X4XY.k.h.7.7.,.,.9.w.j.b.n.k.w.b.b.k.j.7.7.j.x.Y.D.S.D.c.l.H./.^.E.Y.k.j.M.M.M.H.L.z.z.V.m.B.~ f h 0 Z oX*Xb.M.J.J.Q.4X4X4X4X4X4X4X/.R.R.R.R.Y.T.x.k.h.h.c.Y.R.R.R.F.l.3.l.l.l.F.F.K.~.(.).hXhXhXhXhXhXhX_._.hX_.).hX_._.F.G.G.F.D.x.j.8.q.6.Y ",
"x.H.D.Y.R.D.c.D.D.S.S.D.F.S.F.!.R./.xXcX0XE.K.H.D.S.K.K.g.2.L.6X!.K.F.F.F.F.F.D.R.F.D.K.^.(.^.R.K.D.D.R.R.D.l.c.D.l.R.R.~./.S.U.R.R.E.R.H.S.l.l.d.z.x.j.d.f.x.N.O.C D U T ) ,.R R R 7.k.H.H.D.D.,.,.R E R 7.k.l.1.d.g.d.2.g.z.z.S.z.x.x.d.d.l.l.L.E.R.x.x.E./.E.R.7X^.K.K.!.^.7X(.!.!.(.)._.!._.hX!._.kXhX).bXvXbXbXzXhXhXhXhXhXkXkXzXhX_.P.F.F.F.!._.U.F.U.U.U.U.F.U.U.!._.!.!.!.(.!.F.S.K.R.K.!.D.c.D.Y.H.x.j.d.h.c.l.3.D.R.R.(.(.).kXkXhXhXkXhX_.zX0Xk.q.+.D h p b J ' [ o.6.u.9.7.m.N.Y.Q.Q.Y.&X&XT.T.=XQ.M.Y.k.j.M.Y.N.Y.Q.M.Y.Y.Y.Y.Y.R.E.E.E.H.k.N.Q.Q.M.w.M.H.m.J.n.[ l - > z @.n.q.9.8.j.l.l.l.c.x.S.S.K.R.!.!.!.!.~.(.bX).!.!.P.F.!.(.(.(.F.F.lXzX!.!./.R.U.R./.^./.wXR.R.W.'.'.W./.8X!.).hX).).).hX_._.!.F.K.c.l.R.N.^ w - 4 } 3X9XHXcXxXwXxXzX_.F.K.).!.!.).6X^.R.E.4XE.M.m.f.9.) ) ) 5.q.v.v.q.8.5.N.M.k.j.h.h.k.Y.R.R.R.D.H.R.R.R.R.R.z.7.M.M.j.Z.H.H.J.J.N.v.6.W c 0 0 A }.|.B.b.&XT.T.%X;X;X-X&XT.&XZ.k.T.-XW.T.x.,.R ,.,.h.D.l.S.S.D.D.U.R.^./.0X6X).^.!.P._.jX_._.jXhXjXhXlXhXkX_._._._._.!.!.D.S.x.j.8.9.+.T ",
"h.h.h.l.c.h.h.c.c.R.W.H.S.D.R.^.R.E.^.K.K.^.R.S.D.D.L.D.D.^.6X!.^.F.G.G.F.K.F.G.F.G.G.F.!.~.!.R././.E.D.S.H.D.c.D.c.D.G.R.0X0XzXqXcXqXR.c.D.D.c.l.x.x.k.z.m.H.n.%.B N O.5.R :.:.,.k.M.9.:.g.L.H.j.5.R R ,.7.7.<.<.9.<.<.d.z.z.z.S.S.L.S.g.f.H.L.L.R.L.H.H./.6X4XxXmXlX^.P.P.K.P.(._.(.).hXhX).)._.(._.!.(.vXvX!.!.(.)._._.).).).).~.~.~.!.F.F.G.F.U.U.F.F.G.F.D.U.F.U.F.].].!._.!.!.!.R.R.K.S.l.F.F.F.D.F.K.D.c.l.E :./.xXR.F.R.K.F.K.~.(.!.].].].kXvX^.7.N.n.P h x H J '  .#.6.q.4.9.8.j.N.=X=XJ.T.Q.T.J.T.J.M.M.M.Q.9XeXT.k.j.Y.Y.Y.Y.E.E.W./.E.E.Y.M.M.T.T.b.k.M.M.M.T.|...x 4 > 0 I o.4.9.j.j.j.f.z.M.H.H.H./.^.!.!.!.(.(.).).(.~._.(._._.(._.hXhXlXvXvXbXJX0XcXDXDXcX).~.0XcX/.^.qXJXvXbXzX).^.!.!.hXbXkX_.(.(.!.!.S.l.Y.N.! 0 > > K +X5XnXHX0XK.K.!.(.).0X!.!.!.(.).^./.6X=X=XT.8.8.6.5.T X.T X.6.6.T ) 8.9.7.7.j.M.J.M.z.R.R.R.K.R.R.!.R.c.D.z.h.k.q.9.8.m.v.v.B.v.u.#.W v h q Z &.{.n.n.i.i.u.6.X.X.5.q.6.u.6.5.q.b.k.q._ ) 7.h.1.h.H.D.D.R./.4X'./.E.R.).).).^.!.!._.jXkXjXhXhXjXjXjX_.I.I.]._.hXhX_.!.R.S.z.j.8.8.6.T ",
"h.h.h.h.x.k.z.D.d.H.R.l.l.H.R.c.D.H.H.H.H.R.D.g.H.D.L.H.R.6X6XK.G.F.^.).^.F.G.G.S.G.G.F.R.~.~.!.^.7X6X/.E.K.c.l.U.8X8XR.D.R.).(.R.K.R./.R.l.g.D.g.g.f.7.f.j.f.9. .j N O.6.4.5.f.9.m.M.8.j.=X4XR.-XN.j.v.N.v.8.4.R R R ,.j.J.T.J.S.S.L.S.g.z.E.7X7XE.J.K.K.K.^.^.^.(.K.F.P.^.(.lX(.(.(.(.jXhXhXhX!././.K.R.cXzXS.G.L.!.!.^.^./.^.^.K.D.F.L.D.G.l.S.S.D.D.D.D.R.!.!.!.!.!.P.!.(.6X^.K.D.H.R.L.H.L.G.I.P.F.F.!.!.K./.D.R.zXzX(.hXxX0X/.R.R.!.~.(.hXhXI.!.R.f.5.| D h m J J W [ O.o.O.6.u.b.b.N.T.M.M.T.T.N.M.N.J.N.&XT.N.Z.N.N.T.;XT.J.Y.L.R.E.E.W.R.R.T.N.Z.T.C.N.Z.b.k.M.J.a.Q a > # 8 H O.6.6.q.8.8.8.j.v.M.m.z.L.S.x.S.K./.0XzX^.).).(.).(.(.P.P.(.lXlXbXxXxXmXzXzX).).`._.~.`.bXzX`.0X`.!.].!.^.^.^.!.!.^.(.(.R.!.R.L.z.d.H.B.~ w > # y s.%XW.5XL.j.l.D.L.K.R.R.^.^.^.R.R.W.-XJ.v.b.X.6.T | U U ! | O.| Y E E j.j.j.j.M.E.E.Y.S.D.D.D.F.K.K.H.D.H.f.7.8.6.9.q.q.6.6.6.6.#.@.W G z y V *.}.t.#. .] U S N D Y | Y T U Y T _ _ ) _ 9.M.N.j.x.H.c.c.H./.0X8X4XE.R.R.!.!.K.F.F.F.I.I.I.jXbXzXzXlX_.hX_.!.!._.!.].F.^.S.h.7.9.6.X.Y ",
"j.k.j.j.M.M.x.H.k.H.x.z.L.4XW.l.c.l.D.R.L.2.<.l.D.l.D.E.R.H.K.R.G.!.zXzX(.F.l.D.S.S.G.S.F.R.!.!.K.F.^.cX0XD.g.c.D.0X/.).(.~.bX`.).(.0XmX0Xc.2.l.z.z.j.j.j.j.f.) I j N ! X.8.v.f.M.N.N.N.-X5X=XM.B.8.4.5.6.o.T E T T T 5.v.OX%X Xm.V.m.V.f.v.%X&X=XJ.M.H.H.z.S.L.E.J.S.g.L.P.K.^.(.(.(.^.^.6X6X/.R.Y.W.E.M.x.M.k.H.L.R.E.R.R.J.J.H.m.z.z.k.l.l.l.x.z.x.H.L.L.Y.W.R.R.!.R.R.^./.6XxXE.D.H.M.j.7.g.K.!.!.L.R./.4XE.D.8XDXqX^.).).S.R.J.H.x.D.L.R.!.F.!.!.z.v.:Xa.C h Z J H A W ] ^ X.6.i.B.v.v.v.4.B.N.T.N.M.M.N.N.N.M.M.N.N.N.N.N.M.M.M.M.m.M.L.R.R.Q.Q.Q.T.%XC.C.n.u.q.v.v. .V e + + 4 G @.#.#.O.t.6.6.e.u.n.b.v.b.v.j.M.J.Q.=X4XE.7X6X7X7X6X6X^.^./.(.7XxXxX6X7XzX(.F.G.F.F.F.R.~.(.8X8X/.^./.0XJ.Q.=XR.L.H.R.E.R.E.Y.Y.m.V.J.|.W 7 > + 1 ' B.M.N.N.T.T.J.k.j.k.J.E.E.L.M.M.M.v.N.X.O.| t.A ' @.@.%.#.P Y O.e.4.6.j.j.7.7.j.J.Y.H.H.K.K.K.K.R.L.L.m.7.,.X.X.X.O.T T X.| ! ! Q G b y 8 b *.$.] I ' A B j B A I ~ C Y P D Y Y Y U q.j.M.M.M.J.D.d.2.h.x.H.J.Y.T.Y.H.R.^.^.!.!.!._._._.hXlX(.(.^.K.(.P.F.F.!.!.~.(.8XY.M.q.6.o.! D ",
"j.j.f.7.j.j.j.k.M.M.m.H.W.5XW.H.L.z.z.x.l.<.g.L.S.l.S.R.L.S.H.R.(.R.D.D.D.S.D.H.c.c.c.c.c.S.F.F.!.S.F.^.E.S.D./.8X8XF.(.0X).vXxX6XmXvX^.D.H.H.g.z.k.k.j.j.j.7.X.W c B ! ^ 5.8.4.8.8.r.u.v.B.%X:Xn.|.n.u.t.s.e.| ! |  .o.#.e.#.O.e.o.o.o.X.o.e.6.O.X.X.6.6.5.6.r.N.B.V.8.m.N.N.J.%X&X=XJ.H.T.T.N.%XZ.OX*Xb.8.v.C.b.b.N.N.N.N.N.N.v.u.u.u.8.8.8.j.M.v.j.v.v.j.m.M.Y.Y.Y.R.E.^.^.W.Q.M.k.T.T.v.9.9.M.K.R.J.&X9X;XN.;XN.8.,.7.Y.=XM.R 4.v.C.T.J.H.D.!.7X^.z.u.XXt.B c b K Q H S P ~ | o.6.6.6.t.i.8.b.N.N.N.B.B.N.N.N.B.N.C.T.N.w.9.v.M.N.M.j.f.x.J.H.Y.T.C.C.C.n.n.s.t.t.e.O.W p 5 + . @ e G Q ' ' [ ' ] [ @.%.t.t.|.|.OXOXOXN.N.C.j.M.H.H.J.7X7XE.E.J.E.7X-X-X-XT.L.E.E.R.R.L.Y.=X5XQ.T.%X;X;X&X%XN.n.v.b.C.%XT.N.%X%XN.N.v.r.n.t.H ; @ * > b O.q.n.N.A.C.n.v.u.u.v.N.N.M.b.N.u.o.#.Y A B Q h G K q v V B I y.a.O.+.q.B.v.j.M.N.M.L.L.L.L.H.H.H.H.m.8.9.X.X.^ Y D P U | ] A V b l p 9 9 F } W S W J Z v v V A A A P ! ! U ! ] ] +.v.b.j.k.J.Y.x.d.d.g.g.d.7.f.j.M.m.L.R.E.E.^.^./.(.^.^.K.z.S.E.^.K.L.K.^./.^.R.R.E.M.v.8.| U A c ",
"8.j.j.7.j.f.f.j.k.m.M.J.J.M.M.Y.E.E.Y.H.L.W.W.R.K.H.H.D.S.K.K.l.R.D.x.c.z.z.x.H.z.k.x.c.c.c.S.G.F.P.K.S.D.E././.8XqX0XzX(.F.!.(.^.).^.G.g.c.D.l.d.j.j.j.j.j.8.5.' f j ..e.e.e.e.T ^ ^ ^ 6.|.OX|.e.a.s.#. .$.@.~ W ~ [ ' W W A S W V B V v v v h k h k B B B C A P P P U o.#.#.t.e.e.e.O.o.o.O.o.| | X.X.U _ X.T X.+.O.6.6.6.6.u.e.e.e.e.6.o.6.u.u.i.u.q.q.v.B.N.C.T.Y.Q.=X=XQ.T.M.v.v.N.N.u.6.6.9.q.b.n.OX@Xa.O.] P Y U 6.n.u.T Y X.i.OX&X;X5X5X4XW.J.v.o.P B c b G Q [ Q A P ~ ! ^ O.t.u.n.OXA.N.N. XN.N.N.N.N.%XN.b.B.b.n.b.b.b.N.C.N.v.j.m.N.M.M.N.b.u.0.+.......O. .~ b e 6 o   + 3 l b v z l y y h z Z A H [ ..%.{.{.a.a.XXn.B.N.N.N.%X%XJ.=X&X5X;XC.N.OXN.v.b.B.B.C.N.n.n.n.i.t.6.o.| U U ]  .O.O.t.a.n.n.OXn.u.p.#. . .W v - . o % u I | e.O.O.t.i.i.t.t.i.N.n.n.n.p.#.! A B v w p 3 i e 8 q z K *.{.oXXX@Xn.b.N.T.&XT.N.J.H.J.L.L.J.J.J.m.6.4.X.| | [ W  ...%.@.J G b p e p l F G h j H l x m Z V Z H Q ~ [ [ [ O.O.O.t.q.N.T.Q.=XJ.l.z.l.l.j.d.7.7.8.j.m.M.J.H.x.z.z.z.S.S.L.L.x.M.Q.=X=XR.K.R.E.R.H.M.M.q.q.6.~ S V v ",
"5.v.v.8.8.8.f.v.j.m.N.N.m.8.j.J.m.Y.Y.H.Y.4XW.D.R.H.H.S.S.R.R.l.c.x.Y.T.M.j.j.j.j.k.k.x.x.x.D.L.G.P.^.L.K.7X7XK.l.K.zX0X!.!.!.hXvX).R.R.D.2.<.d.z.k.k.k.m.M.M.u.W w f ~ #.e.p.u.o.! P U o.#.^ D P ~ ~ P A A A Z V Z Z b c l l l q 2 3 3 > > > # > > 4 4 4 4 1 1 q q 8 q z l l z v v v v v k v V I I U U U ] ] P S S Y P P C Y P P P P W ~ U ~ ^ Y | X.T ^ 6.i.i.q.q.v.v.v.v.q.8.N.i.t.O.| P Y P P P ] [ } ' K v y y y 0 0 V I C A I ! | +.u.N.N.:.k.j.^ | $.[ V H J } } } ' W W P Y | t.i.XXXX|.B.B.n.N.B.B.v.v.6.u.B.N.C.N.N.N.n.n.N.N.b.B.b.N.B.v.u.0.o.U P C v V B B c r < $     o , e u 8 1 # @ # # - > 1 8 q 0 h Z H Q ] ..y.t.s.n.n.n.B.B. XB.OX|.e.6.e.O.#. .P P W W B j c V Z b h f l b 0 v Z Z B S ! ..O.O. . .W A H v 9 #   o * 3 B S I I W ] ..O...[ O.O.O.o.| ! I S V b x 9 5 s s 6 a 3 1 7 l J &.oXXXe.X.6.v.v.q.8.v.v.M.T.=X=X%X%XN.8.6. .I W } [ [ [ } [ K G x p p x x b b l h c 8 p z b b V H Q H W W W  . ...t.6.B.N.E.-XH.g.S.S.m.z.f.7.5.8.q.M.N.J.N.k.j.f.f.z.j.k.m.j.8.8.7.v.f.f.z.M.Y.T.%XM.q.6.O.W Z G G ",
"^ O.O.o.| | o.6.o.o.o.X.^ T ^ ^ 4.9.9.4.) ) 9.j.8.9.8.M.M.m.J.%XC.b.q.u.n.i.6.X.+.6.u.u.u.v.b.M.H.J.L.J.T.Q.Y.M.Y.M.R.x.R.cX6X7X4XW.H.l.f.f.f.7.j.q.8.6.8.u.q.O.G 1 ; l H [ &.@.W j f A A j f j f 0 0 g h q q p p p 9 4 > > > > % + % & % & & & & & , % > , > > # > - > 3 < > 3 4 > 1 4 4 1 4 i u y h v z h l y l h l l h 0 0 0 q w w q h h h h 0 j B f k S W W Y P I Y S C C C N C I H Z c h h h y y u 9 4 > > > # > 3 4 4 y z z l h k B A P C Y E D | y.$.W Z H } *.@.@.@. .I S N N P W [ @.%.#.#.#.#.#.O. . .| #.a.}.s.y.y.a.}.y.y.y.a.a.y.t.y.y.#.@.W B k 8 - > ; ; ; : $         . @ > > > # % % # @ @ # # > # # - 1 1 1 8 q 0 h Z H A B V S g j c h c v q ; 8 8 8 q 8 4 3 2 4 > # # # @ @ > > - - 1 7 w w 0 y y l 8 1 9 1 @ &     + < y h 0 q 0 8 7 0 h v v v v c h q y p p 9 3 5 6 & * & . @ > - 2 x K Q W P P  .#. .! ! P Y ^ 6.u.e.e.t.y.#.$.[ v h z h v v z x l a i > 9 a a p G J v w u q 8 q l b b v c V B B A A A ! U T ^ 8. Xv.8.B.N.N.v.6.X.X.o.6.+.O.6.6.6.6.6.6.+.T Y Y Y | O.o.o.+.6.u.n.i.u.6.o.! P Z h 8 r p ",
"x x x z b b x b x b b b b x x z c C C C S W ~ W ! ! ! ^  . . . .' ] Q ' J Z c j V A H W W  .@...t.s.i.y.t.y.i.s.e.O.O.O.6.6.t.0.u.B.n.n.r.6.6.e.e.O.o.#.#... .' > @ @ , i d a a 3 2 > # # # # # # # # # # # % $ @ @ % % % % % & $ $ % & , , , , , , & & , , , , , , , , , , , , # > % # # % > # % % % % % % % % % % % % % % % % % # # @ # # # # > > > > > > > - - - - - # # # # > > > # @ @ $ & , > % % + + + & $ + + $ % $ % % < < , < 3 q q q b V Z H H V V Z W y.y.s..X{.y. .I j k k h h y u y p z M M M x x x p l F G l q p p n n n n n l p L L F L p 8 1 % X X X X . .         o X + # & , % % + @ @ + + + + + X + + X X + . + $ $ $ + + O O O O O O O . . + + O . . X . . . X + .   . X . X . . X + $ + . + + X X X X X X X o o X * 6 5 3 , > # # # # + + @ @ + @ + + + + $ $ + X X . .   . . . . O @ > 2 - 1 w q r e 5 < 2 2 8 8 q q h y 8 p i 9 4 4 > - > < 3 < , < 3 2 4 3 9 p z x z l y p q q q p p 8 0 p q 8 y b b l h c B Q @.} ' @.&.&.*.-.}.} Z Q V V Z Z Z b v z z Z x u z l y z Q Z H *.*.H V J v l q 3 4 > % # ",
"% , > > < 3 , 3 3 3 3 3 3 3 3 2 p q 7 7 7 w q l l l l l p r q q p 9 q i q 8 4 4 4 8 9 8 9 9 q 9 q l l h h c c c c j h k k j c c B A [ .. .! ~ ~ ~ H V V v h q 8 % + X + + @ + O # $ # + + + * * + @ @ @ + @ + + + + + + + @ % & $ # , 5 5 5 5 5 < 3 5 5 5 5 5 5 5 5 5 5 3 3 < < , , , , < < < < % % % % % % % + % & & & % * * % & & % % & & % % + + @ + # # # @ O O O + X X + * + + # + + o o o . X + + + + + + + + + $ & * & & & , , , < 3 3 9 7 9 q z z v Z W y.#X+X+X1X1X1X+X@.] Z k 7 4 u u 4 u u u u 4 4 3 3 3 > # @ - : : > : : : : , , : , 6 5 5 5 , # # X             . $ + . O , 5 i 5 i i 3 , > % % + % + X X X . X X X .           .                                   X o . . o o X X . X . X . .   X X X o X o X X       . + & < , % # # + + X X X X X X X X . o o       . . X X o $ + . . X @ # @ - - > : # O .   + $ % > > - > > % % % % % < < , , < 3 < < 3 5 3 3 9 p l x x x z b m m b x x x x x b b x x x p 4 8 q q l x l q l x b z b G l w p u u u q q 8 3 4 3 i 3 % < < > 3 8 8 q x x q 8 q 9 2 > # # # + + ",
"# # @ # # # # # # # # # # # # # > @ @ - > @ @ # # # # @ # # # # # # @ @ @ @ # # # # # @ @ @ # @ # - > - - - - - ; - - - - ; ; ; - ; 1 1 1 ; ; ; - - @ - - # @ @ + @ # # > > > > - - > # # @ # # # # # # - - - - > > 4 2 3 3 9 9 a p e 9 3 9 q 9 9 r p a p e i a e e i i i e 9 9 i e 9 9 3 1 > > 3 4 4 4 > > > > > , < , > > < < > > > > , > > > < < 4 < 3 3 9 9 2 2 , # @ @ # % % # # # # + X X % , , , , & & % , & > , < , , 3 , > < 2 4 3 9 q y h l l h j B W O.+X3XAXZXyX2X@X+X.X%.' v h u u 8 y y u y 8 8 8 1 8 q 8 8 8 9 ; 3 1 - - , 2 2 2 : 2 < 2 2 > - # # @ + O O O @ # @ @ - 1 p x l 8 q 8 7 1 1 4 4 2 4 > > > > % % # % % % # # @ @ @ O O O O O O O O O O O @ @ @ @ @ @ @ @ @ @ @ @ O O @ @ @ @ @ @ # @ @ + + + + + + + % % % > 3 i e 9 e 3 , % + + + X . . . . . . . . . . . . O O O O . . . @ # # @ - - - - # $ & & + + % > 4 3 u u i i 5 3 3 e 9 2 3 5 e 3 9 i p p p l b m G K K H b Z Z V b b Z F m x z x b b x z z x l y y 8 7 w w 9 w 8 y 9 7 8 1 1 1 1 1 1 1 > > < > # % # @ # - 4 4 4 1 4 1 - # @ @ + + X X X ",
"1 - ; 1 1 1 1 1 ; ; ; ; ; ; 1 1 @ O @ # > # # > 4 > > # # # - # % # + @ @ @ + + @ + X . . . X . . . O @ @ @ # # @ - - - - - - ; 1 1 - - - - ; 1 ; - - - > - - - - - - - ; 1 1 1 1 ; ; ; ; - > > 7 w 0 q y q q q q y y h y y h l l z l l z b b Z v b Z Z b b b b m m m m m M b b l l l l l z z l l l l h y y y y y y u u u u p l p p p p z z z p x z z h y q 0 w w w 9 2 3 8 9 9 u 9 8 3 < , & < < 3 3 3 3 3 < 2 e 9 9 9 q q q u p p z l z z v Z V A A W W ~ $.s.XXyXyXZXZXyXZXyX3XXXy.%.[ ' A m B B B B B B k f k f f h g w q z u q 9 9 2 2 2 e p r r q q q q w 7 1 7 7 w 0 q f f B H ~ ~ [ [ [ [ W P V v c h h h q q q y 9 8 7 1 1 7 7 1 ; - - 1 ; ; - - - - - - - - - - - - - - - - - ; 1 1 ; ; ; ; ; ; ; ; 1 7 1 1 1 > > > - # # - - 1 8 q y l p q 8 > - # # > % % % % % % % % # # # # # # # > , 3 s i a a p p q 4 2 , & & $ 6 < , < 9 i i i u u u i a a x n x x x z z b Z Z m Z J ' ' ' { ' Q W W W W J J J ' J Z m v y y z z m b y y q w q q q q w 0 q q q q q q y p p p p i i i 3 3 > > > > 3 3 > - > - # # # # + + + + X ",
"h 7 0 h f h v v v v v v v c c c V b v z v K ' } } } J Z v z l y i u u 3 , > % # % # + X + X X X . . . . + $ & < 3 e a x n l x m G G H G V c f 0 0 0 f g g l l l V V B S W ] ' W W W I W ' [ [ [ $.y.s.{..X{.{.s.s.y.#. . . . .@.[ @.$.@.} [ ~ ~ [ [ ~ W W W W W ' ' ' ' ' W W Q Q ' ' A A W W S A A S C C C C V C C B B j j j v v v v V Z Z B V Z A W W ] W W W W C B c v v h h h 0 0 q u 9 s i e i p i p z x z l l z z v v v B v V B Z S A W W W !  . . .#.a.XX2XZXVXZXKXVXKXKXyXN.0.i.i.s.a.oXXXXXA.s.t.O...!  .] ! ! A j j c z z b x l q r n b v z c V H ] [ [ [  .#.#.#.#.t.p.n.|.B.u.N.*X3X2X<X@XXXn.s.s.t.O.O... .[ [ ! W I S B j j c B B f f f f 0 f f f f j j c c c B B V B B A W ' { ' ~ W W W W W A S B B B j k h k f h h h k j B B A B V v h h y q w 1 1 1 1 1 1 1 - - - ; 1 1 4 4 4 w q l x x z z v Z l 8 8 3 , * * s 5 < 3 p z z z 9 y z M F F G G H H H Z Z H Q Q A W [ ..........O. . .[ ] ! W W W W ] ' Z h 0 h v Z m z z z z v v v v l h l z h Z Z Z J J K K K m b M x z p p p u i i i 9 4 4 4 , > > % % % & & ",
"oXs.}..X}.}.{.}.oXoXoXoXoXoX{.{.a..X{.a.{.+X1X#X+X#X+XoXXXoX{.&.' ' } ( m z u 4 9 4 > > , % % % & & $ $ , < 3 e a F K ' ' } } @.oXoXoX|.{.p.e.e.e.e.a.{.|.oXoXoXoXXX@X1X3XZXZXyX3X2X1X1X3X3X3X3X3XyXZXZXKXKXZXZXyXyXZXZXZXZXVXdXZXdX3XoXs.y.#.#.y.y.#.#.#.e.t.t.e.#.t.t.y.y.a.a..XXX.Xt.%.t.t.O.i.i.u.u.u.u.t.t.t.O.O.o.| | | | ] ] ] ]  ... .| t.s.|.OXOX@XOX@XOX|.t.#.O...] ! U I I H Z l i a l b G H H J Q Q H W W I ! ]  . .] ] ] ....#.%.t.y.a.a.i.i.n.XXOX2XVXVXKXKXtXtXiXSX;X;XtX2X*X3XZXCXZXKXyX>X1X2X2XOX1X1X@X{.a.O.~ W H J J Z v v Z Z C A W [ %.a.XX:XOX:X;X>X;X;XrX9X5X5X-X4X9XuXiXiXuXuXrXuXuXrXrX2X2X2X;X:XOXOXOX@XOX|.n.|.|.n.a.|.|.|.{.{.{.|.|.{.}.{.{.|.|.{.a.a.a.n.OX@X*X*X*XOXOX XOX*X+X@XXX:X@X@XXXXXn.n.a.s.s.a..X|.a.XXXXXXa.s.s.&.%...{ Z B v v V V v v v v v v V V V V j B H Q J H W ] W A V x a 5 & & % > 4 8 y h c c h v H ' Q Q W Q W ] ] ! ]  . .|  .O.t.s.t.t.t.t.6.O.X.o.O.o.| | ] ] | { S k k B H J A Z Z Z Z H H A H A V Z Z Z I W W ] ' W Q H Z v Z Z v v v x z p p x z p u p 3 3 4 > % % , < ",
"#X{.XX+Xa.s.a.e.t.p.|.XX@X@XXX XN.T.&X-X;X;X;X-X9XuXpXpXSXSXuX:Xa.XX+XoX{.y.@.[ A V c l l q 8 4 2 , , e p p z v H W ~ #.t.p.e.6.v.m.M.J.J.-X5XuXuXMXMXMXuXuX5X;XtXrXrXrX>X>X-X&XtXtXpXtXrX,X;X;X-X;X5X9X9X9X5X5X&X5XtXSXSXSXSXVXaXyX2XOXn.|.OX@XXX|.XXXXOXOX:X;X2X2X>X2X>X2X2XrX:XOXOX%X:X;X2XaXtXtXyXyXyXtXtXrX2X2XrX2X>X>X>X>X1X1X1X2X2X2XtXtXrXtXtXuX9X-X%XT.-X;X:X&X&X*X*X>X*X*X1X#X}.' b x l H } *.&.s.s.t.{.XXA.n.n.A.OXA.1X*X*X*X2X3X2X2X>X2X2X2XtXyXVXVXVXKXpXiXuX5XGXPXLXFXLXLXSXpXpXtX>XeXeX9X>XtXpXpXVXZX2XC.n.@X*X@X%...' ] W S V A ~  .#.y.a.XXOX;X;X&X=X5X4X5X4XwXmXmXmXmXHXHXmXxXmXnXcXqX8X5X7X4X4X8X9X5X=X-X5X5X9X5X9XuXuXrX;X%X=X:X;X*X;X2XrXaXaXrXrXrXrXrX>X&X;X-X;X>X;X&X%X-XN.J.%X-X;X>X5X;X;X;X-X-X&X&X&X&X;X>XrXrX>X&X-X>XrXrX2X2X1X+X@XXX@XXXXXXXXXXX|.{.a.a.a.a.{.{.a.a.s.n.XX@X@X@X@X+XXX.Xs.@.F 3 # % > q x b v j j N B C W @.%.y.y.}.s.i.i.a.A.XXXXn.OXOX1X>X>X;X;X;X&X%X&X:X;X&X@X*X*X@XXXs...] ] ] [ ! A S P P P ] ] W [  .W W [ ! O.#.t.y.y.%.#...@.]  ...] W { ' K m m Z Z Z m b v x y 9 4 4 u i ",
"B.X.u.|.r.5.6.T T ^ 6.v.B. XN.N.=XR.E.=X4X=X=X4X4XuXMXnXuX5XH.9.M.%XuXaXpXpXaX2X*X|.y.#.' S j f 7 9 p G ' } @.%.y.u.u. X;X5XT.k.H.J.7X7X7X7X(.(.6XxXvXvXxXxXxX0X^.4X4X4XW.Y.L.L.Y.4XqX9XQ.J.H.L.Y.L.L.L.H.H.H.H.H.H.D.x.H.R.4X8XM.%X&X%XC.n.N.i.@X*X2XrXtXpXSXKXLXKXSXuX9X;X-X-X;XM.j.M.M.8.j.T.-X;X9X9X9X5X;X&X,X9X9X9XeXuXuXuX9X>X>X9X9X9XeXuX8X9XwXnXcXnXnXnXqXcXwX5X&XQ.-X5X9XiXZXZX#X{ v h v } oXfXCXAXZXZXZXZXVXtXtXtXtX9XVXiXtXtXVXSXVXpXSXSXiX9X9X9X9X-X-XtXuXMX9X=XqXFXLXFXnX9X9XMXMX=X4XW.Y.Y.,XVXiX>XpX>X&X%X%XOX&X:X3XoXs.y.%. .] ! O.t.XX*X;X>X>X9XiX8X0XwXcXcXDXHXHXHXHXmXvXNXNXvXvXvXvXvXvXmXcXxX^.7X0X7X/.6XcXnX8X7X^.^.4X4X4X=XT.T.E.=X-X5XuXuXuX9X5X9XuXuX9X;X9X8XqXqX8XW.W.4XE.=X4X5X5X5X4X4XW.Q.W.=X4X=X4X5XQ.=X4X4XE.H.H.L.k.M.T.Q.T.C.C.C.C.N.b.v.b.b.v.q.N.N.C.T.&X&X;X;X%X&X&X&X&X&XT.T.%X*X+X}.K 4 % > 4 b } }.s.a.XX1Xn.a.XX+X1X2X<X<X2XtXyXVXZXKXKXVXVXKXKXKXKXKXKXKXKXKXKXKXSXpXpXVXVXZXZXVXCX3X1X1Xt.O.U U | ! | e.s.#.a.XXa.a.XXn.OX:X<X2X2X2X<X+X3X@X<X1XXXXXoX.X}.&.%.@.%.&.=...} { A B k k m m ",
"8.8.v.%X&X%X%X;XT.B.j.v.M.N.m.j.m.T.k.m.k.j.Y.M.j.v.&X;XJ.N.j.:.z.uXLXuX=X7X7X=XJ.rXdX2X|.O.U C V v V W @.{.@XOX>X%XT.Y.R.K.^.0X4XW.8XwX/.^.).6X`.~.).zXzXzX8X^.!.(.0X0X8X/.R.K.K.).K.6X).K.).F.!.D.F.R.F.S.F.D.D.D.D.K.F.S.l.l.j.J.&X%XC.C.OXOXOX3XyXyXKXSXMXKXFXcXnXnX8XE.D.R./.x.H.K.H.g.<.z.x.Y.T.k.h.h.k.M.k.J.E.E.E.W.4X4XE.4XW.W.wXwX4X0X0XcXDXxX).cXJXxXzXxXxXxXqX0X0XwXcX5X9XOXXXI B v Z [ }.3X1X+XyX;X;XtXiXuXeX9XeXeX9X8X=X8X9XeXeX9XGXiX5XW.Q.Y.M.j.j.f.x.=XwXcXwXnXmXnXcXqX8X4X4X4X4XH.Q.E.5XiX-X>XT.N.M.C.&X>X>X2X2X@X@Xa.t.! | #.O.1X2X>XtXeX=XqXqXcXcXnXcXnXDXHXHXDXDXHXHXNXbXzXbXxXzXzXbXbXxXlX).xXvXvXxXzXzX0X7X6X6XE.K.E.7X0XW.L.H.J.L.x.L.5XY.J.M.J.Q.4X4XW.E.E.^./.0X0X/.^.7X^.qXqXE.R.^.D.R.E.E.K.R././.R.!.!.~.).6X6X).).!.K.R.4X8XQ.Y.Q.R.L.L.L.L.H.H.J.R.L.L.L.R.W.4X4X7X^.W.4XE.H.H.E.Y.T.N.a.[ q 4 1 q [ .X#X*X<X>X;XrX>X>XtXpXuXuXMXKXKXVXtXKXPXLXPXKXKXSXFXLXLXKXFXGXFXFXGXiXeXtXiXVXiXtXtXtXtXtXCX;XOX&X*X*X*X>X*X2X2X2XyXZXZXyX>XuXuXtXpXpXpXtXrXpXtXtXtX2XtXyX1X1X1X1X*X*X@X@X@X+XoX@X+X@X.X.X#X",
"J.f.9.m.5XuX5X=X9X5X=XT.J.m.f.7.,.b.b.b.5.R 8.9.T.v.M.%XC.C.%XQ.H.7XmXHXFXcX5X5XuXuXaXrX2X*Xi. ...A W ..#..X3XtX;X,XeXqX0XzXDXLXIXGXW.R.R.`.cXJX).`.bXvX`.!.~.~.(.(._.).zXzXzX6XzXvX~.lX`.!.kX!.!.F.R.R.D.F.R.F.F.F.G.F.F.F.G.G.x.Q.;XT.N.C.&X&X,XKXKX>X9XiX9XW.xX/.)./.6X0XR.R.^.R.^.F.R.6X/./.Y.R.R.x.h.d.l.z.z.E.0X0X/.R.R.R././.K.D.!.^.~.6X(.(.).~.~.zXxX_.).hXlX6X6X6X6X0XzX/.W.C.A.Y j j A ! $.#X+XXX&XM.N.Q.5X4X4XE.W./.4X/.R.L.H.Y.4XwX4X4X4XY.x.j.x.M.l.d.d.L.wXFXmXcXqX5X7X7XE.R.L.H.4XW.T.W.8X9X9X;XT.C.C.&X,X>X>X>X&Xu.6.X.i.s.t.| XXyXtX9XGXGXDXLXDXHXHXDXDXDXHXHXHXHXDXvXxXzXbXHXbXbXxXlX).).zXbX).(._.).bXbXzX).6X6X).!.F.K.^./.cX6X^.E.H.g.g.l.z.k.x.L.E.W././.E.K.S.l.D.!.0XzX).K.K.^.D.F.^./.).^.!.^.^.^.!.!._._._.hXkXzXkXzX(.(.(.).).^.R.R.^.^.P.^.^.^.^.).).!.P.K.K.K.R.R.!.K.R.R.R.K.R.!.K.L.M.u.W 0 4 4 f ! s.B.B.J.J.H.J.Y.T.T.J.J.=X5X=X9X4X5XMXMXGXLXLXLXGXSXGXeXeX8X4X4XW.E.Y.M.M.M.Y.;X&Xj.b.,XtX;XC.C.;XpXtXrX9X;X9X-XT.N.T.%X%X=X=X=X-X-X-X=X=X=XY.M.N.T.T.T.%XN.OXC.C.N.N.N.N.N.C.N.C.;X>X>X2XyX",
"T.M.m.Y.-X-X-X-X-X4X5X4XW.J.L.J.b.b.5.) _ R 5.5.q.q.n.C.Z.C.>XtXiXwXwXwX7XE.7XMXwX5X;X;X>X:XXXa..X@.%.}.%.i.1XtX>XeXwXwXqXcXJXDXeXW.Q./.'.qX'.U.~.~.`.zX`.~.~.~.`.hX)._.).`.bXvXJXvX!._._.!.kX!.F.F.!.F.F.!.!.F.U.F.U.!.~.!.U.F.D.E.=XT.N.C.*X*X1XtXtXtXiXiXwXcX0X).0X(.0XmXxXzX0X).).K.!.xX0X(.S.c.l.c.c.c.D.R.8X0X8XR.D.R.^.0X(.).(.).0X).~.`.xXzXzX)._.).hX_.(._._.(.).).).(.xX).4X&XOXU B V A I ] %.6.+.q.8.m.m.H.K.H.l.l.D.L.H.R.R.H.x.S.D.l.x.H.x.c.x.H.E.K.W.4X4X4X4X4X7XE.E.R.L.L.H.H.M.Q.,XN.T.Q.Z.Q.j.j.b.C.T.C.N.Z.Z.C.Z.N.6.n.A.XXu.*XVXpXuXGXGXcXcXFXFXGX0X8XwXcXcXqXcXvXDXcXzXbXvXzXxXcXcXzX`.).).!.~.).`.).).zXbXxXzX).!.U.R.!.R.R.K.K.H.H.H.H.H.T.Y.M.z.g.g.l.c.2.c.(.cXDXbX!.G.^.G.D.!.R.K.!.(.(.K.U.~.(.!.!.).zXzXkXbXbXbXbXzXhXkX`.~.~.).(.R.hX).).).).(.hXhXlX)._.(.hXlXkXhX).)._.!.!._._.!.!.K.k.u.I 0 1 7 C e.|.N.J.=X^.^.H.R.R.L.L.J.^.^.^.4X7X5XwX8X8XnXGXGXnXiXwXqX8X4X8X4XW.E.Y.Y.J.N.j.Q.T.j.j.;X9X;XY.T.=X5X5X-X5X5X=X-X5X5X9X-X=XQ.4X7X7X7XE.J.R.R.=XH.L.=XQ.Y.J.M.M.M.M.k.k.M.H.H.Q.J.J.Y.T.J.N.C.",
"9.f.J.J.m.f.z.L.f.z.m.S.H.J.W.4X;XN.) Y ) 5.q.q.) n.&Xn.w.C.>X9XC.5X9X5XJ.Y.8XFXMXuX9XrX2XOXOX+X$X.X$X$Xs.s.2XVXKXSXiXcXFXHXJX~.U.R.'.'.~.`.kX~.].U.].`.).).`._.kXkXkX).!.~.bXHXHXvX!.!.!.!.).].].U.!.!.R.!.~.U.U.!.).zXzX`.).).R.R.Y.T.Z.Z.OX*X1XOX&XtXuXE.R.6X).).xX).^.6X6XcXbX).6X(.).).R.R.R.S.l.D.U.D.D.R./.).^.^./.0X).(.).).xXJXJXbXzXbXHXHXHXJX).~.).)._._._._._.).)._.).^.W.=Xn.Y k v S I U Y Y U 9.8.J.x.x.L.D.l.l.H.4XR.c.z.c.c.c.c.g.2.2.z.R.4X0X4XcXFXFX6XL.S.H.x.H.H.L.J.Y.T.J.J.k.T.M.n.N.b.b.,.q.N.%XT.b.q.w.b.b.C.%Xu.u.0.XXXX2XVXiXuXiXwX).^.W.8XwXGXHXGX0X4X8X0XcXDXHXDXcX).zX0X0XcXvXcX(.F.R.).0X).!.~.).xXxXzX(.!.R.!.R.F.D.K.H.L.H.R.R.L.z.M.Y.Y.R.L.H.D.R.H.S.l.G.F.U.R.R.D.G.K.^.^.(.).zX).).0XzXzXzXvXNXNXNXbXbXbXbXzXkXkX)._.~.)._.~.bXbXzXlXhXhXhXhX)._._.(.kXbXbXbXzXxXkX_._.hXhX_.(./.J.u.Y 7 1 1 C p.%XJ.=X7X7X6X/./././.0XcX6XR.7X7X4X8X0XE.L.E.Y.E.W.W.4X4X8X4X4X4X4X=XQ.E.Y.J.W.Y.J.T.N.j.j.j.J.Y.Y.L.Y.E.4X9X5X5X5X=XW.=X4X8X^.^.^.R.L.x.D.H.4XH.L.W.W.J.M.x.H.H.x.k.D.D.H.K.R.H.D.Y.R.Y.T.T.",
"7.f.M.Q.Q.J.k.f.k.z.f.f.l.H.W.4XY.M.j.8.f.j.m.N.j.&X&Xj.8.N.-X-Xb.T.,X-XT.T.9XMXSX9X%X;XtX1X*X+X3X#X$X#Xt.t.1XZXKXSXGXGXLXLXcX].U.!._._.]._.kXhX].].hXhX].G._.kX(.).(.~.~.`.cXHXJX0X!.!.~.(.).!.`.!.~.zX)._.~.~.].(.zXzXzXkXzXzXcX/.R.-X&Xb.b.OXOXC.&X9X5XE.R.!.zX6XxX0X(.^.^.zXvXzXxXzXzXzX).0X(.R.D.R.!.!.!.(.!.!.R.!.`.bXbXzXxXzXbXvXvXbXvXDXHXHXHXHXzX(.(.(._.~.~._.(.)._._.).).4X&Xi.Y k v S ] ] D Y 6.v.v.M.z.S.R.R.L.R.4X/.H.l.l.c.c.l.l.c.g.g.D.4XwXwX4XDXDX0XH.z.H.M.j.Y.Y.T.Q.T.C.N.N.v.j.N.q.j.C.v.v.v.T.;X%Xb.j.v.N.%XN.n.0.i.u.XXOXtXyXtX5X8X8X8XqX/.E.4XnXGXcXwXcXcXwX0X6X0XxX0X6XqX'.^./.qXqX8X(.^.0X).U.!.zXzX!.).).~.!.!.~.!.R.R.E.R.H.L.W.W.R.k.z.j.k.x.L.E.^.S.S.G.l.G.G.F.F.!.K.S.g.D./.zXxXzXxXbX0X0XzXzXzXbXbXbXbXkXzXzXkXkX).).kXkX).).).vXvXbXzXlXhX).).zX).).).kXzXzX`.).).).!.~.).kX).(./.J.v.I 7 - 1 j p.:X=X7XqX6XxX).6X6X4XwXnX0XE.6X4X7XqXqX4X4XW.Q.W.4X-X-X-X-X-X&X-X5X-XQ.Y.M.M.Q.k.M.W.W.j.j.J.h.Y.Q.W.9X8X4XqXqXqX9X5XW.Q.W.5XW.W.E.Y.D.z.x.M.Y.j.k.Y.Y.M.M.M.Y.M.x.x.c.x.D.H.H.D.D.H.E.E.W.W.",
"Y.Q.-X9X9X=XM.f.Y.H.l.g.l.x.H.J.T.M.J.J.T.=XJ.J.J.M.j.j.M.j.7.7.C.b.b.C.T.N.Y.5X=XJ.N.%X;X*X*X1X3X3XfX1XXXn.&XtXSXSXLXHXHXDXqX).F.F.!._._.kXkX_._.]._._.F.F.!._.).!.F.U.~.'.'./.U.c.c.D.(.`.`.~.kX!.~.zX`.].!._.!.~.)._.~.).zXbXHX0X0XwX;Xb.q.C.Z.i.C.eXeX4XxXmXDX0XzX0XzX0X^.).xXxXvX).).vXvXvXcX8X(.(.).).).(.).`.).~.~.zXJXHXbXxXvXHXHXHXHXDXIXHXDXHXHXDXvX0X~.~.~.(.)._._.!.lXxX4X-Xn...V v Z ' ] I %.@XN.q.j.j.m.R.E.L.J.Y.g.l.H.R.H.c.l.l.H.H.Y.E././././.4X7XH.g.d.k.Y.T.T.T.T.T.C.Z.Z.n.C.v.Z.q.q.Z.v.T.T.;X9X>X&X&X;X9XtX&XZ.u.A.n.@X*X1X2XrX9X9X8X0X0XnX0X4X0X0X/.7XcX0XxX0X^.K.K.!.^.H.W./.'././.8XqX/.zXzX(.(.cXbX).kX).).~.(.).).(.R.^.E.R.R.4X4X4XQ.J.m.f.g.l.S.L.K.L.K.L.R.!.(.).^.6XE.S.R.6X6X/.R.).).!.!.(.).~.).kXzX).).`.kX`.`.).).zXbXzXkXzX0XzXzX6X6X6X).(.zX0X).).).).).).^.^.^.!.!.~._.(.R.E.M.i.P 7 - 1 c |.;X&XwXcXzXcX).0XqX0X4X4X0X0X6X4X6XqXqXwXwX5XeXeXeXeX8X;X-X-XW.;XeXeX5X-X-X5XW.T.T.Q.Q.T.T.Q.M.5X8X9XnX9X4X9X4X9XiXiXiXeX5X4X4X4X=XQ.Y.J.Y.Y.T.M.J.T.M.k.N.J.Y.N.M.k.c.x.D.H.E.Y.H.D.x.x.k.k.",
"&X8XeX9XW.J.M.k.M.M.k.j.z.k.x.x.9XJ.Q.T.=X;XJ.N.M.m.f.j.M.5.R R Y Y 5.T.,X=XY.Y.H.H.Y.&X-X;X9XpXZXZXdX2X2XsX;XtXSXLXPXLXDXzX0XzXzX!.R.!._.zXbXxX).F.F.F.K.!.~.!.).R.D.U.R.R.U.c.2.2.l.D.^.0X).).).]._.kX_.].!.!.!._._._.).zXzXzXzXxXnXnX&Xj.q.n.OXb.T.9XE.K.).xXzX/.).^.).0X!.K.).^.).R.!.zXzXcXHXHXcX0X).).~.!.(.zXbXbXkXhXhXkX).).bXHXHXLXIXDXHXcXcXDXFXHXDX/.R.~.).).)._._._._.6XL.M.0.#.V y Z A { ] .X*Xu.v.j.j.m.m.m.j.f.f.H.M.H.H.x.x.H.R.H.L.E.E.R.H.L.R.H.E.R.H.z.M.Q.-XN.N.N.n.b.i.i.i.b.u.b.b.b.v.v.N.;X;X5X9XiXSXMX9X-XQ.T.q.i.n.@X@XOXOX;XuXeXeX8XE.0XcXmXmXnX6X^.K.^.7X6X/.P.P.P.R.c.R.8X0X8X/.'.0X8XqXcXbXzXzXbXbXkXzXkX).).zXzX6X).6X/.E.L.H.H.J.z.J.5XuX8XW.L.S.S.L.R./.).).).)./.xX6X^.6X6X!.!.K.!.(.).).kXzXzX).kXzX).~.`.`.).`.`.kXkXzXzXzX`./.7X6X/.7X6X6X/.R.R.R.R.R.R.R.R.Q.W.W.^.R.U.!.(.!.E.N.u.A 1 % > A @X*XJ.9XcX).6X8X0XwX0X8X/.4XwXE.E.4XW.L.W.4XY.Q.T.Y.T.Q.Q.T.T.T.T.Q.Q.Q.W.-X;X8X8X=XM.z.k.z.7.Q.9X-XY.5X-XY.-X-X&XQ.Y.Y.W.5X9XQ.Q.Y.T.Y.J.N.N.Y.Y.T.N.j.j.M.M.C.Z.M.x.x.x.H.Y.Y.Y.Y.Y.Z.Y.Q.W.",
"9X9X9X-X=X-X5X8XW.4X5X9X8X5X4X-XY.T.uX9XT.N.j.J.J.&XN.7.8.7.,.7.R ,.w.w.j.J.E.L.L.k.j.M.&X>X>X;XdXdXp.^ u.:X5XSXwXnXFXDX0XP.!.).6XR.K.!.F.F.!.!.~.!.~.~.F.F.R.!.U.R.~.~.R.U.U.U.D.D.R.^.`.zX).~.)._.).`._._.)._._.).`.zXvXJXbX`.F.6XmXwXY.w.q.i.Z.,XtXT.z.4XHXzX6XzXvX6X/.xX).^.R.3.l.K././.^.xX`.0X0X).zXJXHXJXvXbX`.~.].].].F.U.F.!.~.).HXIXDX/./.8X8X/.8XW.S.R.~.`.zX`.).).).(.6XD.j.t.s.S 0 Z A ..%.XXXX6.C.v.j.j.7.7.f.j.z.E.Y.Y.=X4X4XL.M.x.x.H.L.L.L.H.H.E.R.R.4XqX9X-XZ.M.b.j.q.5.X._ T X.8.8.&X&Xv.N.N.N.j.j.M.;X9X-XM.T.N.n.5.N.1XyX*XOXN.C.&X8XqXwX4XR.4X7XL.S.W.6X7X6X6X7X/.6XxXxX6X4X8X/././.8X0XqXcX/.^.qXvXbX).).).kXhX).(.).).).!.!.^.E.H.D.D.L.L.=X4X=XJ.x.H.K.^.^././.(.).6X6X/.6X!.R./.^.!.zX!.!.~.).hX_.(.zXzXbXcX`.).`.0X`.).zXzX).).zXzX(.).0X0X6X0XwXzX8XR.R.^.W.R.R.^./.Y.Y.R.^.R.U.!.)./.4XN.p.W 1 > 4 $.3X2XJ.9XnX4X6X8X/.W.eXeX4XW.W.J.E.4XW.S.E.4XQ.Q.Y.Y.T.&X;X-X&XQ.T.N.M.M.M.M.N.M.N.M.M.H.Y.Y.M.j.Q.M.j.Q.Q.M.Q.Y.T.T.T.T.T.T.Z.T.T.T.T.T.T.T.N.N.Y.T.M.h.j.T.T.N.M.b.k.k.k.M.J.H.Y.Y.Y.M.Y.T.Q.",
"9X-XW.4XE.H.Y.8X4X4X4XQ.5XMXMX5X&XY.M.k.J.=X&XQ.T.J.M.k.j.j.k.M.j.h.f.j.h.f.h.j.Q.k.N.;XC.OX>X2X3X1Xa.^ T ) v.9XiXqXcXmX6XF.P.zX~.).!.F.!.!.].!.).kX_._.zX(.P.^.!.^.F.!.^.!.8X!.~.`.cXHXJX).].].!.).zXkX).).).kXkXkX).vXvX0X`.(.!.(.0X6XH.5.q.A.XXXXOX5.j./.xX(.).cX0XR.R.H.c.D.S.l.l.R.).(.).zXzXzX0X0XzXbXbXzXxX!.F.F.!.!.~.0XR./.G.S.^.8XcX8XE.S.D.l.G.).(.zX).6X(.(.).~.~.bXbX).R.J.%Xi.A h k ( s..Xt.b.C.b.v.N.N.k.M.Q.8X4XW.Y.W.4XR.W.4XL.x.l.g.c.D.D.H.R.4X8XiXGXGX9X-X=XY.j.7.q.5.R E R ) ) 4.q.b.b.M.N.j.7.7.j.Y.=XQ.Y.j.v.q.u.A.n.XXtXOXM.M.Q.4XW.E.R.x.L.R.E.W.4X4X/.6X0X/.H.R.0XcXqX8XqXE.H.'.0X/./.`.0X`.`.`.).!.~.bX`.~.~.(.(.~.!.F.~.).^.K.H.S.x.x.f.7.f.z.k.H.L.H.R.E.^./.6X6X/.^.^.^.!.F.F.R.).(._.!.!.(.hXhXhX).(.).`.zXzX0X).`.bXcXzXzXvXvXcXbX0XbXDX8X!.(.!.R.R.!.^././.(.^.H.E.E.H.D.R.~.!./.7X%X6.S w - p t.yXKXiXMX0X/.wX/.Y.M.Q.5X4X4X4X7X^.E.E.W.W.=X=XE.T.Y.T.=X5X&XN.T.Q.Q.Z.M.N.T.N.Y.T.T.T.Y.Y.Y.Y.N.j.W.W.k.k.H.Y.H.Y.Y.k.8.7.w.b.q.v.v.v.N.%XJ.j.f.M.N.M.j.j.j.k.d.f.j.M.M.M.M.k.L.E.Y.x.Y.-X4XE.",
"h.M.L.x.x.R.W.R.7X4X4X4X5X9X9X5XJ.J.J.J.M.j.k.m.j.j.j.M.M.M.k.j.k.z.z.k.x.k.k.M.,.j.9.R q.b.i.OX1X#Xt.U T X.q.-X5XW.E./.vXJXbXP.!.(.~.F.!.].F.F.G._.).!.!.P.F.!.].~.F.(.0XzXDXvXHXHXvX!.U.).kX_.!.).kXhX)._.(.(.(.zX).xXvXzXzX~.hX(.6X0XR.7.9.i.a.U X.+.M.H.(.zX6XxX/.R.E.H.c.D.c.D.R.!.R.F.!.zX).(.!.!.!.!.!.R.!.~.).`.0X`.!.F.U./.R.R.R.H.Y.c.c.l.D.l.F.`.).).bXvXzX~.~.!.!.).zX).^.Y.C.t.S k v A %.t.O.q.N.N.T.C.T.Q.W.E.E./.x.z.L.Y.x.L.E.H.R.c.l.H.L.S.D.E.z.M.E.W.4X4XQ.J.R.Y.T.T.v.4.4.q.q.C.C.q.v.;X9X;Xj.M.M.N.M.M.k.j.j.N.b.i.XXXXOX*X%XN.M.x.L./.4XW.4X5X5X8X9XiXwX8X/.4X0XcXcX0X4X4XxXcX/.R././.R.R.R.l.~.0XR.`.JX).!.~.(.).).~._.).F.~.(.!.D.S.S.z.7.7.f.j.M.H.L.L.H.E.7X7X)./.^.^.^.K.F.F.R.R.!.!.P._.hXhXhXhXhXzXbXxXzX`.).0XbXvXzXcXcXxXzXxXzX0XzX).).0X`.).^.K.R.R.R.R.R.R.K.K.F.R.R.K.F.K.!.^.7X4X=X6.C w - l oXrX>X-X8X4XR.4X8XW.W.-X-XQ.R.W.R.E.W.^.^.R.L.m.J.Q.=XQ.J.N.M.M.M.N.N.N.Z.T.T.T.Q.Q.Q.T.Y.J.M.M.T.j.Y.Y.k.H.H.J.T.T.T.N.k.j.q.q.b.q.8.v.N.B.m.N.J.M.j.f.f.f.<.R 9.f.j.m.M.J.T.=Xk.j.J.4X0XE.R./.",
"d.1.d.z.D.c.c.D.H.l.x.H.M.f.j.J.Y.N.M.j.h.7.f.k.T.N.k.j.j.j.j.f.<.<.7.j.M.Y.W.5Xj.w.9.R R u.+X+XXXoXs.t.u.i.v.N.Y.Y.D.F.^.bXbX_.P.~.!.K.!.!.F.F.U.)._.!.(.zX(.!.~.^.R.(.).).zX0X).cXbX~._.kX_.G.!._.).).).).~.!.~.zX0XzXzXzXbX!.xX(.^.wX4Xj.6.u.| N | N.;XM.F.!.).(.R.R./.E.R.E.E.4XzX0X!.K.(.zX`.~.!.(.).(.).`.).zXxXbXxX0X).(.R.8X!.R.R.U.R.R.S.l.D.R.~.~.U.~.~.zX).R.!.`.zXbX).)./.Q.C.t.I j V S [ O.| 4.j.M.N.v.j.j.j.x.H.H.x.M.R.R.H.Y.E.Y.c.l.l.x.D.D.L.R.L.j.1.1.d.l.H.R.M.M.k.j.5.5.b.&XrXtXVXVXiX>X&XT.N.N.M.f.f.M.Q.=XuXtXOX6.t.n.:X2X;X;X4XR.W.6X4XE.4X=X=X8XnXFXGXnXwX4X/.E.R.R.6XnXqXxX/.^./.4X^.^.zX!.0XbX!.~.`.F.zX0X`.).!.F.U.!.(.).).^.R.R.R.Y.L.Y.Y.Y.L.H.H.D.K.E./.^.K.K.K.K.R.D.S.D.R.!.!.!.(.zXvXNXNXvXNXNX(.zXvXvXxX`.).).!.R.!.).zXzXzXzX(.).!.!.(.(.R.F.!.^.^.^.^.^.^./.!.!.^./.(.^./.7X7X7XT.o.B 7 - p a.:X-X-XwX0XR.E.W.Q.W.8X;XQ.E.4X7XW.L.S.S.L.R.=Xl.M.M.M.j.j.j.w.j.j.j.N.T.Q.Q.Q.Q.W.=X;X-X-X-X5X9XN.Y.J.J.W.=X5XY.M.M.M.b.j.8.4.5.4.9.v.M.j.j.M.j.m.M.M.M.M.H.M.j.z.M.M.M.H.R.=XH.z.H./.4XR.E.wX",
"H.h.d.x.H.g.g.c.z.g.g.k.j.7.8.N.Q.k.7.h.j.j.j.j.j.j.7.7.j.k.N.J.M.M.M.M.H.Y.Q.=X=Xj.j.b.5.i.1X2XXXXXXXXXOXOXN.N.=X4X6X(.~._.zXNX!.^.R.F.!.!.U.U._.~.U.F.~.^.P.G.^.R.F.R.^.^.R.R./.R.R.~.~.].]._._.).).(.(.(.~.].!.`.).`.0X).).R.).!.R.4X=Xj.6.t...] t.6.w.z.D.F.R.D.l.S.H.H.H.E.^./.).(.(.(.(.^.).~.!.).zX).kXcXzX~.!.`.).F.!.bXzXJXcXzX`.~.R.U.^.F.R.0X).G.G.).(.).).!.!.).).hX~.(.^.=XC.u.| N Z A ] ..| R 4.8.j.C.N.j.k.-X4XH.z.x.H.H.x.x.x.z.D.R.R.H.H.^./.R.L.h.l.R.W.H.x.L.K.M.j.j.M.-XuXuXVXrX>XrX;XC.N.T.T.Q.=X=X9XMXiX5XiXuX&Xn.n.OX@XOX>XrX8X4X4X4X/.R.L.H.M.H.R.W.E.Y.R./.^.L.L.^.4X/.R.R.R.R.^./.(./.).cX`.).0X(.F.!.U.U.!.`.zX).!.F.!.K.K.K.R.R.R.H.R.Q.E.M.z.c.c.c.E.E.R.D.S.G.K.K.S.D.K.R.R.!.^.).^.~.(.hXbXbXzXhXkXzXbX0X(.~.(.).zX).).zXbXzX).).U.).).!.!.!.F.!.!.^.^.^.R.R.R.^.K.D.K.^.!.K.K.^.^.J.B.T j t - l  .&XtXuXnX0X/.^.R.Y.Q.-X=XW.Q.4XW.W.W.W.E.E.Y.J.M.m.k.j.M.M.v.w.w.7.j.M.Z.M.N.T.Y.T.T.Y.Y.Y.J.Y.W.N.T.T.Y.Y.M.J.M.k.k.j.j.w.5.R R 4.8.8.8.v.M.M.j.M.J.J.J.Q.=X=XY.J.H.M.m.M.J.Y.J.R.L.z.x.W.0X4X",
"Y.Y.M.j.x.Y.R.D.l.l.j.l.j.j.m.M.j.w.w.k.M.k.h.w.,.7.h.j.k.k.k.k.J.J.J.M.k.m.J.Y.Y.;XQ.C.;XC.N.1X+XoXi.t.0.u.N.N.W.4X0X6X(.(._.)._.^.F.F.].!.].~.).~.~.!.F.l.G.F.R.S.G.K./.8XW.R.'.R.U.~.!.D.!.bX(.).(.~.~.(.!.R.F.U.F.~.(.R.!.R.F.K.R.R.J.j.6.O. . .O.E R k.R.l.F.l.3.g.2.2.l.S.E.E.(.(.0XzXzX^.xX).).kXzX).).zX).~.).vXbX!.!.bXbXbXzX~.).`.`.zX/.~.~.).!.G.U.kXzX(.).`.).~.~.~.~.(.E.-X%Xn.%.j W W [ #.6.) R 9.j.T.-XQ.=XeXW.h.g.l.l.x.L.R.L.H.E./.^.E.R.K.K.K.W.E./.wXwX4XE.R.L.L.J.=XiXSXtX-XC.&X%XC.T.;X&XN.T.&X-X;X9X9X5XT.9XC.u.n.OX@X*XOX;X%XY.R.E.E./.0X4XW.E.Y.M.z.l.l.D.R.^.R.E.4X/.L.R.R.E.^.^./././.D./.R.D.).R.G.R.].F.G.U.!.!.!.~.R.F.F.R.R.R.R.Y.x.H.L.H.H.L.E.E./.^.R.D.D.K.R.K.D.H.R.R.^.(.).6XK.F.F.F.!.(.~.!.xXcXxX`.).).).).zX).(.0XzX).~.~.U.).).~.).(.R./.6X)./.^.R.K.K.K.F.F.H.R.!.K.K.^.K.m.j.U k 7 - l y.rXSX5XW.6X0X6X/.E.T.W.W.Q.T.Y.4X5X4X=XQ.J.M.k.J.M.j.j.v.j.j.8.j.j.j.M.j.7.f.M.j.j.m.M.M.J.J.J.M.N.;X&XT.m.7.j.Y.J.N.m.j.8.9.,.9.8.j.5.5.j.M.T.M.f.7.f.Y.4XW.H.Q.J.M.M.L.R.E.R.x.E.E.x.Y.qX8XL.",
"W.E.H.M.H.L.L.L.l.l.j.7.f.m.m.j.j.j.k.j.w.7.h.j.k.k.k.k.k.j.j.j.k.M.M.m.k.M.T.Q.T.9X;XN.b.C.C.N.XXt.t.6.X.5.q.w.k.W./.F.G.!._.P.F.F.G.F.~.).`.zXbX).`.zX).!.).0X(.S.H.R.8X8XD.c.h.c.U.R.R.R.!.~.(.(.~.!.!.!.!.U.F.F.F.!.(.F.!.(.!.(./.R.M.b.u.O.] D Y D q.-X4XS.F.l.l.l.2.g.c.D.D.H.R.(.0XzXzX6XzXkXzXbXxXkX).kX!.zXNXvXbXzXhX_.hX_._.!.`.vXbXHX(.cX`.!.F.F.(.!.~.F.~.xXzX`.zXzXzXzX4X9X>XOXa.N W { ..t.i.8.9.8.N.N.Z.Q.T.k.d.1.l.H.H.Y.8XnXwX8XW.D.L.^.E.c.c.^.wXnXwXE.K././.H.z.S.L.=X9X9X9X-XC.T.&X;X;X%XN.j.N.T.Q.Y.J.Y.5XuXuXb.6.u.n.@X1X2X&X%XQ.4X4X^./.0XW.W.W.W.E.L.L.R.4XR.H.H.R.R.E.^./.E././.R.H.R.D.U.S.U.R.F.S.D.l.).~.!.U.G.F.!.kX(.(.(.(./.^.~.E.H.H.Y.E.E.R.H.H.R.R.R.K.R.R.K.D.R.R.H.R.^.6X).(.!.^.(.(.^.(.).zX).0XzXzXbXbX).R.!.F.F.!.~.~.!.~.~.(.!.).zX0X/./././.^.^.^.^.^.E.R.R.R././.^.^./.K.L.v.U j w > x y.*X9X=XK.6XxX4X/.Q.T.Q.Q.Q.Y.J.5X=XT.N.k.k.m.M.j.j.v.v.w.8.w.v.M.N.N.M.j.7.j.M.k.M.J.Y.T.Q.=X=XN.T.Q.M.m.m.m.;X=XQ.T.M.8.7.9.8.N.v.N.%XT.j.j.N.N.M.k.m.E.5X=XY.=X=XT.T.Q.=XW.E.E.E.E.4XqXnXqX4X",
"-XM.x.E.E.l.j.J.H.L.M.j.j.m.m.v.k.M.k.1.) 1.j.M.k.j.w.w.b.Z.C.Y.W.5X5X=XJ.J.J.N.N.b.C.v.R q.C.5.u.O.t.u.q.u.v.7.M.4X0X!.F._.zXzXF.F.F.!.0X0X`.0X`.U.~.8X).).0X6X^.D.E./.4XE.1.<.h.D.D.l.l.R.).~.~.^.^.!.!.!.R.F.R.!.F.R.!.R././.)./.^.Y.N.b.q.+.%.D D D q.9XnXwXK.S.D.R.H./.8XE.g.2.3.F.!.!.!.~.].]._.).)._._.!.I.).kX_.]._._._.hXhXJXJXHXvXF.F.).bX(.~.!.!.~.G.~.!.).bX0X0XzX~.xXvXwXnX9X:XXXN A ' [ O.n.v.j.M.;XT.N.T.Y.x.c.R.H.W.E.E.wXwX4X4X/.E.E.4X6X/.6XnX4XwXwX4XR.R.D.l.R.R.J.W.4X5X9XuXuX%XC.T.M.9.7.N.k.Y.9XMXiX9X9XuX-Xb.u.A.XX*X1XOX;XrXMXmXcX4XE.E.c.c.D.R.R.R.R.E.R.R.E././.E.H.K.R.D.R.R.c.g.l.2.c.c.D.R.R.R.^.R.3.D.).zXzX).).`.~.!.!.!.R.R.R.~.E.H.H.R.R.l.2.3.D.R.!.!.R.R.K.F.R.R.H.D.R.E.^.E.^./.).6X).).).).6X).~.F.!.).0X).0XzX6X).(.).).(.`.!.(.zXcX8X(.!.F.D.D.K.R.^.R.K.K.R.R.R.R.^.^.K.W.J.B.^ c w - l #.B.%X=XW./.6X^.R.E.Q.&X&X%XQ.=XM.J.T.Q.T.M.j.j.v.M.N.N.v.j.b.T.M.N.N.j.8.j.m.M.Q.Q.Y.J.M.j.f.f.j.j.j.7.f.m.M.9XT.N.M.j.5.7.8.j.N.v.J.;X=Xj.j.M.=X9XqX=XY.L.R.W.=X4X5X4X=XW.R.R.4XR.Y.5XwX8X8X8X",
"j.M.Y.J.H.H.x.j.L.H.m.j.f.5.7.w.b.M.j.,.1.w.k.w.j.w.7.j.M.Z.j.7.j.N.T.T.N.M.M.v.j.C.T.C.C.v.5.u.n.t.u.n.N.%X;XT.T.R.^.zXzX).).).).).(.6XcX`.R.].U.R.0X8XD.F.!.K.c.g.R.W.4XE.d.h.Y.Q.W.R.~./.(.R.!.(.).^.~.!.!.K.!./.R.F.D.F.(.R./.R.D.H.M.j.6.O._ Y  .+.%X9XwX8X^.R./.6X4XcXcXE.H.g.2.F.(.(.^.^.F.]._.).)._.!.].!._._._._._.).kXJXNXJXbXbXzXP._.).!.F.zXbX~.~.U.F.F.).zX).bXbX(.lXcX0XnX9X&X@XN V W W | i.N.M.%XT.Q.Q.Q.W.4X8XqX8XnXwX4XwX4XR.R.R.0XwXE.^.cXmXxXcX/.E.4X^.S.K.xX0X/.^.4X8X9X5X5XQ.>XuX;XT.N.J.T.=XQ.=XuX9XQ.J.Y.-Xn.u.6.6.@XyX2XrXpXMXwX6X/.^.R./.E.E././.R.H.H.L./.6X/.^.4X7XR.E.H./.4XR.H.R.D.D.8XR.D.0X^.c././.~.U.R.!.~.~.).).~.~.~.~.~.).0X8XR.H././.K.D.R.R.^./.^.R.R.R.R.H.E.E.D.c.D.R.^./.^.(.6XzX0X(.R.K.!.~.!.~.).(.!.~.).6X).).xXvXvX`.!.0XDX0XR.R.R.(.!.R.R.^.^.R.D.!././.^.^.).).^.7XT.b.^ c 7 - r %.u.%X-XK.S.K.^.R.W.5X5X&XQ.Q.=X=X=XT.M.j.j.v.M.M.j.8.w.w.8.8.8.8.j.w.9.9.w.m.m.j.j.m.m.m.k.k.k.v.M.N.N.-XQ.j.M.M.j.j.7.5.8.j.M.M.M.m.j.j.v.T.=Xk.M.J.J.L.E.4X4XY.=X4X4X=XR.W.=XL.H.Y.W.4XE.Y.Y.",
"k.J.H.z.h.j.H.H.H.H.k.f.7.j.M.N.T.N.k.k.b.b.b.q.9.9.w.w.w.w.5.7.j.v.j.5.5.M.M.8.v.C.N.q.M.C.N.u.i.u.n.OXOX&Xb.-XM.H.R.(.6XzXkX(.!.6XvXvXzX).`.zX0X`.).~.R.R.S.<.d.g.D.L.H.j.h.z.Y.x.h.2.h.c.D.U.!.!.!.R.!.(.^.R.!.(.(.R.K.R.R.D.D.^./.E.N.j.q.i.| O.` U 0.N.E.0XR.(.6X0X/.E.^.4Xc.R.^.!.!.!.K.^.G.!.(.!.!.!.!.!._._._._.hXbXbXkXhXbXbXjX_.kXbXbXHXvXbXbXzX!.!.`.(.!.F.!.zXHXvX(.xX0XDX8X5XN.6.Y B W I #.OXv.8.v.7.N.Q.N.Y.eX0XE./.0X8X/.E.E.H.l.H.qXcX^.K.^./.K.R.)./.^.).cXcX8X4X/./.W.R.E.Y.Y.%X9X;X-X9X=XM.M.J.9XiX;XQ.;X=XM.N.&XA.6.t.+XyXZX2XuXwXwXqX^.H.R.R.E.E./.4X7X^.E.L.^.0X4XE.L.H.E.E.R.R.W.4X4X/.E.R./.W.c.c.E.W.D.R.W.^.!.!.!.(.).`.`.`.`.(.R.~././.K.S.D.R.F.F.R.F.K.!.(.!.F.F.R.D.R.R.D.D.H.H.D.l.D.R.R.K.H.R.(.^.zXzX(.R.!.!.K.!.^.).6X).^.!.!.~.^.R.D.F.R.^.R.8X^.R.^.4X0X4X^.).6X/.R.R.(./.^.E.E.q.U B 1 - p @.OX;X%XJ.7X0X4X0X8X-XW.T.N.T.Q.Q.T.M.j.j.b.v.j.q.9.w.8.b.8.j.q.8.q.8.9.5.j.j.8.m.m.m.m.M.M.M.m.M.M.N.T.T.M.8.,.,.5.v.v.j.j.m.J.T.T.J.k.k.J.Q.Y.J.x.z.l.z.c.D.H.H.H.L.R.R.Y.R.W.L.J.W.4XW.L.L.R.",
"j.j.h.d.d.z.x.x.j.z.j.f.f.m.N.N.b.n.C.,X>X%Xw.R ,.9.w.w.w.5.5.w.,.4.,.4.4.8.8.8.R v.N.b.v.q.8.q.n.i.6.u.OXpXb.<.M.D.K.!.).zXkX).bXvXxX).(.`.zX0X`.G.D.`.0XR.l.<.l.c.x.x.h.f.h.h.Y.x.c.h.h.c.S.D.F.K.K.F.R.^.^.R.(.^.R.K.H.H.D.l.R.^.E.E.Q.T.b.n.O.O.` Y _ 1.1.l.6X).6X0X4XR.H.R.E.4X6X).).!.F.F.G.!._._.).)._._.F.]._._.bXNXkX_.hXhXhXjXhXbXbXkX]._._.kXkX).(._.bXzXxXvXHXDXxX).vX!.^.L.Q.&Xn.D B W A O.OXv.,.R j.M.N.M.M.H.H.l.L.R.4X0X4XH.c.H.L.D.K./.4X^.^.6XR.S.R.`.qX/.^.).6X^.E.E.L.k.k.J.Y.T.M.N.5X;XM.j.J.5XiX9XT.J.Q.-Xv.C.2XA.X.@XZXC.%X-X4X6X0X^.R./.K.R.E.H.c.c.K./.^.K.c.z.L.^.0XwX4X4X4XW.R.x.l.g.D.H.R.R.c.c.D./.R.R.8XcXcX!.F.F.0X).).(.R.F.U.R.D.E././.).0X).R./.R.R.(.0X0X(.R.D.R./.0X4X^.R.R.R.R.K.D.D.R./.0XvX).K.F.K.!.).zXF.F.F.R.!.!.R.R.).!.R.R.^.).qXcX^./.4X/.R.H.R.^.!.R.K.F.F.D.K.K.7X-XB.^ B ; # i ~ t.*XrX5X7X^.E.4X4X=XQ.T.N.J.T.T.T.T.N.M.N.C.N.b.j.N.M.N.8.9.) 9.8.j.v.N.T.T.N.f.f.j.M.N.M.m.j.j.8.5.5.5.5.5.9.8.v.M.N.m.v.M.M.M.T.=XY.J.J.M.j.x.z.l.h.l.c.x.D.c.c.H.E./.W.L.H.L.L.J.W.W.R.L.L.",
"x.j.7.7.j.M.x.j.d.f.j.j.m.M.M.v.N.b.b.v.q.v.b.b.k.q.q.v.q.8.w.8.q.9.5.9.X.R E R R R ) 5.b.C.C.%Xn.XXu.6.B.tX-XQ.H.H.K.!.).zXzXzXlXxXxXlXzXbX).G.U.R.).^.D.D.K.D.z.L.L.H.k.x.M.H.T.Y.H.c.l.c.D.R.F.D.S.S.D.K.K.K.R.D.l.z.c.c.l.l.S.K.H.H.Y.N.b.i.i.%._ U ,.7.d.c.6X(./.qXqX/.E././.4X).0XxX0X!.K.!.!.!.~.`.(.~.(.kXzXbXkXkXbXNXbXbXhXhXhXbXbXhX_._.].F.G.F.(.zXzXhXhXbXHXHXbX).`.(.F.^.L.M.N.n.N j H I #.*X:XN.8.9.,.1.j.k.x.H.R./.H.D.L.D.l.g.c.^./././.4X6X/.R.R.^.R.G.S.R./.^./.R.H.E.E.M.J.;X=X;X&XT.Q.Y.J.Q.=XY.Y.=X-XQ.=X9X>X&XOX+.Y a.yXOX&X5X8XqXwX6X(.6X6X/././././.^.R./.E.E.4XqX0XE.x.H.L.R.Q.W.E.L.H.R.D.D.R.E.H.R.8XE.7XE.S.G.R.).(.!.U.F.U.F.D.D.R.(.8X).!.R.).zX0X).(.(.).).).(.(.0X/././.^.R./.xX/././.4X/.^.R.H.!.!.6XvXxX!.F.^.6X/.^.^./.)./.^.).R.R.(./.R.H.K.H.R./.E.H.H.R./.!.F.F.R.R.F.D.K.E.=XB.| c ; - p A  .XX>X5XE.E.^.E.E.T.J.N.M.M.m.M.N.N.M.j.j.j.j.M.b.N.M.N.j.v.M.M.q.9.9.8.q.v.M.N.v.7.9.5.j.J.%Xv.j.8.5.9.8.b.C.N.N.N.J.J.N.J.H.Q.-X-XY.M.m.x.k.Y.L.H.H.H.R.R.R.H.S.c.H.W./.W.E.J.H.H.R.W.W.J.L.",
"T.M.h.h.z.x.z.f.f.l.k.M.M.m.j.5.q.v.b.q.9.5.b.&X&XC.n.Z.C.N.v.q.u.8.8.0.6.X.X.+.0.X.R 4.N.%XC.OXi.i.0.u.8.N.%XSX=X/./.).zXxXbXxXhXhX).~.`.xXzX).!.`.bX!.l.D./.^.g.z.H.H.H.x.H.Y.Y.Y.R.Y.D.D.R.R.^.^.R.K.K.K.K.K.^.D.c.S.D.c.c.L.S.R.E.R.J.m.v.C.a.t.| +.q.M.Y.R./././././.E.R.H././.(.).cXxX6X6X).(.R.!.(.R.U.)._.bXHXJXbXhXhXhXbX).!.).zXhX_.]._._._._.!._._.~._.(.hXzX`.(.(.`.R.F.6XE.f.8.B.N w V I O.OX;X>X-XN.v.j.M.k.h.z.x.4X4XW.H.S.H.K.H.K.E.E.R.^.6X).R.R./.R.<.<.R./.R.0XE.R.W.W.Y.Y.Q.M.T.T.M.M.J.5XMXMX5X=X9XMXiXuXuXtX2Xu._ t.|.n.OX:X5X4X^./.^.R.(.6X^.R.^.4X7XR.S.c.S.D.H.H.H.H.H.R.J.H.J.W.W.H.z.c.c.c.c.H.R.R.H.z.J.K.l.l.R.).R.F.F.F.U.R.!.R.!.!.R.!.`.).!.!.).).).).).~.!.!.(.(./.6X0X/.R.R./././.^.E.^./.0XzX/./.0XvXzXR.R.6X6X).^.^.^.^.^.^.R.F.R.(.8X/.^.E.R.R.K.R.E.^.E.^.!.!.R.^.^.R.R.E.L.J.v.^ h ; % e z [ {.@X%XJ.J.W.Y.H.M.M.M.M.m.j.N.N.N.M.v.j.v.v.b.j.v.j.j.j.J.%XN.8.,.4.8.v.T.;Xf.f.8.8.f.j.j.j.v.M.M.j.8.q.B.N.N.N.M.N.T.T.T.J.T.=X=XQ.J.M.x.z.H.H.D.H.H.R.R.R.R.L.c.D.R././.W.H.x.l.H.R.R.L.S.",
"Y.M.k.j.z.z.h.f.m.m.M.N.M.v.8.9.R 4.9.5.) R 4.8.C.N.N.C.N.b.v.u.u.i.u.6.6.u.u.u.+.+.+.u.C.B.v.b.n.n.6.v.v.N.J.5XiXcXxX0XzXlXzXzX_._._.hXzX`.bXJXbX~.(.0X8X(./.^.E.L.L.L.S.g.k.E.h.x.H.H.H.K.R.!.^.!.K.H.D.S.S.D.R.D.c.c.l.g.l.L.H.^.^.H.x.j.q.N.a.0.+.+.q.j.x.D.K.).8X^.E.4X8X/././.^./.0X).).zXzX).R.!.!.F.R.zXzXbXvXxX)._._.hX_.F.F.!._._._._.zXhXkXkX_.].~.kXbXbX).R.F.!.).).bX!.K.x.f.B.OXN f S ] #.A.&X;XT.%X&XQ.M.j.z.z.c.z.R./.^.R.R.^.^.D.l.z.R.R.S.S.R.S.c.c.c.c.c.D.Y.H.D.D.Y.W.8X;XT.;XQ.J.J.Y.5X9X9XMXMXMXiXuX9X9X9XtX>X6.U t.a.u.OX;X5X=XK.E.^.!.).^.^.^.K.D.D.K.E.c.c.c.l.g.l.L.E.H.M.m.k.x.z.h.f.d.x.R.Y.D.c.D.H.R.m.L.7X/.S.G.!.^.^.^.(.).6X4X/.!.U.R.).`.(.(.0XzX).!.!.).`.).!.R./.6X/.^.(.(.^.).).).(.^.(.).0XxX/.R.R.6XzX0X6XK.R.R.R.R.R.^.^.R.R.U.D.R././.^./.E.K.R.E.E.R.D.F.!.!.R.R.!.R.L.K.J.v.! f - # , 0 ' .XOXN.M.M.m.J.M.k.v.v.M.m.v.M.j.j.j.M.M.N.N.M.M.M.M.j.7.f.j.b.u.v.N.%XC.N.%X5.8.8.8.f.7.5.9.m.N.C.N.v.u.q.8.v.j.f.v.M.T.E.T.=XY.k.7.d.z.H.H.H.D.D.H.R.R.R.R.D.H.R.E.E.E.R.H.x.z.z.S.H.H.m.m.",
"M.M.M.M.x.z.z.x.M.k.m.M.m.j.8.5.4.R E E R R ) ) 4.8.v.v.5.) 9.v.u.u.6.X.o.t.t.O.o.X._ 6.N.OXN.N.n.;Xu.u.q.%X&XQ.MXnXcX0X).!.!.(.I._.hXbXkX].]._.zX`.).).(.0X0X).cX4XR.S.g.<.d.H.h.z.D.H.K.R.!.!.K.D.S.S.z.l.l.z.l.l.l.l.g.g.D.R././.K.S.M.M.v.N.n.u.6.6.8.k.Y.c.F.(./.K.H./.4XE.H.R.K.R.!.K.K.).qX8X^.!.~.R.~.cXHXbX!.F.].hXzXzX!.!.R.!.!.]._._.bXhXhXhX_.].hXHXbXbX_.G.G.!.).).bX^.F.H.J.N.%XN j A ! t.OX%XC.9.,.8.j.7.h.Y.W.E.D.2.2.S.E.H.D.K.K.K.R.K.D.S.S.D.D.D.D.Y.R.Y.S.c.h.z.z.x.W.9X9XQ.9X5X9X9X5X5X9X5X5X9X9X5X9XuX9XQ.C.b.6.U Y t.*XOX>XrX4XE.^.^.^.).!.^.^.^.^.!.E.E./.E.E.E.K.D.l.d.f.k.J.M.l.f.x.Y.Y.H.R.4X/.H.D.E.9XW.J.E.P.L.^.xX!.^.^././.6X0X0X).).!.F.F.).0X).(.(.~.!.~.(.(.(.).6X/.K.K./.0X0XR./.0XzX6X(.!.R.^.6X6X/.6XxX6XK.K.!.^.^.!.R.!.^.R.^.~.R.U.R.H.l.R.R.E.R.R.H.H.H.F.R.R.K.K.!.R.D.L.m.i.! 0 - > 3 q ' s.t.6.j.M.k.M.k.j.j.j.v.m.v.M.j.f.j.v.M.M.M.N.N.j.M.j.j.j.N.N.N.%X%X%XN.j.8.v.v.f.8.8.8.j.v.m.N.N.N.N.N.B.u.6.4.5.8.m.M.J.J.J.j.<.:.<.h.x.H.H.H.R.R.R.E.R.R.R.^././.E.E.E.R.H.S.H.L.L.H.M.H.",
"M.M.J.Y.M.z.x.Y.M.k.j.j.j.8.8.q.8.6.8.q.v.v.8.4.R ) 9.4.R E T q.| U Y Y | | o.o.s.6.| X.v.N.b.v.v.:X8.6.9.b.&X=X5XwXxX).!.F.!.(.kXhX_.I.I.G.]._.~.bXcX~.F.0XvX6X7X7XK.g.<.<.d.h.Y.L.H.H.R.R.^.^.^.R.R.R.K.D.D.L.c.D.D.x.D.R.4X0X0X0XE.H.K.Q.-X>XC.n.i.u.j.-XnX0X0X6XR.S.g.2.2.<.c.D.D.R.!.F.G.R././.R.R.).!.!.).~.U.F.!.).).!.F.!.(.(.~.!.].]._.]._.hXbXzX).).zX)._.].F.F.!.(.).^.).^.^.Q.j.N.C f j C o.u.v.q.R R ,.,.,.h.T.W.E.4Xl.<.c.E.R.H.K.S./.6XK.K.0XxX4X/.'.W.Y.R./.R.c.E.E.R.Y.T.Y.N.j.f.j.T.=XJ.T.9X9X5X=XQ.=X9XMX9XT.4.5.6.O.o.i.OXn.N.=XL.S.F.K.F.K.F.D.K.^.6X).R.S.^.R.D.S.S.D.L.H.H.Y.Q.Y.m.j.z.M.Y.x.c.H.R.Y.D.D.S.E.E.L.P.7X6X(.K.!.^.K.R./.6X0XR.).`.(.~.~.R.G.F.~.).!.F.F.!.).!.!.^.(.).(.!.K.K.K.K.R.^.6XzXcX^.zXxX^.K.K.^./.!.!.!.R.R.K.K.K.D.R.^././.).^.^.R.E./.^.E.R.R.E.K.R.R.R.!.!.!.K.L.v.u.! 0 1 3 5 l K ] ! T 4.j.k.k.k.m.m.v.v.m.M.T.N.M.N.N.M.M.M.M.M.f.M.k.T.Q.9XN.OX%X%X%XC.N.M.8.j.M.N.N.M.m.m.f.v.v.v.B.N.v.9.R 4.5.8.f.j.z.m.<.7.k.Y.E.H.h.<.H.D.D.D.R.R.R.R./.6X6X^.E.E././.L.L.H.L.L.H.m.H.",
"k.k.M.N.k.j.j.M.M.k.j.f.7.9.7.v.v.M.N.N.v.8.8.6.4.X.T R R R R 4.6.Y D Y U Y D D E _ 6.6.i.v.B.%XOX&X6.OXOXC.%X=XH.Q.4X/.K.F.!.hX!._.!.]._.).kX).)._.`.bXxXxX6X!.R.6X4XH.z.R.E.L.4XE.H.D.H.R.!.!.R.R.R.R.L.c.c.D.L.H.H.c.c.L.R.R.R.!.K.z.l.k.Q.tXC.N.N.b.b.9XLXFXDX0XR.R.K.S.S.H.K.R.!.).0XR.G.F.R.R.R.R.).!.F.G.U.!._.).)._.!.!.F.R.~.!.U.].].]._.hXhX_._.).hXhX_._._.).`.(.(.).).zX!.E.R.7.B.Y f v I O.6.6.v.5.j.7.9.7.M.W.W.R.g.S.R.H.c.z.D.R.6X6X6X/.^././././.D.c./.0X^.R.W.Y.x.M.T.Y.M.M.Y.=XH.H.Y.M.Y.Q.M.H.Y.Y.Y.Y.Y.J.M.C.C._ Y %.O.O.:X8.m.k.z.H.E.R.!.D.K.^./.E.E./.6XE.E.E.R.H.L.R.W.m.k.z.m.M.M.k.g.k.Q.=XM.z.Y.W.R.z.S.S.L.P.P.^.^.).6X(.K.F.!.).6X(.~.~.(.!.F.U.(.!.!.!.R.U.!.!.R.0X!.F.F.F.G.F.K.!.^.(.6X0X6X!.K.^././.^.R.R.^.^./.^.^.^./.).)./.).~.R.U.F.l.F./.0X0X6X4X4X/.E.R.R.K.R.(./.!.!./.R.m.u.! 0 1 < < i l Z W | 4.4.,.m.M.T.T.T.N.N.T.j.j.M.M.M.j.j.m.j.m.j.Q.J.=XJ.Y.N.%X;X%XB.v.8.4.v.v.j.j.j.v.J.=XN.N.N.N.N.N.8.R T 4.8.f.f.f.d.g.H.H.J.Y.Y.L.L.R.E.E.E.E.^.^.^.^.R.^./././.^.R.D.D.z.z.x.x.l.f.f.",
"k.7.1.h.k.k.Y.W.M.x.M.M.k.j.k.M.x.L.H.f.9.5.8.8.v.8.8.8.,.7.M.m.6.X.) ) ) T R T ) R T 4.r.v.u.u.OXn.OXn.5.8.%X&X%Xv.k.l.d.G.^.P.F.F.F._.hXbXbXzXkXhX).hXbX6X!.R.^./.E.K./.cXnXwXE.^.R.D.D.R.E.R.Y.x.k.M.H.H.H.Y.R.x.H.H.c.L.E.L.R.2.l.S.E.Y.j.,Xb.Z.C.,XW.8XFXcX`.8XR.R.cXcX)./.6XxXxX6X!.L.K.!.K./.).!.F.K.P.F.].).bXzX_.!.).bX(.kX).F.G.F._._.hXkXkXhXjX_.hXbX_.!._.hXzXzXkXzXhXhXF.S.x.N.B.U 7 x J P ^ u.OXT.v.v.q.) j.;XT.J.g.D.R.R.S.c.H.E.6X6X6X6X).(.R.K.D././.Y.Q.W.-X9X-X9XQ.w.k.Z.Z.Y.h.R./.^.W./.W.Y.Y.R.8XeXQ.x.Y.Y.N.v.| P ] | 6.N.m.m.J.Y.Y.R.R.S.D.R.E.E.R.E./.4X4XE.K.L.L.J.R.J.m.M.M.m.f.f.f.k.M.J.Y.H.M.M.J.J.E.S.L.^.P./.7XP.^.P.P.!.(.!.!.!.P.F.P.^.~.F.P.(.!.!.~.!.!.K.F.K.^.L.G.G.D.F.K.K.K.^.^.^.K.K.!.^.R.R.!.^.R.K.K.R.^.^.R.K.!././.^.^.~.K.F.F.^.(.!.F.R.^.R.F.D.K.R.E.R.L.D.F.F.F.F.L.H.B.! 0 - < < a u v W  .o.b.;X;XN.j.M.T.N.j.j.N.N.N.Z.N.k.j.M.j.Z.T.Q.T.eXT.M.f.&X5XM.9.4.9.4.b.N.C.N.M.=X-XT.M.N.T.T.M.j.8.8.) 8.j.8.9.9.g.l.R.c.x.R.R.x.H.7X6X^.R.H.R././.^./.^.R.K.K.K.R.R.R.D.l.d.L.x.h.<.",
"h.7.7.w.k.M.Z.Y.M.k.M.M.M.k.j.j.x.z.z.m.j.8.q.N.C.u.v.N.J.=X=XM.8.6.6.8.9.4.4.4.R 4.9.8.8.8.N.*X:Xa.p.i.o.+.6.6.u.4.7.m.z.S.P.L.R.!._.).zXzXbXbXbXzX(.!.(.~.!.^.R.H.E.0X0XE.E.0X4X^.K.D.L.R.R.H.J.N.J.M.M.z.f.7.x.g.c.D.S.K.E.K.F.R.D.D.E.W.&XQ.&X>X,X>XW.8XGXqXcX~.'.cXqXqXDXvXxXxX0X).!.F.S.G.D.K.^.).).).hXzX).)._.~.~.~.).`.!.!.].F.I.!._._.hXbXzX_.hXNXbX_._.I.F.F.F.P._.kX_.(.P.D.x.N.b.Y 0 z J W ! X.8.f.8.5.R E 9.%XQ.Q.4XR.z.l.c.Y.E.E.H.E././.R.S.D.K.^.W.R.Y.W.W.Y.M.M.k.j.M.Z.w.1.j.Y.R./.8X4XW.R.Q.8X/.W.W.Q.Q.Q.Y.b.u.U S W ! o.N.uXE.N.N.M.M.R.R.R.Y.R.R.R.R.L.L.E.K.L.H.S.H.H.S.J.H.m.m.M.H.M.k.f.M.E.J.m.z.m.J.L.L./.7XL.K.7X7X6X^.!.(.(.~.P.P.xX6X^.).).^.K.K.K.K.F.F.F.F.F.G.K.K.^.!.L.S.^.6XK.L.F.F.K.K.K.L.^.R.R.^./.^.^./.K.R.^.^.^.E.K.G.R.R.K.F.R.(.).(.R.!.R.H.D.D.D.D.K.K.L.H.K.K.!.!.L.J.N.^ f - , 6 9 l Z ' %.|.;XtX>XM.7.1.w.j.N.T.b.j.j.N.C.T.T.Q.Q.C.M.M.M.-XM.M.m.J.J.m.8.8.8.6.v.OXrXuX9X;X=Xm.J.N.J.N.M.v.8.4.5.j.M.m.j.f.f.d.H.l.l.x.H.H.L.K.l.L.W.7X4X7XE.H./.E.R.H.K.R.R.R.S.H.R.z.H.7.7.1.",
"7.7.w.w.j.k.j.w.h.w.j.k.k.h.9.,.7.9.7.j.8.5.5.u.0.+.6.i.C.%XN.8.) X.6.q.q.8.8.j.8.q.v.v.8.8.B.:XXXu.u.i.6.+.6.6.) R 9.M.J.K.K.L.R.!.(.zXhX(.).hX).(.P.F.K.F.R./.E.H.E.0X4XR./.nX7XR.L.H.R.K.H.D.x.j.7.<.<.h.x.H.R.H.H.E.^.4X6X^.G./.c.H.T.C.&Xb.%XtXVXiXeXiXGX/.0XR.'.qXW./.cX0X0XcXcX/.G.G.R.zX8X/.6XzXzX).).zXbXkX)._.].].U.F.).(._.~.!.].].!.hXzXkX).zXNXbX_.P.!.~.(.).~.(.).P.~.P.K.H.N.b.U y z Z ] | ) 4.9.7.j.j.7.j.&XT.T.E.D.l.x.W.4XR.x.D.R.E.R.D.c.S.L.!.K.G.S.l.h.c.H.L.l.1.g.z.d.d.Y.Y.H.Y.=X=XY.Y.=X=XQ.Y.Y.M.T.T.j.b.u.U V H W X.B.=Xm.v.N.N.M.U.F.R.K.F.R.!.^.R.K.K.K.D.S.S.S.S.z.K.H.H.H.H.H.D.z.d.l.H.H.x.x.x.x.H.x.x.H.x.L.R.H./.^.R.!.R.R.F.F.K.D.D.R.^./.4X/.^.R.H.H.R.R.R.K.L.R./.^.K.S.K./.^.R.K.R.^.^.^.^.R.H.H.R.^./././././.^.H.D.R./.4XR.H.K.R.R.H.K.R.R.R.H.c.c.D.H.D.H.Y.R.R.H.K.R.^.S.J. X .f - & < 9 Z [ @.y.@X>X>Xk.j.j.T.T.Z.b.v.b.j.q.b.C.C.T.T.Z.b.C.-XQ.T.7.8.T.v.f.j.j.9.4.9.OXOXC.b.5.j.N.N.M.j.j.j.b.b.v.q.;XT.j.7.7.j.J.J.j.j.h.f.M.Q.Y.k.M.H.x.f.d.h.H.R.R.H.D.D.K.R.R.H.H.E.W.x.k.1.w.k.",
"k.Z.Z.Z.N.Z.b.w.1.7.w.j.j.7.7.7.,.9.9.4.5.6.O._ Y Y T X.X.) ) ) ) X.5.q.b.b.v.v.b.v.j.v.v.v.v.i.i.i.a.s.t.t.u.u.X.4.8.k.J.W.^.R.R.R.^.0X).~.!.~.!.^.!.!.~.R.R.^.R./.4XE.E.4X0X0XK.D.D.R.E.K.H.H.H.x.M.M.H.M.x.x.L.D.c.L.R.^.^.K.R.E.c.H.T.M.n.n.Z.2XtXeX9XiXeXY.W.cX'.D.^.8XR.Y.l.D.R.D.l.l.R.0X/.E.R.^.!.U.F.F.!.~._.~.!.U.U.].F.~.kX)._.).zXbXhX).hXkXkX)._.).(.6XbXmXvX0X).).P._.!.R.Y.N.n.] y z A [ t.u.j.j.f.J.;XT.N.T.M.Y.j.7.1.,.<.f.k.M.E.Y.H.x.H.L.H.D.S.G.F.K.S.L.K.K.g.S.S.S.L.E.K.H.E.J.J.Q.=XJ.T.-XJ.%X;X-XJ.T.T.b.v.t.U Z J ] O.B.N.M.T.&X&X-X/.R.~.R.K.R.^.!.R.K.K.K.L.L.L.D.S.S.z.x.H.x.l.g.g.g.d.d.d.g.x.L.x.d.k.f.7.7.f.k.x.j.H.D.D.H.H.H.D.D.l.D.D.c.l.D.H.Y.H.D.c.c.D.D.D.D.L.D.D.D.D.D.S.S.S.L.K.K.D.D.R.^.R.H.D.H.R.R.R.R.R.E.E.R.R.R.R.R.x.c.x.H.M.j.h.x.H.M.k.j.z.M.M.M.Y.E.E.E.R.R.E.E.L.J. X#.h - & 5 g W @.#.u.N.C.N.N.M.M.Z.C.b.b.b.Z.N.N.C.C.C.C.T.T.Z.T.C.n.N.b.%X%Xm.j.j.q.9.5.8.B.B.N.b.8.w.m.j.j.j.w.j.b.Z.N.n.%Xn.w.8.v.N.M.j.j.j.j.j.M.Q.Y.k.M.Y.Y.x.j.k.H.J.x.c.c.x.H.R.R.H.R.Y.E.x.T.j.j.k.",
"w.k.b.b.b.b.q.5.9.q.v.M.v.j.j.N.5.0.6.6.t.a.t.] D Y U Y Y E Y _ 0.q.q.j.n.N.M.j.b.j.8.q.b.N.b.u.i.A.i.O.6.u.u.6.u.N.b.j.H.4X0X4X~.^.'.8X0X).).~.).zXbXbXqX^.Y.~.R.7X7X^.^.6XR.d.S.S.R././.R.K.R.H.j.j.M.L.x.D.R.L.S.l.S.K.R.K.K.^.H.L.M.Y.C.q.C.C.>X>XN.M.-XW.Y.D.0X~.c.R.R.c.c.2.2.3.S.R.R.D.g.l.c.S.S.U.~._.U.!._.~.].F.G.G.D.U.).kX~.~.bXvXzXkX_._.)._._._.kXzXzX0X).~.U.U.!.!.(.!.E.J.M.n.| y M J ..i.OXT.m.f.M.Y.k.j.x.c.T.j.j.h.1.,.<.j.M.Y.J.k.h.z.M.H.S.P.g.g.g.S.5XqXJ.g.S.L.S.L.6XlXE.5X;X-X%XT.T.J.J.N.%X;X;XT.%X%Xb.u.t.I m J } e.N.%X&X&XZ.b.Q.'.R.^.R.R.R.H.c.l.l.D.H.H.H.H.H.H.H.h.j.j.j.h.7.7.f.j.7.7.7.k.M.k.7.7.j.k.j.j.w.j.N.k.k.x.H.Y.Q.Q.Y.H.H.D.c.c.z.c.z.l.l.c.z.c.z.c.c.S.l.g.l.D.H.D.S.S.D.K.K.D.D.R.^.R.R.R.R.H.c.D.Y.H.H.D.c.x.D.l.d.h.f.j.M.M.j.j.M.j.M.M.M.b.M.N.N.Y.T.E.E.E.E.E.E.Q.T.n. .l 1 < 5 l P o.r.i.v.v.m.Y.J.M.j.j.q.b.N.N.T.-X-X&X&X&X&XC.Z.Z.q.b.C.C.%XN.T.T.M.u.v.n.Z.q.q.n.Z.b.b.b.w.M.M.b.b.n.n.Z.Z.C.b.w.j.M.N.M.j.b.k.k.M.Z.Z.N.M.j.k.N.Y.Y.Y.Y.M.d.d.h.c.H.R.R.H.c.x.Y.Y.;XM.j.w.",
",.5.6.6.w.q.w.5.w.j.b.b.v.j.M.C.n.0.6.t.t.O.] ] I U Y Y Y Y Y T 5.8.w.j.N.C.N.v.v.m.j.j.j.v.b.b.n.n.6.| 0.n.u.5.N.%XN.h.M.W.4X/./.8X0X8X0X0X0X).0XzXzXzX0X/.~./.^.R.K.^.4X^.D.g.S.H.^.7X^.K.K.E.Y.g.,.1.1.h.R.0XE.^.R.R././.K.K.D.S.R.d.j.T.q.b.Z.&X,XN.N.-XQ.W.D.l.R.W.c.3.D.D.R.D.G.F.R.!.F.l.l.S.F.S.U.).kX_.kX_.G.G.G.F.F.G.`.zX).!._.zX`.U.hX)._.]._.zXkX_.(.!.R.K.D.F.F.!.!.~.!.R.H.M.b.| h M J ] 0.N.C.k.M.M.Y.J.W./.D.x.H.T.Y.T.M.j.j.h.j.M.x.h.7.h.k.x.L.z.z.g.V.4XuXJ.J.V.f.z.S.E.qXxX5X5X-X=X=X=X=X%X&X%X%X%X%X%X%XN.N.s.A v Z ] | u.v.M.N.w.7.k.R.S.Y.H.H.Y.x.h.h.z.j.j.k.k.k.k.k.m.j.w.8.w.k.b.j.8.j.k.k.j.7.j.j.j.j.b.b.j.b.k.j.M.k.M.M.M.Z.Y.Y.Y.H.c.l.c.H.R.R.D.D.L.H.H.H.H.H.H.D.D.D.D.S.D.K.K.E.R.R.R.^././.^.R.R.E.R.x.l.c.D.Y.D.l.h.z.D.H.x.k.j.k.M.M.k.j.k.k.N.Z.N.M.n.N.M.k.x.x.x.D.H.H.J.T.N.i. .l 4 < 5 B U 6.n.N.v.v.M.j.k.N.T.C.b.q.q.j.T.&X&XT.T.T.%XZ.q.q.6.C.;XZ.6.j.J.%XM.v.N.%X&XN.q.w.w.8.j.N.M.j.j.k.j.j.q.b.n.,XT.b.k.M.J.Y.J.b.j.b.Z.Z.j.j.N.M.k.h.7.f.k.H.H.1.g.l.D.R.R.R.R.H.R.W.Y.W.j.M.Q.",
"q.w.w.w.q.w.j.b.j.j.j.j.j.8.8.q.q.5.+.5.+.U U ` ` ..| _ +.X._ +.5.w.k.M.M.J.M.k.k.M.M.v.j.j.j.q.n.i.+.+.u.b.w.j.C.W.Y.H.E.R.H.^.R.0X0X^.~.0XzX).~.).(.(.'.W.~.'./.D.D.^./.H.c.H.c.H.E.R.H.H.H.L.W.W.Y.M.x.x.c.l.D.R.R.R.4X^.G.D.g.l.l.g.z.k.w.q.b.&XtX,X9XeX/.8X8XR.).qXU.D.~.(.~.!.R.F.G.F.U.~.D.D.F.G.F.].!.!.].F.[.[.F._.kXkX!.U.]._.kXkXkX`.).kXhX_.jXkXjX].P.F.R.~.(.~.~._.!.~.!.!.Y.N.b.| h v A ] X.6.j.M.=X-XqXqXcX0Xc.l.E.J.k.j.f.h.l.k.k.L.Y.x.z.x.H.x.f.v.5XuX=X%X&XB.B.:.5.T.%XJ.T.E.=XJ.J.E.=X=X=X7X9X-X4X9X5X-X=XT.n.s.A k B W | 8.v.j.b.C.Y.Q.R.S.c.j.k.M.M.j.j.b.w.w.q.q.q.q.q.q.b.q.5.6.q.i.q.5.0.i.b.q.5.6.q.v.v.M.j.j.T.Y.j.j.k.M.H.x.x.D.H.D.R.D.S.D.Y.S.c.D.D.D.D.D.D.D.D.D.D.R.!.K.D.F.K.K.F.F.F.K.R.R.K.H.R.R.R.R.D.c.c.D.c.D.R./././.R.x.H.M.M.m.M.M.k.j.k.M.M.M.M.M.M.k.z.c.x.z.c.h.c.M.M.v.u. .h 1 < 9 B ^ p.@XOXN.b.M.m.m.m.m.m.v.v.v.f.k.Y.N.M.b.b.b.C.5.) R i.b.i.q.w.M.M.v.j.b.N.N.N.n.C.T.M.k.M.k.7.w.j.j.q.q.k.n.N.C.&X,X;XT.M.k.k.j.k.Z.M.j.j.M.J.J.x.k.x.H.H.x.2.g.S.K.R.R.R.R.^.^./.H.Y.h.M.4X",
"w.5.9.5.8.9.8.j.N.j.8.f.8.5.,.,.) 5.5.) _ ) +.+.X.i.i.i.Z.i.6.b.k.Y.W.T.H.x.x.z.z.k.m.m.M.m.7.) b.i.q.q.v.4.,.T.T.W.W.0XxXR.F.).R.0XbX~.U.).zX).(.).~.~.).~.R.~.H.D.R.0X7Xc.g.l.c.D.H.c.c.H.H.H.Y.W.Y.d.d.x.c.<.<.c.D.E.0X6XR.!.S.G.2.E.=Xj.b.C.&XtXSX9X8XqXR.wXcXJX).U.).~.D.!.~.~._.).kXzXkX).!.F.U.!._._.kXbX_._._.].].]._.kX].U._.zXkX].!.kXjXjXkXbXhXI.I.].)._.~.(.).(.~._.!.!.!.(.E.Y.N.| h h A ] _ T 7.Y.5X9XiXeX/.Y.h.S.h.k.J.Y.L.H.H.H.E./.W.E./.4XE.x.T.8.v.M.9.8.N.b.v.R R 8.8.f.M.H.R.z.z.J.^.L.D.E.L.L.4XwXW.z.z.m.q.O.B h B { O.B.T.j.j.&X-XR.U.D.x.j.j.k.k.w.w.j.w.w.q.q.q.8.q.q.q.q.0.6.+.+.+.+.+.0.0.5.0.q.q.q.7.M.N.M.J.k.h.M.x.H.H.D.D.D.D.D.l.F.R.^.D.l.S./.!.R.F.F.F.R.R.F.G.F.F.D.K.!.R.F.l.F.R.K.D.S.F.D.R.R.R.W.W.R.R.R.R.W./.W.R.Y.D.x.z.k.z.j.k.J.M.j.j.j.f.f.k.N.M.j.M.Y.Y.H.c.h.c.H.j.j.u. .k 1 > 9 j ~ a.@X*XOXC.N.q.j.j.j.j.f.f.7.7.h.j.j.j.M.b.k.5.R 5.5.n.0.5.9.M.M.v.j.j.j.f.5.M.M.T.T.j.w.j.j.M.N.Z.N.b.b.k.k.b.b.N.T.J.x.H.Y.j.j.k.M.H.x.c.x.z.z.z.h.l.c.D.D.2.l.F.!.!.!.!.!.R.K.^.R.^.l.h.l.",
"j.8.8.7.8.7.9.5.f.f.5.9.9.9.9.:.9.,.7.,.R ) ) q.9.8.j.b.M.M.v.M.Y.M.x.z.g.2.g.c.l.c./.R.J.M.,.) 8.n.b.C.%XN.N.M.E.R./.zXzX!.K.!.U.).(.R.!.!.].!.~.~._.).).!.R.R.c.H.R.H.c.g.l.H.c.H.c.l.H.D.l.H.5XW.k.1.<.f.h.d.l.H.S.l.H././.^.F.K.L.L.H.m.j.N.T.9XMXuX8XnXmXxXcX`.(.).`.).(.(._.~._.).kXzXbXJXvXzX`._.jXkXhXhX_._.].I.]._.].I.I.]._._.].I.].kX_.kXhXhX_.I.jXkX_._._._.(.(._._._._.].~.^.W.Y.X.k h Z  .| E ) M.Y.M.k.j.z.c.S.D.c.g.z.L.E.R.K.E.K.z.H.L.L.L.g.S.m.j.T.j.5.5.R 5.5.,.7.j.v.j.k.Q.K.K.K.K.K.R.K.K.K.^.^.L.S.L.K.M.9.O.I k v { t.v.J.M.j.j.j.c.G.G.x.k.k.k.j.j.j.j.8.8.8.w.w.q.8.8.b.q.5.w.q.5.5.5.q.q.q.q.q.q.5.8.f.M.M.j.k.Y.L.l.H.H.H.K.R.R.R.R.!.!.!.R.R.K.F.G.F.G.G.G.F.F.F.F.F.F.D.D.D.D.D.L.S.F.L.D.G.F.K.R.R.Y.c.g.c.E.E.H.D.D.D.D.D.H.D.c.L.z.z.S.S.l.l.m.M.M.k.f.f.f.f.d.l.l.l.z.z.z.k.x.f.j.b.U j ; 1 8 h ~ }.oX.Xa.n.n.u.8.5.9.f.f.f.f.j.k.k.m.k.j.v.M.M.v.b.C.C.v.q.b.T.M.z.j.k.m.k.j.J.m.M.M.j.M.N.M.N.Z.Z.N.N.M.k.j.j.j.j.k.k.k.x.M.d.h.D.Y.x.g.g.D.l.l.g.g.l.c.D.D.z.S.K.K.R.L.K.!.G.F.K.K.D.g.g.l.",
"N.j.8.8.5.9.R R ,.,.9.8.f.8.9.,.j.7.f.,.:.,.,.7.,.5.j.m.M.H.H.J.7.1.2.2.g.g.S.R.R.L.H.M.Y.Q.k.5.) q.q.%X9X=X=X4XR.7XzX0X6X(.!.!.F.!.!.F.!.~.!._.).~.!.U.U.F.F.R.4X4XR.x.l.h.c.H.D.H.g.1.l.z.c.L.Y.M.j.7.1.1.d.z.H.H.z.c.H.H.D.R.P.!.K.L.L.k.j.N.M.;XMXFXwX7X6XxX).(.).bXNXvXxXzXzXbXvXbXhXhXbXHXHXJXvXbXkXhXjXjXI.I.]._.hXbXhX_.hX_.].I.I.].hXNXkXhX].jXkXkXkXhXhXhXzXzX).(._._.).).~.(./.E.T.X.v v Z W | 5.q.N.T.M.j.j.h.d.d.g.H.l.l.S.H.z.z.z.g.2.g.g.g.S.g.x.l.k.Q.M.,.R E R R j.T.W.E.E.E.R.K.F.F.K.!.^.^.^.^.R.K.R.K.D.H.Y.N.o.B k Z ] +.q.7.7.7.j.k.Y.R.U.l.c.c.z.l.j.l.j.f.j.j.j.v.v.v.v.R R ,.q.j.w.8.w.7.5.7.8.8.8.w.8.9.f.j.f.k.J.J.S.x.x.S.D.D.D.H.K.G.G.F.F.K.K.!.K.).^.!.K.F.F.G.G.K.L.D.H.L.S.c.z.z.z.S.z.c.S.D.c.H.z.x.E.W.L.x.H.Y.Y.H.H.H.H.D.z.L.S.m.L.L.S.S.L.M.m.m.m.m.m.m.m.z.j.j.j.j.j.k.M.m.v.v.^ C 0 7 4 c Q *.&.@.] ] | i.u.6.4.9.9.f.m.M.M.M.M.v.v.M.N.N.N.N.b.v.u.i.N.j.8.f.j.J.%X&X&XM.j.j.k.k.M.b.w.j.j.k.M.N.n.j.w.8.8.7.h.j.j.j.k.z.z.D.L.E.L.D.x.x.l.z.x.H.H.H.H.x.J.E.K.L.K.K.L.S.S.S.H.S.l.l.m.",
"N.q.5.8.8.5.4.) 4.5.v.%X&X%XN.N.M.f.f.9.9.f.9.f.j.m.M.H.H.M.m.m.k.j.g.d.d.d.l.H.x.L.J.Q.Q.M.j.,.X.b.C.9XuX=X=X8XR.qXcX6X^.6X6X(.!./.!.K.!.!.!.~.).~.].F.F.G.F.D./.=XW.Y.Y.Y.Y.x.l.H.x.j.M.H.x.x.k.w.7.h.f.7.j.Y.Y.x.l.H.H.l.g.R.K.P.L.H.H.j.j.M.uX9XMXKXmX/.L.F.!.!.).xXvXvXbXzXhXkX)._.).zXbXbXbXbXbXbXbXbXkXhX].].]._.jXhX_.I._._.kXbXNXbXzXkXbXzX_.hXbXbXbX_.hXlXxX6X!.F.F.U.F.!.P.^.E.R.Y.6.B m S W #.OX:X%XT.C.N.N.N.k.k.x.S.z.z.S.x.l.l.x.g.g.z.z.S.E.K.E.E.R.^.H.h.g.d.x.c.Y.^.E.R.R.R.R././././.4X6X6X4XE.R.K.H.Y.Y.H.k.q...S h v V U 8.8.j.v.N.T.T.R.R.K.L.F.G.g.g.g.g.7.d.d.d.f.f.j.j.M.k.k.k.j.7.7.j.j.j.j.j.j.j.j.j.m.m.m.j.j.k.z.f.z.l.l.l.x.D.H.H.7X^.E.K.K.D.D.G.S.z.z.z.S.S.D.H.x.z.j.z.M.m.j.d.7.7.7.7.d.f.g.7.m.j.h.j.j.f.j.T.M.M.k.j.j.j.j.f.x.V.f.z.j.d.7.f.f.7.7.f.f.8.f.j.j.j.j.8.7.8.j.j.v.v.n.| S 0 7 4 z G ' ' A B B C #.O.O.o.4.9.f.V.8.v.N.N.b.u.8.6.4.6.8.6.6.0.u.u.v.q.8.8.j.v.j.8.j.5.5.8.w.v.v.5.w.8.q.n.N.v.8.5.5.5.5.5.8.8.j.j.k.x.k.k.M.m.k.f.f.f.j.v.M.M.b.j.8.M.N.j.f.z.j.7.7.d.j.M.M.j.5.4.",
"b.q.6.6.q.6.5.4.8.6.v.%X;X%X%X&X;XT.T.J.J.E.J.T.J.J.J.J.m.z.f.d.j.h.h.h.j.M.E.5X5X5XN.m.j.8.b.b.+.&X2X2X%XM.Y.4XcXFXmX7XE.6XxX6X^./.!.K.R.K.F.!.~.!.!.R.K.D.S.c.M.Y.Y.M.H.Y.H.j.h.M.M.k.M.Y.M.h.j.7.<.7.k.M.N.J.M.z.h.x.H.h.g.R.S.H.S.M.M.j.w.M.;X&X9XSXFXqX^.K./.).).0XxXxXxXzXbXcX).~.).xXzX!.).`.zXbXvXNXNXNXzXhXhX(._._.!.P.(.(.).(.~.~.hXbX(.)._.hXkX).hX_.hXzX0X(.R.c.S.F.G.F.K.E.K.J.T.6.V Z A ! t.@X%Xv.B.b.b.n.b.j.j.k.m.x.x.x.x.x.S.L.z.l.H.l.x.E.L.L.R.D.S.c.H.^./.W.8XY.D.R.E.H.K.^.4X4XW.W.W.Q.Q.E.Y.=XQ.M.N.=XT.9.T ..Q h y v ! O.B.N.N.C.C.T.E.R.^.K.L.G.g.g.g.g.7.7.9.9.9.9.5.7.j.j.f.f.7.5.f.j.j.f.7.7.7.7.7.5.6.4.4.6.8.8.8.f.9.9.9.9.9.7.f.j.k.l.j.j.z.z.x.x.M.m.x.z.k.z.l.j.j.j.j.B.M.N.M.B.j.v.q.8.8.j.j.8.9.q.v.j.j.b.v.8.j.v.j.q.w.j.j.q.j.f.8.8.8.9.4.8.q.9.9.8.8.4.4.q.8.8.8.6.6.6.6.8.q.n.OXO.S 7 8 p x F K Z v h h k W !  .O.e.e.e.e.X.6.u.u.e.o.| ^ ^ ^ T U U ^ | X.o.6.8.r.u.u.u.u.q.5.4.9.5.q.i.u.b.q.u.i.u.+.X.+.5.X.X.+.6.8.q.q.8.v.v.8.4.9.8.8.X.4.6.t.u.t.0.6.6.u.i.u.u.u.u.8.u.v.B.n.n.u.6.o.",
"i.u.t.t.6.X.X.X.6.6.u.OX@X|.n.OXOXN.%XN.N.%XN.N.M.N.M.m.v.f.f.8.8.7.8.j.N.Q.9XtXJ.M.q.v.B.i.6.T X.@X@Xn.B.N.;X5X5X9XnXwX8XW.S.d.L.L.D.x.K.K.H.K.R.K.R.E.R.L.D.x.M.N.k.7.1.7.j.h.k.k.j.j.j.k.M.j.j.w.7.8.j.T.Z.k.j.j.j.j.M.k.k.Y.H.M.M.N.C.b.u.A.N.;XpXpX9X=X4X5X7X^.^.^.^././.^.E.0XxX).^.).6X(.(./.`.0X0X6XkX).zXlXlX6X(.^.^./.G.K.R.R.F.D.F.G.G.!.!.6X).^.).^.^.R.L.x.z.j.z.z.H.E.E.W.T.N.N.O.V b Z I  .e.e.5.n.i.i.i.u.8.8.8.M.m.m.j.j.j.z.m.m.m.J.m.x.L.x.z.H.S.S.J.4X5X&XJ.Q.N.J.-X5XY.Y.&XT.C.C.C.C.C.C.C.N.&X&XZ.C.,XOX6.O.@.Z 8 u Z !  .p.i.u.i.i.A.T.Q.E.J.M.m.j.j.j.v.v.8.8.6.6.5.6.6.+.+.6.i.n.b.u.q.5.6.6.6.6.6.q.0.t.#.e.t.t.t.u.s.6.6.O.+.6.6.0.q.9.9.6.8.v.v.B.N.b.v.v.u.q.8.6.6.6.6.6.6.6.6.u.u.i.p.i.e.6.6.u.u.+.6.6.6.0.u.u.+.t.u.u.6.6.0.t.6.6.O.O.6.6.6.O.6.6.X.| o.| ^ | e.t.t.u.t.t.t.0.0.i.|.oX#.H q l x F G Z z q w 8 8 h v A ~ ~ ! ! ^  . . .^ ^  .O.#.y. .P P P P P ~ P ! o.e.e.e.e.u.e.6.t.6.O.O.t.y.t.t.0.O.| U ] O...| | | +.O.O.6.+.e.u.6.O.O.%.#.U !  .....} [ ' ' W ] [ [ ! ]  .#.@.[ W I W [ @.",
"%.%.%.O. .] ] |  .o.e.a.a.e.O.6.+.X.r.r.v.N.B.N.v.v.B.v.v.u.8.r.N.b.b.n.N.N.OX&X;XB.u.| T | | #.t.oXt.O.i.:XrX;XSX9XQ.J.J.J.T.=XY.J.M.M.R.L.H.K.E.R.R.R.Y.J.J.Y.T.T.Z.k.w.7.j.j.N.k.N.Z.M.M.M.j.w.N.N.j.w.k.N.M.k.J.N.M.J.Y.M.J.T.J.N.C.C.u.t.n.1XVXZXrX-X;X5X=X=X4X4X4X4X7X4XW.H.E.4X/./.4X4XW./././././.^.(.(.6XxXvXmXxX0X6XqXcX4XK.D.R././.^.E./.E.0XwX6X6XE.L.z.f.7.w.j.j.j.H.Y.Y.T.J.N.n. .V z V A ~ ^ o.e.t.t.t.u.0.6.q.b.M.m.v.j.j.j.j.v.J.J.=XJ.M.J.m.M.J.J.M.N.N.B.C.B.8.n.OXN.v.v.v.n.n.n.a.i.i.u.s.u.i.t.s.XXXX.Xi.s.y.[ b i i p H %.t.t.t.%.t.s.n.Z.OXXXn.u.e.e.e.e.t.#.O. . . . . .......#.%.%... .................s.%.&.&.$.@.@.@.$.#.#.O.O.O.%.t.i.s.t.t.t.t.t.e.| o.o.O.O.O.e.#. . .O. .! ~ ! | ]  . . . .O.t.y.s.O.|  .o. .O.t.t.y.t.#.O.#.O.O.#.#..... . .[ [ W I A I P A I [ #.#.%.%.%.@.O.O.y.#.$.~ H z x x G G b y 7 1 1 1 1 7 8 q h l c c H H A W ~ [ $.$.@.W A ~ [ W B C W !  .#.#.O. .| O.O.t.t...] ....] ] ] U I I } &.=... .....O.O.........@.@...Q Z k v v b v x x z p 8 8 p y w 8 y h h y w 7 q x G ",
"I A I I I I I ! C A P P P C C C U Y ^ o.e.n.p.B.6.6.6.6.6.6.6.6.0.6.6.t.u.u.u.i.p.O.XX#.|  .I %.}.s.] U O.p.OXOXC.%X9XpXpXuX-XT.%XT.M.M.T.J.m.M.T.J.H.J.J.N.N.T.N.N.N.Z.b.w.w.k.M.j.N.-XT.M.k.8.w.q.b.q.8.w.j.M.M.Z.M.M.T.T.M.M.N.b.q.q.0.X.| %.@X@XOXn.N.&X%XN.J.%X=X=X=X=X=XT.-X=XQ.Q.W.T.M.j.-X-X8X4X4X/.4X4XqXqXqXnXnX9X5X5X5X5X9XiXFXFX9XY.5X9X=X4X4X^.W.H.R.M.j.w.v.b.n.b.j.m.j.M.v.u.u.~ V V H ~ ! ^ o.#.U U U U T _ 6.u.b.v.q.q.q.v.v.v.v.8.v.q.8.q.8.v.v.u.T U P Y  . .| ....! A P I U ! ! W I P A A A ] I W [ [ W W [ W H x i < 4 z @. . . .[ [ ..+.6.%.@.[ W H A Z Z Z b z z z l z l z y y y y z M M x x z z y y y y y h l c v V V V V V V V V V B V S S S S A A A S I W W W W W W W W ~ W W A A A A B S A H W [ @.@.[ ! [ @.@.! I W  .@... .] [ ] ] { ' Q H A Z Z V v Z Z Z m m Z J H W A A S Z A A I C B f c p L F G H b h y u i u 4 > > - - - 1 1 0 g l v H H J J c c V J Q H v c A A W [ &.&.@.] P P ] ] S B B B B V V v B J ' [ } ' W ] ] W W I H Z Z Z Z z q 1 1 1 > > % % % % > % % % > # # - @ > > > > , 3 3 ",
"h f f h k k j c B B B j f g j j c f j j A ! P P A P P I ~ ! |  . .] ] ] ] ! I I W k I j N ' V } *.} V B A P O.i.a.n.n.i.u.i.n.n.i.u.6.u.n.n.u.b.u.u.u.i.u.t.t.t.n.0.O.+.| U _ 6.i.X.6.i.0.+.+.X.X.U U X.+.+.6.u.q.q.6.q.b.u.6.6.6...U U U S S { @.%.@.! P Y Y Y U T T U U T T T U T 5.6.5.+.6.i.0.t.u.u.u.q.q.u.v.8.9.8.i.u.r.r.OX@X@XOX*X2X2X*XOX&XOXOXn.i.n.n.p.t.O...o.O.o.| t.u.t.t.e.O. .C Z Q } [ ! ~ P P P S C C C Y ! O.i.t.O.O.6.t.6.O.6.X.O.O.O.6.6.a.y...B j j g B f A k f c B j f h h h h h h h h v c v v h 0 0 h v f l 9 > < i l c h c V Z Z Z S S v l u 8 4 1 1 > - - - - # # # # # % > % % % % % % % % % % # % # - - > - - 1 1 - 1 1 1 1 1 1 1 1 1 1 7 1 7 7 1 ; 1 1 7 7 8 7 w w 7 7 w 0 q q 0 0 0 q q q h l h 0 f c c 0 7 0 0 w 0 f h f 0 0 0 w 1 1 1 1 1 1 1 1 7 9 y y 8 9 i y q 0 8 7 7 7 0 0 0 0 f 7 q q G ' [ ' H V v v z z z y 9 4 1 1 ; ; 7 0 0 q l c b b l l z p p l n n z p p b K K Z q h q h h 0 0 q w w y y 8 y M F M m x l z z l y q 9 8 8 9 4 - # > # # # @ + + + + + + + + + + + + + @ + O . + + + ",
"c g q g h g g l G b l l l h h h 0 q q q q q u u q q q q y u y y h h h h y q 8 8 u 8 8 u y y p x M l h l h k k k k B V h h k v k k k k k v B k h k k v B v z h z v v c h h h y h h h h y y h h y q q q h h f f j c f f c c f f j h l l y q 0 h h v v v h 0 w 8 q 0 0 w 7 0 0 0 7 0 0 0 0 0 h h h u y z z y 0 y h k k k h q 0 y h f k v c h v v V h c c h 0 0 q h q q q q q q 8 8 0 h h f h c v V @.}.{.&.[ W B j v c l h y h z v A H W Q ' ' H V A V k k v V B Z z l p l l l h g k h h g q 0 7 1 1 1 1 7 8 8 1 1 1 1 1 ; 1 7 w q y l l p x M x p 7 9 q 8 4 1 1 1 1 1 > > % % % % % @ % @ + + . . + X . . . X + + * + + + + + + $ $ + . O $ $ # @ + # # # # # % % # # # # # # # # # # # @ # @ # > # # # # # # # # - # # - - @ @ - - - - # @ O @ @ @ - @ - @ @ $ . O @ @ @ O @ @ - - - - - - > > 4 1 1 1 > - - 1 ; 7 7 l v k H *.}.{.|.e.O.y.t.s.#X&..X&.@.{ ] { C j j j k h c l 8 4 > > > @ @ & & , & & , , < , % > > > # # # # # @ # # # # # # # % % # + + @ @ @ @ O @ @ @ @ @ @ O O + + + + + + X + + X . + + + . + + + + + + + ",
"h h c c c l c v l g l c b v l l q 8 4 4 4 4 4 1 9 8 8 4 8 4 9 9 7 w q y u 4 - - > - - 1 1 1 1 8 y q l b z v v h f k v h y h h u u u u u y M M M h y y u 9 i u p u q 8 8 8 8 i p 3 3 4 > > 4 4 > 4 2 8 9 8 q q w 0 q q w q g g 0 q q i q 9 q l z z l l u 9 3 3 9 4 2 4 4 4 3 3 > > > 4 4 4 4 3 3 > , < 3 3 3 9 9 8 8 4 4 4 4 4 4 1 7 7 1 1 1 ; - 1 1 1 1 1 1 4 4 > > > - - - > 4 > 1 1 7 0 0 k A y.{.oX}.%...W B 0 0 y h z z z y l z b z z b l y y y q l l q 0 7 q i p z b b V V V V V V V c l q 8 8 8 9 q i 9 8 q q q q q y l z z Z H H K K K b p p z a p i i i 4 1 > % # + + @ @ O @ O O O   X   . $ * X . X + % + @ + @ O O @ O . . O @ + $ $ & % % # # @ @ @ # # # @ + # # # > > > # # @ # # > - # # - - > > # # - - - - - - ; - @ O . X X . # - @ - @ O + . . O @ # - - - - - - 1 1 9 9 9 9 u 8 1 1 9 q w 7 q f V A A ! #.e.*X%Xv.u.:X*XOX*XZXZX3X3X*XXX@XXXO.e.o.! I A v q 8 > > # O @ & & & & * & & & $ + # # @ @ # # - # # # # # # # # # O O + + + + + + @ O O O O O O O % # # @ @ @ # % @ # # @ @ @ @ @ # # # @ # % > > ",
"S C B j j c W ..~ W A V c f f f V l h y h l h y q 0 0 8 8 8 0 0 h 0 0 0 0 0 y l y 8 8 y y 0 0 h v v H [ Q W A S N B C B k h 0 0 0 h k v Z Z S m Z Z v k z z y 9 l l l y q q 8 w y u 8 8 7 8 u 9 1 8 u p b G H V c V A c f g c c z v v v v v Z A A Z V l q 7 1 1 > > > > % % % % > > > > > > > > 3 4 4 4 8 8 8 w y 0 w 8 w w 7 7 7 7 0 q h l l q 7 1 ; ; 1 1 ; ; 1 7 7 1 1 1 7 w 7 7 7 f v B W }.+X<X2X<X+XoXt.! [ W V V v v h 0 0 0 q 0 0 0 0 0 0 0 q y h h h h z z z b Z ~ @.%.s.s.%.$.@.Q H Z V v v v b b b v Z Z V V V Z A H H { } @.@.*.} J Z v v Z Z x z z l h u 9 9 4 4 4 4 - 1 - # # O & & % # # % % # # > > > > - - - - 1 1 2 2 2 4 8 8 7 4 1 4 8 9 8 8 7 7 1 1 1 1 7 7 1 1 1 1 1 7 7 7 8 7 7 7 7 7 0 0 h c v c v c c h c g q 2 , $ @ @ - - - - - @ # # - - 1 8 l c v v Z H W Q Q Q ' ' [ ' H H H W A C P ! O.e.s.*X3X;XrXuXrXrXrXrX2XtXrX2XpXVXtX1XA.OXyXyX2X@Xy. .S f y ; @ # > 3 < # % % > , , , > > > > - 1 1 7 7 1 1 1 1 ; 1 ; - - 1 1 1 1 1 1 - - 1 ; ; 1 7 8 q q q q 0 q y q y h q 8 8 8 w 7 1 1 7 7 7 1 7 w w w ",
"{.a.t.o. .#.XX1XZXfX3X#X{.#. . .] ~ W W W W W W W A A S S A I W ] [ @.&.&.%.@.} } [ } @.@.@...@.@.@.s.{.y.#.o.|  .|  . .] I I I I { @.%.....] I P B N j k h h h f h c h h c l l 0 0 0 0 0 0 y h h c v V V A A A W A A W P S A ~ A H W W W W ! ] ! W W A V z y y 8 9 u 3 , < 3 < , > > > > > 4 4 4 7 7 w 0 y h h h h h h k k k k B c N c v j h f k f f f f 0 0 0 f f f h k j k k B C S I  .O.i.<XyXpXZXKXKXKXZXyXXXa.O.] U A C j k h f 0 0 0 0 0 8 8 0 h h v v Z J H H [ %.{.#X3X3X3X3X<XoX{.y.@.@.[ [ ' ' ' ' ' [ [ ] [ [  ...@.#.%.s.s.{.}.&.@...W W [ } W A H W W H J Q ' ' [ [ H H b r < # 5 9 8 8 q l b m b v z v v c l g g f g l h j c v v B c v B A Q W W @.@.@.@.........%.@.@.@.#.%.y.s.}.}.{.{.{.{..X{..X|.{.y.y.a.y.#. .$.$./ a > # > - q q l c l b b H H W [ $.s.{.}.{.{.|.|.oX|.{.{.a.|.XX{.y.t.u.a.|.OX XB.N.;XsX;XuXMXMXiX9X;X;X9X9X-X-Xu.q.&X%X;X9XrXpXaX3X<Xa.@.B k l x l p 9 > 3 3 9 9 9 8 8 w 7 0 c A W } @.&.&.$.$.$.@...[ [ { [ [ [ [ [ [ [ ..[ ' [ @.s.}.}.{.s.%.&.%. .! ! @. .@.&.&.=.@.&.%.%.$.@. .[ W A ",
"KXKXZXdXdXdXZXKXKXPXPXUXUXPXKXZXZXAXZXZXZXAXZXZXZXZXZXdXCXAXZXZXPXPXPXPXPXAXAXZXAXAXAXAXAXAXAXPXZXZXZXZXZXyX3X<X2X*X1X2X3X1X2XyX3X3XyX3X2X2X2X1X@Xt. .| I N j B A W A B B B B B V C C B B v V S A W ] @.$.#.#.p.{.#.| o.#.o.| ! |  .#.t.s.i.a.n.i.y.%...! C j f w q 9 4 > > 4 9 1 > > > > 1 1 7 7 7 0 f k B A I ]  ...#.%.s.{..Xa.{.XX#X#X$X1X1X#X#X#X#X#X#X#X#X$X#X+X1X3XfXfX1X1XyXyXyXZXZXZXKXKXKXSXpXpXpXtXtXrXtXyXyXyXyX2X1X%...] W I I A A A Q } =.=.[ ' W ! [ %.+XdXAXZXdXaXaXyXyXyX2X<X+XXXXX.Xa.i.y.i.a.a.a.i.i.n.|.XXXXn.|.OXOXOX@XXXa.a.t.t.s.a.#...O.e.e.t.s.{.oX+X#X<X{.}.} b 8 - e j ~ %.{.}.s..X#X+X#X#X#X#X#X+X@X|.XX@X@X<X2X2X1X1X*X*X*X1X2X1X1X2X1X1X*X*X:X:X:X:XOXn.n.N.OX%X:X:X:X:X*X;X:X%X%X2X2X;XJ.N.%XC.B.r.a.}.*.G 3 > 4 q ' $.$.y.}.}.}.a.p.s.p.n.OXOXOXOX X XN.N.N.n.n.v.N.N.N.N.N.%X;X-X5X-Xm.m.J.E.E.qX4X4XW.W.W.R.x.H.M.=XJ.T.9XT.M.=X4X9XuXpXaX2X+XXX{.}.} V l b m u p l z z c v C j P #.{.XXOX@X@Xn.B.u.B.B.u.u.u.OX XOXOX:X<X2X3X2X<X*X*X;X<X;X;X:XC.N.OX&X&X%X&XOXOX&XrXyXaXtXaX2X2X2X;X2X2X2X*X",
"PXKXKXpXpXpXpXrXOX:XtXKXPXKXKXKXKXPXPXPXPXKXKXKXVXVXpXpXVXVXKXKXKXVX2X:XOXOX*X2X2X2X3XyXyXyXVXVXaX;X*XsX*X:X:X%XOXN.N.OX%X%X%X;X3XyXVXZXZXKXKXVXZX2X<X2X<X|.t.#.%.}.{.{.{.a.y.O. .|  . . . .#.t.oX@X<XyXyXyXyXdX3XZXZX2X*X<X*XOX<X<XrXaXpXpXpXdXZXdXyX1X@Xa.#.[ W ' ] J Z H J ' { ' ' Q ] [ } @...#.%.y.a.{.@X+X1X1X1X3XyXZXZXZXKXKXKXKXZXZXyXZXZXZXZXZXyXyXyXdXZXyX2X2XVXZXKXKXZXKXKXKXKXKXiX9XMXnXiX5XE.J.T.T.;X9XuXpXVXKXKXPXPXAXAXAXAXAXAXAXAXCXCXCX3X#X.Xs.y.t.a.<XdXdXrX;X5XsXuXtXpXtXrX2X2X2X1X*X*X&X&X&XOXOXOXOX&X;X;X:X;X:X&X:X;X;X;X:X*XOXOXOXOXn.n.n.A.C.n.A.C.OX%X&X&XB.n.#.V 1 > z }.@X1X2X*X@X1X2X>X2XtXtXaXpXpXaXpXSXVXpXpXSXSXtXuX9X9X5X9X;X;X&X%X%XT.J.J.J.J.M.T.J.m.m.J.T.=X=X4X4X4X4X=XE.J.H.J.J.H.z.z.z.z.f.m.V.e.[ Z 8 > ; l -.{.a.B.p.u.6.v.q.q.8.j.v.M.M.M.M.M.m.m.m.m.m.m.z.z.m.R.=X=X=XW.5X6XE.K.L.L.^.^.E.^.E.R.R.E.L.E.l.l.M.J.J.H.=XE.^.W.E.T.T.%X%XOX@X#X$X.X@.Z 0 h v A ] [ ..%.t.t.n.*XrX>X%XN.m.H.m.z.H.J.J.H.J.J.J.J.T.=X-X;X5X-X=XQ.T.R.J.H.m.f.f.f.l.H./.qXiX5X=X4X9X9X9X9X9X4X=XQ.Y.Q.5X9XuX",
"uX9X=XJ.J.T.T.J.M.v.m.N.Q.%X-X;X-X5X9XrX9X;X-X-X-X-X-X-X;X;X;X;X%X%XT.%XT.N.n.N.N.N.C.C.C.C.C.C.N.m.m.N.B.N.J.N.T.T.T.T.T.N.N.N.j.b.N.%X&X-X%XN.b.N.OX1XyXZX3XXXO.{.1XdXAXKXZXyXZXZXZXZXZXZXKXPXKXPXKXZXVXVXrX&X%XpXPXKXKXKXPXPXLXLXKXLXLXLXLXLXLXPXKXKXPXPXKXKXZXZXZXdXyXdXAXZXAXAXZXZXZXZXZXZXKXKXZXKXKXPXPXPXpXrX;X>XaXZXZXpXtXrXuXpXVXVXpXVXpXpXtXrX>X;X&X%XOXN.b.b.C.&X>X9XSXKXKXKXLXGXqXqX6X6X8XqX8X8XwXMXnXwXeX9XiXGXKXKXKXZXZXZXZXZXZXKXPXPXZXZX3X1X@X@X@Xn.i.OX;X;X-X-X5X5X5X9X9X9X9X;X>X2XrXrX>X;X;X;X&X%X%X-X>X9X9X;X9X;X-X-X;X>X>X>XrXrXrXrX>X;X;X>X&X%XT.N.N.M.H.L.H.j.b.O.B 1 > F #X%Xb.v.b.n.b.k.Q.;X9X9X9XiXiXiXMXGXMX9X4X4X4XR.W.E.E.E.E.R.E.E.L.L.L.H.H.S.S.S.z.g.l.S.K.E./.^.6X6X6X6X7X7X^.^.K.L.K.K.L.G.G.S.S.f.6. .Z 9 > ; c %.s.e.8.R R R j.j.j.j.k.k.H.L.H.L.L.L.L.L.H.L.E.L.S.L.E.^.W.K.^.6X7XP.L.g.2.g.F.K.).4XK.R././.S.D.L.4X5XL.H.L.z.S.H.L.H.S.J.%XrXN.6.o.....W B j A ..s..XXX:X;X&X;X5X9XwX9XwXqX7XP.P.7X6X7X7X6X7X7X7X7X7X^.^.^.E.E.^.^.^.K.K.D.!.).).R.F.R.(.).cXxX6X/./.6X/.^.zX0X).K.D.D.D.D.",
"E.Q.W.R.Y.E.J.M.m.j.j.M.J.J.J.J.Y.T.E.=X=X=XQ.T.Q.Q.Q.Q.Q.T.Y.Y.Q.Y.T.T.T.N.N.J.N.N.N.N.M.M.b.v.m.f.m.J.m.m.J.J.J.J.T.Y.Y.T.M.m.T.N.b.v.M.J.N.M.N.N.q.6.n.2X*Xe.s.|.+X*X2XZXKXKXPXPXPXPXKXVXVXKXVXKXKXuXtXKXiXL.E.J.E.9XMXMXiXuXFXmXnXnXnXMXmXFXFXFXMXpXMXSXKXSXLXLXLXKXKXKXKXKXPXPXPXLXKXSXMXiXSXpXrXrXpXpXpXuXuX-XJ.=XuXSXMXiXGXiX9XMXFXGXnXMXMXiXiXuXiXuX5X%X9X9X9X9X9XiXSXKXGXGXGXGXGX4XE.8X/.4X0XqXwX8X0X0XwX8X9XwXGXGXGXiXSXVXVXVXtX>X9X9XiXtXtXyXyX2X*XOXXXi.i.OX;X;X;X5X-X4X4X5X9X9X9X5X-X;X>X9X>X;X-X-X-X&X-X9X9XuX9X9X5X=X=X=X;X;X;X;X%X-X;X&XT.T.%X%X%XQ.T.R.E.^./.).^.K.%Xi.C 1 > G t.j.b.b.M.Z.Q.W.Y.W.-X5XqXnXMXnX4XcXnX6XE.R.R.K.K.R.R.R.U.R.R.R.R.K.R.K.K.K.K.K.^.^.^.(.6XzXzX6X/./.^.^.^././.(.!.P.^.(.~.F.G.K.S.H.C.a.Q q 1 1 c $.u.r.v.,.<.z.k.x.x.x.c.z.c.D.H.H.H.L.H.L.D.S.F.L.L.L.K.K.E.^.L.K.S.S.L.g.d.L.c.l.D.R.H.E./.D.x./.K.R.L.z.R.L.D.R././.K.x.l.m.7.8.u.u.| P N f C ] s.@X+X&X%X&XiX5XL.H.R.7XxXcX6X^.^.6XlX6X).6X6X6XzXxXzX6X7X(.^.).6X6X).(.!.!.P.xXJXkX].!.).).zX).~.F.].(.).^.F.!.~.!.!.!.!.!.",
"Y.W.8X=XH.M.Y.M.H.M.N.J.N.M.M.T.Y.Q.=XT.R.=XW.Y.W.E.Y.J.Y.E.E.T.N.Y.Q.Q.T.Y.Y.Y.T.Y.Z.N.N.M.M.M.N.J.M.m.m.J.J.M.J.M.M.J.J.N.M.N.M.T.&XQ.N.j.v.v.j.b.;XOXB.OX6.Y o.n.@XOX*XrXpXKXSXKXSXiXiXpXiX9X-X5X9X5X5X6X^.K.^.qX7XR.7X4XW.7X7X6XlX6X(.(.lXnXmX6X7X5X8X5X5X5XmXmXnXmXFXFXmXnXFXFXqXcXnXnXmXqX5X5X9XuX9XuXuX-X=X=XW.4XuXnXnX5XqXnXDXFXFXDXDXFXFXLXnXLXIXFXFXGXiXFXKXuXLXLXLXGXwXnXGXDX0XR.R./.E./.4X/.^.^.E.R.R.R.E./.0XqXcXnXwXwXwXwXqXqXqXqX9X=X9XrX&X:X&Xt.n.a.i.u.N.C.%X9X5X5X5XW.W.8X;XN.T.&X-XW.Q.&X&X&XY.T.=X9XiX9X9X8XQ.Q.T.J.Y.Q.&XW.W.N.M.M.N.N.N.T.M.M.Y.R.E.^.^.(.).^.;Xi.C 7 4 F a.n.j.C.Z.k.Q.Y.k.Y.Q.Y.Y.W.9XwXwX/.W./.8X/././.qX/.R.).8X`.)./.R.R.R.^.E.K.R.^.^.!.R.R.!.!.!.K.K.K.!.6X6X^.!.^.F.K.!.!.R.K.K.F.!.6XN.a.} y 7 1 A $.n.8.f.g.z.x.k.J.Y.M.x.x.h.1.h.z.c.l.D.D.c.z.c.D.R.E.K.R.E.H.H.H.H.H.x.k.k.z.x.c.c.H.Y.H.c.z.h.Y.W.M.d.g.m.J.M.D.E.L.H.R.x.E.J.C.v.6.| Y j B U t.XXXXA.C.Q.Q.E.R.R.K.F.D.!.0X^.F.^.^.vXxX6X).xX6XxXcXHXHXxXzXcXxXxXxXxXcX`.!.~.kXHXzX!.).]._.(.(.(.~.!.~.!.U.`.~.(.0XzX(.).bX",
"J.J.Y.T.H.Y.T.M.W.Q.Q.Q.N.j.h.j.T.Q.E.Y.Y.Y.J.M.Y.E.Q.=XW.E.Y.M.&X&XW.Q.E.Y.T.T.N.Y.Z.N.M.M.M.N.T.M.m.J.J.J.T.%XT.N.N.J.J.M.M.J.m.m.M.N.J.J.N.M.-Xv.b.B.n.n.T D ^ u.OX:X>X;X=X=X9X9X5X4X5X8X5X4X9X8X8XqXqX6X/.^.7XxX/.L.K.E.E.6X6XlXxXbXbXxX6X(.(.^.^.^.E.K.K.K.^.(.xXcXvXcX0X6X6XcXxX6X7X7X6X^.H.H.R.4X5X9X9XQ.x.S.L.=XqXnX8X^.0XxXvXmXmXDXHXHXFXLXnXwXnXDXHXGXGXuXeXiXLX8XW.4XqXY.D././.Y.D.R.E./.4X4X/.4X/.W.D.H.R.E.W.4X4X8X0X0X0X0XqX0X0XqX6XR.T.M.9.q.C.u.t.t.t.u.OX:X;X9X9X=X-XW.N.M.Q.&XZ.T.T.T.Q.Q.Q.Z.Y.Q.-X8X-XQ.T.Q.5X;XW.Y.N.Y.T.T.N.j.7.j.N.T.N.k.Y.Y.E.E.!.!.!.!.)./.5Xu.C 1 % M t.b.w.N.Z.Z.Q.k.Z.Z.c.k.k.M.x.l.E.R.Y.R.W.W.W.W.W.W./.0XqX`./.^.^.H.D.R./.4X/.E.R.K.F.F.F.F.F.S.R.H.R.E.^.R.K.R.R.^.(.^.^.(.).(.R.7XN.i.{ y 1 1 H %.|.v.z.x.x.D.z.M.M.k.k.k.h.1.R 7.h.h.h.h.h.x.z.x.H.H.x.x.H.l.M.x.k.k.j.j.j.j.k.z.x.Y.T.J.k.j.h.j.f.,.,.f.m.M.H.z.z.g.c.H.g.x.T.M.6.X.o.! B j ` a.@Xi.q.C.T.k.H.R.^./.).).).6XcX^./.K./.).0XcX^.^.0XxXcXHXDXHX6X0XzX).(.(.~.!.bX`.zX!.!.`.!.!.~.).(.~.(.).).~.).~.~.).'.`.`.'.",
"M.j.k.m.j.M.N.k.M.N.T.T.T.C.T.T.J.H.J.Y.Y.J.J.J.J.Y.Y.T.T.T.Q.W.Q.T.N.M.M.M.J.Y.N.J.Z.N.M.M.N.N.T.k.j.M.M.q.j.M.C.N.N.M.k.j.k.M.N.j.j.v.M.b.b.N.C.8.u.u.t.t.| Y U 6.n.:XrX9X5X5XqX5X4X8X5X7X7X^./.W./.0X0X6X6XxXHXHXzXK.S.S.H.^.6X6X).(.(.(.!.K.).6X6X6X/./.^.!.R.E.^.E.R.H.R.R.z.E.W.4X6XqXcX6X0X4XwX8X4X4XW.x.Y.R.W.7X0XcXcXwXHXHXmXcXxXxXcXnXHXDX/.^.6X/.qXnXnXY.J.Q.GX8X0XGXnX0X/./.R.c.c.R.D.R.R.R.R.R.R.Y.H.E.E.T.E.4X4XW.R.R.R.R.!.^.^.R.S.L.5X9X&X;X%X6.U  .#.i.OX;X;X>XQ.N.;XuX-Xb.k.M.M.M.M.N.C.C.N.j.M.T.;X9X;XT.Y.T.&X&X&XQ.Q.-X9X9X-XQ.T.T.&X-XQ.N.Y.Y.E.R.R.R.!.!.^.R.&Xu.B 1 > F s.N.b.b.k.Z.Q.k.k.j.w.k.M.M.k.j.j.c.x.c.x.D.D.x.Y.R.~.R.R.~.'.'.8X4X/.E.R.H.D.H.E.E.E.E./././.^.Y.H.H.Y.H.H.H.H.R.R.R.H.D.D.D.D.G.H.v.t.] 0 1 7 H #.n.v.m.S.D.D.M.N.M.k.w.w.5.) _ w.j.w.w.7.h.j.f.j.k.k.j.k.M.j.k.k.j.j.j.w.w.w.j.j.M.T.T.N.j.7.8.8.7.,.9.j.M.N.Y.k.j.h.Y.W.H.H.m.v.u.6.o.I C D O.A.C.i.w.M.Y.H.c.D.D.D.R.^.^.R.R.H.4XE.0X4X4X0X0X0XmXnXcXwX^.^.0XwXqX4X^.R.R.R.F.G.D.G.G.R.U.).).(.~.R.R.R.R.Y.D.W./.Q.x.D.Y.Y.",
"T.T.Q.T.k.M.Z.N.N.Z.Z.Z.M.M.N.T.J.m.M.T.Q.J.J.Y.J.J.Y.Y.Y.Y.W.-X&XT.N.N.Y.T.Q.Q.Y.N.N.N.N.Z.C.N.=XJ.N.T.N.v.j.b.M.N.N.b.j.j.M.Z.M.b.v.b.j.5.q.Z.q.q.u.6.6.i.t.U Y  .p.@XrXtXuXMX7XW.^.7X7XJ.L.E./.E.^.6X6X/.6XvXxXxX).R.R.E.7X0XxXxXxX6X).^.).6X^.6X6X).^.)./.R.^.E.R.H.c.k.x.Y.W.4X-XwXnXcXcX7X4X4X4X8X4X5X4XY.J.J.M.x.D.E.0XwXvXcXzX6X0XxXcXcXnX0XR.4XwX7X4XnXGX9XE.x.8X0XwXwX0XcXqXR.c.D.D.c.R.E.E.E.R.L.H.H.z.H.H.k.x.T.E.H.W.^.W.W.(.^.^.R.nXE.z.J.tXKX%XN N [ s.XX@XOX&X>X9XT.T.;XQ.Z.Z.C.Q.&X&X&X&X&XT.N.&XQ.Q.T.M.N.Q.;X9X9X9X;X;X;X;X;X;X9X9X;XW.W.&X&XE.E.E.E.R.!.!.!.^.R.&Xu.V 1 4 ( a.n.k.j.7.w.Z.k.Q.Y.Y.T.M.j.h.j.k.H.Y.x.x.x.Y.x.Y.R.Y.x.D.~.'.'.H.E./.E.H.x.H./.H.H.H.Y.R.E.E.E.H.H.x.x.H.H.H.Y.R.E.E.H.D.H.H.D.S.H.b.t.] h 1 7 B  .t.q.m.M.x.x.M.N.N.j.j.w.5.,.5.q.w.8.j.k.j.j.j.j.j.j.h.j.M.j.k.j.j.w.w.w.q.q.q.j.v.M.v.j.5.,.7.j.j.j.8.v.N.C.j.j.j.k.Q.4XH.k.j.M.N.n.t.U B A t.0.q.n.b.j.z.E.R.^.W.Y.Y././.E.W.Y.5XE.4X4X8XwX/.E.4X4X8X8XR.D.4X^.R.H.H.D.g.<.l.S.R.R.U.D.U.^.^.^.R.H.D.D.D.c.H.Y.E.Y.Y.Y.Y.Y.",
"Q.N.N.J.M.N.N.M.M.M.N.M.b.k.k.j.T.J.J.T.T.H.M.J.J.Y.W.=XQ.Y.Y.J.Q.Y.J.J.R.Q.Q.R.E.J.M.M.J.T.C.N.J.T.Q.%XQ.T.C.N.b.Z.Z.M.M.M.Y.Q.N.M.M.M.j.w.b.C.b.b.u.i.A.@Xt.N k ] i.OX>X&XT.Q.m.H.R./.E.L.R.4XqX7X7X6X7X/.7XxX7X^.^.^.7XqXqX0X6X0X0XzXzXzX0X).^.).(.!.^.6X).R.E.R.R.Y.Y.T.Q.T.9X8X8XiXcX4XqXwX/.E.E.E.E.W.-XT.j.k.k.z.k.Y.W.4XwX0X/./.6XwXqX4XE.4X0X4XwXFXnXnXiXwX8XH.4X6X/.K.R.E.R.D.W.qX8XD././.^.E.R.H.H.H.x.H.H.z.k.Y.T.Y.W.Q.E.E.^.^.E.E.L.Q.=XN.N.&Xn.| C  .y.{.@XOX%X%X&XC.Z.Z.M.Z.C.C.T.&X;X%XT.J.N.M.Y.Y.J.J.M.M.k.k.=X=X-X;X-X-X%XQ.Q.=X5X=XQ.Q.=X5X4X4X4X/./././.).8X=X;Xi.V 1 1 K XXb.N.N.j.8.k.T.T.Y.Q.W.Y.k.k.H.x.J.H.c.z.x.H.H.Y.W.W.R.R.^.~.Y.H.Y.R.Y.R.R.E.E.R.R.H.D.S.D.D.H.Y.H.x.k.x.H.H.H.D.H.R.R.R.E.E.E.!.E.T.u.{ k ; t B  .u.8.j.M.k.k.k.m.M.j.j.j.q.w.5.8.5.9.j.m.j.z.m.j.j.j.7.f.j.d.k.k.j.j.j.j.q.v.j.j.j.8.8.5.9.,.5.8.q.8.w.j.b.b.b.C.N.N.R.Y.S.g.H.M.N.|.{...S C i.q.q.Z.N.h.h.H.E.8X0X/.Q.E.Y.k.Q.M.Q.x.Y.J.J.J.R.x.x.z.L.E.R.E.E.L.D.c.c.c.g.<.c.S.D.E.8X4X8X/.^.R.H.H.H.H.H.H.z.7.1.j.T.W.T.T.",
"Y.j.7.k.Y.Q.Y.j.7.j.N.C.T.T.T.J.J.J.H.J.Y.J.J.J.Q.Q.W.W.Q.T.T.T.J.J.J.Y.Y.L.L.H.W.J.H.M.J.T.N.N.j.M.J.M.M.N.M.v.b.n.Z.N.M.Y.T.T.&XT.N.M.N.N.N.b.b.b.b.*X1Xa.| f k ] t.u.i.v.j.j.k.H.E.W.R.L.E.4X4X4X^.7X7X/./.6XxX^.^.7X6X8X7XR.^.H.S.H./.0X/.R././.^.^.).0X6X(.^.E.Y.Y.Q.Q.Q.Q.Y.W.W.0X/.R.8XcX0XW.R.M.j.j.k.w.7.M.W.8X9X8XW.E.wXwX6X/.4X0X4XE.R.E.4XW.4X9X4XwXqX4X/.R.0X^.(.).!.R.!.8XcX0X'.4X^.!.R.K.L.S.S.D.L.R.Y.M.M.Y.T.Y.k.M.Y.Y.Y.Y.R.E.M.J.N.OX1X2Xs.P S !  .t.OX:XN.j.7.j.Z.M.8.w.b.j.N.T.Q.N.v.j.j.m.M.J.J.J.J.J.k.j.m.M.J.&X;X-X=X-X=XY.J.J.Y.Y.T.J.4X4X/./.^.^./.4X0XW.;Xi.V 1 1 ( A.j.T.-XY.k.k.W.Z.k.x.Y.E.W.W.W.H.L.L.H.D.H.Y.R.W.W.R.R.R.R.R.D.R./.4XW.R.R.R.R.4X/./.E.R.R.^./.R.Y.H.x.x.H.H.D.c.D.H.H.D.H.H.H.K.L.N.0.] v t w P #.B.v.m.m.k.k.M.m.k.j.j.w.w.w.9.v.b.8.f.f.j.M.M.k.k.j.f.k.H.l.M.m.k.j.j.j.j.j.j.v.q.8.8.8.5.9.q.9.,.9.8.j.j.8.j.T.N.M.H.S.L.S.M.J.N.|.y.] A ] OX,X,X-XW.W.E.H.R.W.R.x.1.1.7.1.1.1.k.f.M.M.x.z.W.R.E.D.l.c.c.L.L.L.L.x.z.D.R.E.S.R.R./././.xXxX/.R.K.H.H.H.L.H.1.7.h.k.M.k.N.&X",
"Q.k.k.Y.W.=XQ.M.M.T.Q.T.T.T.T.N.J.J.J.J.J.=X=XQ.=XQ.J.J.J.Q.-X5X=X-X4X4X4X7XE.E.E.J.L.M.M.m.M.M.J.J.J.N.M.b.b.N.b.N.Z.Z.N.Y.Y.M.Q.Q.T.N.Y.Q.N.j.q.b.b.@XA.+.U k k U ..o.t.N.N.N.k.H.J.H.x.M.H.H.R.R.R.E.7X7X7X6X^.G.S.E.E.4X4XE.E.H.c.D.R./.4X/.R.R.R.^.(.^.!.!.).!.R.K.U.Q.R.~./.wX8X/.R.F.(.W.H.j.h.1.<.7.w.9.7.b.&X9X8X=XM.j.H.R.^.E.E.4XqX9XE.x.J.Y.Y.k.j.9XwX4X7XE.6XF.K.6X!.!.).0X).R.Y./.).^.^.R.K.D.D.L.S.x.x.l.f.f.f.f.k.Z.Y.T.T.T.Q.&X%X&XOXu.e. .I C C ~  .#.XX@XN.v.v.M.M.7.,.7.N.C.%X&X=XY.M.J.Y.T.4X=XH.f.g.M.W.4XT.Y.Q.-X-X=XT.Q.=XM.z.H.J.m.j.x././.^.E.E.^./.4X0XQ.;Xi.D 7 4 ' u.7.M.J.k.k.h.x.E.E.R.Y.H.K.K.K.W.E.^.^.^.E.E.^.R.K.D.D.D.D.R.!.S.R././.E.^./.6XE.^.^.!.R.!.(./.R.R.H.D.H.R.Y.D.R.E.R.K.D.D.D.F.G.g.j.O.] C w 0 ~ p. Xm.m.k.j.k.M.x.z.f.f.f.f.8.b.T.N.j.f.d.f.m.z.f.j.k.z.L.E.L.H.S.x.z.f.f.7.5.8.8.8.9.4.8.8.8.j.8.5.8.j.j.7.9.) b.j.j.f.g.S.S.l.H.N.i.| C I s.>XuXuX9XwXcXqX/.6X^.D.h.1.1.7.7.h.d.x.1.l.H.E.4Xc.D.E.R.L.K.D.R.z.S.S.z.z.H.K.K.^.xX0X6X!.K.).^./.R.L.L.D.S.z.S.x.R.4XQ.M.k.J.=X",
"M.k.Y.Q.M.j.j.j.Y.Y.T.M.M.N.T.Q.=X-X=XJ.J.=X=XT.Q.Y.J.T.Y.T.Y.J.Y.E.=X=XW.R.E.E.L.Y.Y.H.k.j.m.N.M.f.f.v.M.j.b.&XN.C.C.C.C.T.N.j.j.Y.Q.N.M.T.Q.N.N.N.6.6.6.+.| f 0 A ..t.XX;X-XJ.J.Y.Y.H.Y.W.W.R.W.W.W.W.7X6X7X4XE.z.g.z.g.z.M.l.f.k.Y.E.Y.J.Y.T.E.R./.6X6X^.R.^.F.R.(.8X8X/./.^./.qX^.R./.cXvX^.R.x.h.h.7.h.k.w.j.M.T.Y.Y.M.j.1.h.L.E.H.z.H.Y.Q.x.J.W.k.k.T.Y.9XH.R.6X/.0XR.!.^.!.!.!.^./.8X/.R.R.L.D.S.S.g.g.z.H.x.k.k.j.7.<.,.w.k.M.N.b.k.N.T.b.N.u.o. .! A A C  .y.i.XXOX%X%XT.T.Q.T.Y.Q.W.Y.Q.T.Y.M.M.J.T.T.J.=X4X=XJ.H.M.M.M.m.M.=X-X-X4X9X-XY.Q.9X5XT.R.4XW././././.8XwXcXcX4X>Xa.B ; 1 ' C.k.Y.J.M.E.M.H.h.Y.E.H.z.D.^.7XH.x.S.K.L.z.l.l.l.l.K.^.!.R.!./.4X^.R.R./.6XR.l.R.!.!.!.R.K.R.R.R.R.R.H.R.^.E.R.K.K.D.S.l.c.S.S.F.l.j.6. .A t w ~ e.N.m.z.j.j.k.f.g.g.g.j.z.M.J.N.J.j.d.f.z.z.x.z.f.j.l.z.L.J.S.H.H.x.l.f.9.9.,.4.9.4.4.9.8.8.8.8.j.M.M.j.5.,.,.9.T.M.N.M.l.S.l.S.m.8.X.U S W {.&XQ.Q.9XcXwX0XzX).R.D.c.x.h.7.7.d.h.Q.x.z.d.1.<.g.2.g.g.S.R.K.E.R.J.K.K.^.^.K.l.G.K.l.G.R.^.6XG.^.K.D.L.H.L.D.H.R.R.H.l.M.E.J.f.",
"j.M.J.J.M.k.M.Y.;XQ.T.J.J.T.=X;XY.J.J.J.T.T.Q.=XQ.Q.Q.Y.J.J.J.J.J.J.M.M.J.Q.Q.J.J.J.M.j.j.M.M.j.q.5.4.8.v.v.b.C.C.N.N.C.C.b.q.8.9.T.>X%Xb.v.b.v.N.q.N.i.t.o...f 7 Z U t.%XT.W.W.E.W.-X-X-X/.7X4X^.H./.^.4XqXE./.R.E.Y.z.d.7.7.<.j.7.b.T.w.q.N.q.w.Z.W.-XW.E.R.R.S.E.8X8X/./.^.E.H.R.R.E./.0X^.S.R.D.H.Y.H.c.c.H.0X0X4XW.L.x.j.j.,.j.H.m.M.L.J.l.H.m.k.x.Y.Q.Y.M.M.L.E.E.E.E.^.^.6X^.F.^.).).0XR.R.R.H.x.l.h.l.k.M.j.j.j.8.,.,.7.4.b.q.5.q.b.C.N.j.) U Y C k h Z C  .#.t.XX1X;X&X;X5X5X5X=XE.E.E.M.T.Q.T.T.=XT.M.&XT.Q.5X5XQ.T.Y.Q.J.=X5XJ.M.Q.=XY.Q.Q.Y.J.Q.-X5X=X/.!.!.^./.4X7X6XwX;Xt.c 1 1 } n.j.M.M.j.J.Q.H.k.z.x.S.S.x.g.d.<.l.H.R.H.x.H.Y.H.E.E.E.^.).!.D.R.Y.H.D.l.g.l.H.R.R.R./.qXxX6X^.0XR.R././.E.R./.4X/.E.R.R.R.R.H.H.J.N.8.O.P 7 7 ~ p.8.H.x.x.k.N.J.S.z.x.x.j.z.M.H.M.z.j.j.j.k.k.l.l.l.k.J.Q.Q.J.N.j.f.f.f.7.7.7.,.T R R 5.8.5.R ,.5.j.M.M.j.f.7.j.j.M.b.j.j.j.f.m.M.v.6.o.P H s.OXC.5X5XK.^.6X(./.H.E.x.z.x.d.H.j.f.f.f.j.d.7.7.g.g.g.l.x.x.H.L.z.K./.^.L.D.F.K.R.G.3.F.0X(.F.K.H.H.H.D.c.l.x.H.H.g.d.l.z.H.E.E.",
"M.k.j.j.j.k.J.T.j.j.M.J.T.Q.Y.J.J.Y.Y.M.M.J.T.N.M.N.T.T.J.J.Q.=XJ.Y.T.J.J.Q.Q.Q.N.T.N.j.7.7.f.j.9.) ) 6.b.b.N.T.C.N.b.b.q.9.4.4.w.9.9.v.N.N.%X;X=Xj.b.v.n.i...0 8 Z W i.&XM.H.R.Y.Y.M.k.k.E.6X0X6XE././.7X/.L.R.H.z.z.M.k.1.1.j.8.4.v.Z.8.9.q.5.b.b.x.j.h.x.Y.R.E./.^.R.H.R.E.^.E.^.E.R.E.W.R.z.Y.D.D.D.K.R./.0XmXwX^.L.x.M.J.J.J.E.Y.m.l.l.j.d.j.<.:.,.7.f.z.x.Y.T.E.W.W./././.K.R.^.(.K.F.^.!.E.E.Y.x.z.h.h.j.j.k.j.j.j.N.M.q.9.9.) q.C.Z.&X>XC.5.R D k f h Z A  .O.t.a.A.C.C.-X;X5X-X=XW.W.Q.J.J.T.=X-X&X%XQ.N.T.Q.=X&X&X=XQ.=XY.Q.Q.J.T.=XJ.M.Y.=X=XQ.Q.T.T.N.Y.).).6X0X4XW.7X5X%X#.y - ; [ n.M.N.M.k.N.Y.M.z.z.z.l.x.z.g.g.H.H.H.L.Y.Y.J.M.=XY.D.L.D.D.!.6XH.H.H.Y.H.D.H.R.g.c.R.4X0X0X0XqX/.(.(.(.^.R.K.K.E.^././.^.R.H.H.M.M.j.6.6.W 0 0 @.{.v.L.z.x.j.n.Y.R.W.4XL.z.k.L.H.l.f.k.J.T.k.7.g.g.z.M.M.k.M.J.N.b.j.8.9.:.:.:.4.4.8.8.4.:.9.8.,.7.7.,.7.Y.-X=XY.J.Y.M.8.7.8.9.:.8.v.B.t.W Z ] i.v.M.L.L.^.6X^.E.4XwXE.L.E.H.g.x.j.f.j.j.f.f.f.f.f.d.7.d.f.x.H.E.L.L.K.K.S.D.R.D.S.l.F.(.!.K.R.D.D.x.x.x.c.z.l.1.h.W.8XY.z.x.Y.",
"N.M.M.M.J.Y.Y.J.Q.J.M.j.j.j.m.M.k.J.J.k.m.Y.T.M.M.J.Y.N.j.f.f.j.J.J.J.M.j.k.m.M.M.M.M.M.j.7.7.j.) R R 5.q.v.j.v.C.C.N.q.5.6.q.q.j.j.j.b.C.&XN.8.M.v.C.n.n.s...f 7 h A u.T.k.x.Y.Y.Q.-X-X-X4X^.K.K.H.L.E./.E./.E.4XR.R.E.H.7.1.7.T.8.7.9.E E ,.,.) 1.1.7.h.D.Y.H.D.D.D.H.R.E.W.E.E.W.E.H.H.Y.D.h.R.W.8XwXnXDXDXnXE.R.R.R.Y.J.k.f.M.M.H.H.M.k.f.7.<.:.,.g.x.x.H.W.E.R.Y.E.W./.E.E.R.R.R.^.R.F.!.F.R.H.H.D.x.x.x.k.j.M.M.j.M.&XT.j.8.4.R 8.b.q.b.j.j.q.q.i.%.W Z Z ]  .%.y.a.n.C.%XT.T.Y.Y.Y.J.H.x.M.j.j.J.T.M.N.T.M.T.Q.Y.T.-X-XQ.M.M.M.k.j.J.Q.M.Y.Q.Q.Y.J.Y.Y.Y.M.J.!.!.!.^.W.E.7X7XN. .0 - 1 Q i.b.N.N.M.N.Y.M.m.k.z.l.l.l.l.l.L.H.H.H.H.J.M.M.h.k./.cXxX!.G.S.4XW.E.E.E.E.R.E.H.E./.4X6X/.4X6XR./.6X(.R.R.R.D.l.D.H.H.D.c.c.z.x.j.h.9.O.W 0 8 W a.v.E.L.H.k.b.j.l.m.W.4XQ.J.M.J.M.j.f.f.z.M.Y.L.H.H.T.J.j.7.j.5.8.j.j.f.7.f.m.v.8.8.j.8.,.9.j.m.M.j.7.f.M.Y.M.Y.Y.T.N.f.f.j.7.9.8.r.u.O.A v S o.8.M.H.S.^.zX0X^.wX4XE.H.H.L.l.H.j.g.g.g.g.g.j.d.g.f.j.j.j.z.x.L.z.g.S.H.H.H.R.D.D.R.(.^.R.F.l.R.R.R.R.R.R.D.z.E.D.z.z.l.x.E.E.",
"J.J.J.Y.Q.T.J.M.j.k.M.M.J.N.M.k.j.M.M.k.m.J.Y.J.j.k.M.k.j.f.f.f.j.j.j.f.f.f.f.f.j.j.j.J.T.m.7.9.) ) X.q.v.b.M.M.v.b.w.,.,.5.q.v.v.N.b.9.9.b.N.j.8.j.N.B.i.t.] k 0 m ..XX>X=XE./.E.Y.Y.Y.Y.Y.H.D.E./.L.E.^.D.R.D.H.E.W.E.E.=X=XY.N.j.M.M.7.,.) E R ,.w.x.Y.Q.Y.D.l.l.c.D.R.E.E.R.Y.Y.x.x.x.M.k.h.1.k.Q.Q.W.W.Y.c.Y.L.x.j.7.7.7.9.7.9.f.M.J.M.x.x.=XW.W.4XW.H.H.R.E.R.R.R.W.E.R.H.R.R.D.!.!.R.!.G.D.D.x.x.H.H.M.x.M.k.k.N.Q.=XT.M.v.M.j.M.C.T.Q.j.k.j.8.q.t...' ' .. .t.a.A.A.C.C.T.T.T.Y.Q.Q.Y.J.T.N.N.Y.Q.T.T.=XT.=X=XT.T.=X=X=XH.J.Y.M.k.H.E.E.E.T.J.M.M.J.Y.Q.T.=X).(.^./.4X4X7X=XN. .0 - 1 H u.b.N.N.b.M.M.M.m.k.z.z.z.z.x.x.x.H.Y.L.k.z.k.J.4X4XE.D.S.K.^.^.4XW.E.R.R.W.4X0XnXwX/.E.^.^.R.K.!.6X0X0X8X0X8X6XE.E.E.R.Y.D.H.H.x.z.j.8.t.W 7 7 W t.8.z.g.l.M.Z.N.m.M.Y.T.M.f.<.7.j.M.M.k.j.j.m.W.L.M.J.J.m.7.9.w.j.v.m.j.j.k.M.M.v.f.m.m.j.j.v.j.7.7.k.Y.Y.Y.E.E.E.T.N.j.j.j.7.m.v.8.6.] B v B | 8.M.J.R.7XzX0X0X0XY././.D.E.K.L.x.l.l.l.j.j.j.j.z.x.x.z.z.x.M.z.L.S.z.L./.^.D.E.H.R.K.S.E.zX6X^./.4X4X/.E.R.E.E.R.E.Y.c.h.x.H.",
"J.N.M.j.j.j.M.N.j.j.j.m.M.M.v.j.M.v.j.j.j.j.j.M.M.m.m.m.m.j.j.j.7.7.7.8.j.M.M.M.M.m.M.Q.=XM.f.9.9.6.q.b.M.M.M.N.N.M.w.,.,.8.q.q.N.j.8.8.9.X.5.v.v.j.8.q.u.a.! 0 7 v @.i.N.J.D.l.D.h.j.Y.Q.H.L.R.^.7XH./.E.D.R.D.c.H.R.Y.W.wXnX9XiX9X9XuXiX9X&XZ.T.Q.T.Y.H.H.R.R.R.K.S.S.D.D.H.H.x.j.h.h.k.M.j.7.7.k.Y.M.x.Y.J.H.Y.M.j.7.R R ,.9.m.f.7.j.M.M.L.Q.wXnXwXE.H.R.R.R./.E.E.^././.R.K.D.K.K.E.D.S.R.S.H.H.D.D.x.x.z.j.j.j.j.N.Y.T.T.Q.T.=X&X>X-X&X-Xj.M.j.5.9.t.t...[ O.| %.a.n.n.b.q.j.j.j.M.Y.T.T.T.Q.=X=XT.Q.=X=XT.=XQ.Q.=XE.J.T.=X&XY.N.M.N.m.m.J.M.M.M.J.J.N.J.N.N.Q.6XlX6X4XW.Q.4XQ.n...8 > ; V t.n.N.b.v.j.w.f.j.j.j.j.j.j.l.l.H.Y.E.Y.H.x.M.J.H.R.E.R.R.^.K.l.c.c.D.D.H.W.0XcXwX/.R.H.K.R.R.H.R.R.R.(./././.6XwX0X4X/.E.R.D.c.k.k.N.b.u.W 7 7 B #.V.J.S.x.w.q.9.8.j.j.9.R R <.7.<.7.f.m.m.f.<.g.l.f.f.j.j.7.,.7.f.j.j.k.M.M.k.m.T.=XT.M.M.J.J.f.:.:.d.M.Y.=XqX/.W.W.J.f.f.f.9.f.5.8.e.| S v k ] 6.v.J.4XqX6X!.^.E.D.4XwXE.^.L.E.H.D.H.H.x.x.x.M.M.k.j.j.j.x.H.x.R.R.H.H.E.R.D.l.l.H.R.R.cXHXcX^.R.R.R.^./././.^.R.E./.E.R.H.g.",
"M.M.N.M.M.m.M.N.=XT.m.j.j.j.j.m.M.f.8.j.j.7.j.M.J.M.m.m.M.v.j.8.f.7.7.j.N.T.T.J.Y.T.&X=XQ.J.J.Q.T.&X;X&XN.v.j.M.J.N.j.j.j.b.b.j.j.q.q.q.q.8.5.) v.N.v.u.u.s.I 0 8 m s.XXT.5XE.D.z.j.M.8XeXW.R.^.H.H.D.R.R.L.K.L.E.H.H.Y.R.Y.E.4X9XQ.M.J.-X9XeX9XiXnXwX/.R.H.R.R.R.R.R.H.D.z.z.z.k.j.h.h.j.j.w.7.) 1.h.j.j.k.M.M.h.j.h.7.5.8.j.b.N.M.v.M.J.M.L.Q.H.4X4XE.R.6X0X6X/././././.^.R.K.R.K.D.R.K.H.R.S.D.D.x.c.c.c.z.j.d.j.z.f.f.k.M.m.m.f.m.9XW.k.Y.M.l.x.T.9XtX*Xy.|  .] #.i.i.N.C.q.j.8.8.8.j.j.j.k.J.T.Y.M.H.T.Y.M.Q.J.J.Q.Y.M.J.=XQ.M.7.j.Y.J.j.m.M.m.k.m.M.M.J.T.b.N.R.R.R.E.Q.T.4XY.N. .7 - - v X.q.j.q.v.v.j.j.8.f.f.f.f.f.f.f.k.x.x.J.Q.W.T.Y.R.c.l.D.K.L.D.K.c.H.R.R.R.R.E.E.D.R.R.R.R.R.R.^.R.D.F.R.R.R.R.^.E.R.R.E.E.R.c.h.h.j.M.b.i.W 7 7 f o.B.7XP.L.j.9.) 4.9.9.,.,.7.j.j.f.7.f.f.z.z.l.<.x.H.f.9.7.7.5.7.7.8.j.m.J.J.M.J.E.E.J.T.-XT.m.g.f.7.7.j.Y.Q.Y.R.K.R.H.f.f.j.7.f.7.8.e.U v h 0 S u.%X%XQ.E.R./.R.^.Y.E.6X0XlX!.E.H.L.H.H.H.D.x.x.M.J.Y.Y.M.k.j.k.j.k.J.H.l.x.W.H.H.R.E.W.0X0X/.R.S.g.l.R.6X/.E.0XH.l.S./.cXwXE.",
"M.N.Q.%XT.N.M.M.j.j.N.T.%XQ.N.M.j.f.j.j.v.j.j.M.7.7.7.f.j.M.N.N.j.j.j.N.J.N.M.M.Y.Q.Q.J.J.T.5X9XpXVXpXuX-XY.Y.Y.k.j.j.v.j.w.5.9.8.v.q.) 4.N.%XN.j.%XC.N.t.y.P k 7 h %.XXN.=XR.H.Y.Y.M.k.k.H.^././.R.E.H.D.c.g.z.D.c.l.D.H.R.R.W.E.T.E.5XiXiXqXqX9X8X8X/.E.E.R.H.c.D.R.E.H.z.l.k.k.k.k.j.w.w.8.w.,.1.8.k.Z.N.M.k.M.w.,.,.9.b.T.&Xj.j.m.v.k.k.x.M.L./.0X0X8X0X).^./.(.^.!.R.R.K.H./.R.c.H.R.R./.D.c.c.c.c.z.z.c.x.j.h.d.<.,.<.f.j.f.,.f.5X-XT.wXwXD.R.4X9X9X;Xa.O.U ! t.i.t.N.;XC.C.C.M.m.j.j.k.M.J.J.J.J.Y.Q.E.Y.Y.Y.Y.Y.J.J.Y.Q.T.Q.M.J.-X=XJ.Y.Y.M.m.m.M.N.Y.%X%XT.R.K.R.W.8X9X4XJ.n. .1 # - c | 8.8.8.b.b.j.v.w.8.8.8.7.7.f.j.h.f.j.M.R.W.W.R.R.c.l.D.K.H.K.R.^.4X4X/.E.R.H.c.D.K.R.^.E.R.!.^./.6X0X)././././.D.H.R.^./.E.R.H.h.h.k.v.i.W 7 7 A t.v.L.z.H.C.C.C.N.q.q.v.b.M.m.9.j.H.Y.L.M.z.l.x.J.Q.m.7.<.7.f.m.M.M.k.k.k.k.j.Y.M.z.x.R.4XR.l.d.g.l.l.H.J.Y.M.c.c.D.x.g.l.x.j.M.j.u.O.C f 0 7 N t.OXM.k.x.D./.8X/.4XE.7XxXxXvX^.R.H.H.R.L.H.L.x.M.Y.Q.&XY.k.f.f.<.j.Y.J.f.j.Q.wX8XH.g.d.l.D.R.K.S.l.G.D.R.R.K.g.S.E./.R.^.0X0X",
"T.J.N.M.v.j.v.M.T.T.J.J.N.N.M.v.j.M.M.M.M.M.j.j.j.j.j.j.j.j.j.j.j.j.M.T.T.N.N.J.Q.J.m.j.k.Y.=XY.;X5X;X&XQ.Q.Q.Q.Y.T.Q.%XN.8.) ,.j.v.N.N.u.5.6.v.N.;XB.B.n.oXI 0 0 h &.@XC.Q.H.H.z.Y.T.k.k.R.^.R.^.L.^.K.H.R.c.R.c.H.H.c.D././.L.R.Y.J.J.E.R.R.4X/.E.R.D.H.R.R.D.H.H.R.H.h.d.j.Y.k.M.Z.k.w.9.5.q.Z.w.9.w.k.M.k.k.j.w.8.j.N.n.q.5.q.w.7.,.:.<.h.k.R.R.E./.).).0XzX)./.^.R.F.F.H.K.H.R.H.R.c.l.R.R.H.H.H.x.l.h.h.l.H.1.,.d.d.,.7.J.4XQ.=X9XQ.Q.qXR.^.8XwX9X-XC.t.| U | y.i.+.v.;XC.N.N.M.v.j.b.Z.T.M.k.k.Y.E.Y.Y.Q.J.Q.=XJ.M.J.Y.Y.N.9X9XY.Y.M.k.N.N.M.T.&X=XQ.Y.T.C.C.R.R.E.=X&XQ.4XJ.n. .1 # 1 v o.v.8.5.b.v.8.8.j.j.j.7.5.7.j.j.k.M.J.J.H.H.L.Y.D.R.E.H.R.^.^.H.R.R.R.R.^.4X/.R.K.D.S.D.R.^.!.R.K.6X0X^.K.R.E.R.H.R.E.E.R.H.Y.R.H.x.x.M.n.] 7 7 B t.N.7XE.J.k.q.0.0.8.9.9.q.b.N.J.j.d.f.M.J.H.x.H.H.x.l.7.<.<.7.5.j.m.k.j.m.H.J.m.x.m.H.L.L.R.W.W.S.x.L.H.f.g.c.z.c.D.c.g.g.z.f.z.f.v.e.C h 0 7 S | ) R j.L.c.l.R.l.E././.^.F.6X6X^.R.E.^.^./.4XE.H.z.j.k.M.M.k.f.m.Q.5XQ.k.j.k.x.Y.H.x.H.h.1.h.S.D.K.D.l.g.l.S.D.D.R.R.D.H.H.S.",
"M.b.j.v.M.M.b.v.j.b.N.N.N.M.b.b.j.j.v.N.C.M.b.M.j.T.&XM.8.j.M.M.N.v.M.T.T.v.j.M.J.j.f.m.Y.Y.Y.Q.=X&X=X=X=XQ.R.J.J.j.k.%X%Xj.) R 8.8.q.v.q.u.u.8.v.8.q.6.XX.X..0 8 h } a.%X=XH.c.E.Y.M.M.J.Y.K.K.R.K.R.E.R.H.D.D.D.c.z.D.E.4XE.x.D.x.H.Y.H.c.x.L.E.E.R.K.K.K.H.c.D.D.c.c.z.z.k.k.j.k.j.7.9.q.q.5.j.k.M.b.j.j.j.j.j.,.,.j.j.) ) w.8.7.,.:.1.1.f.x.E.E.R.R.R.).).~.F.F.K.!.R.F.D.K.G.K.^.E.K.D.D.D.D.c.z.l.z.c.c.z.x.g.g.x.g.<.l.W.4X4XQ.8XW.E.cX^.!./.0XR.J.%Xt.U U ] t.XXi.C.&XC.%X=XT.C.N.N.Z.Z.k.M.J.Y.Y.J.M.M.M.M.M.M.M.Y.Q.Q.J.N.T.T.T.M.M.M.M.J.N.M.M.M.N.N.C.Z.L.H.Y.Y.N.M.D.m.q.P 9 - - b t.v.v.q.q.q.j.v.w.w.8.w.j.j.j.8.M.J.H.x.c.d.l.E.E.K.H.E.7X^.K.L.D.H.R.D.c.c.D.R.E././.^.!.!.!.R.F./.!.D.K.D.D.^.R.E.E.R.H.R.Y.H.c.Y.Y.M.XX#.0 7 B a.N.E.S.H.b.w.) ) T R 4.b.N.v.k.k.j.l.l.x.S.L.z.L.J.f.d.M.M.f.7.M.J.k.f.l.H.H.H.x.x.x.x.H.Y.E.4X8X4XR.H.L.L.K.D.K.R.R.S.g.g.l.f.f.r.o.C 0 1 8 I t.u.q.j.l.D.H.l.R.0X4XR.G.G.g.!./.).^.^.4X8X4XE.Y.j.7.f.j.k.j.m.Y.Q.M.j.h.j.j.z.<.d.H.k.j.z.h.l.l.S.D.D.D.D.K.H.4X/.D.D./.W.c.",
"v.v.v.v.j.j.v.v.j.j.b.M.M.M.M.M.M.b.b.M.b.j.j.j.N.M.v.v.M.C.T.N.N.N.N.T.T.M.v.M.7.f.j.J.Q.=X=XE.Q.Q.Y.T.J.J.Y.Y.Q.T.N.N.N.v.8.5.9.,.9.q.5.4.8.q.N.v.v.6.u.%.[ f 8 h [ i.N.J.z.g.1.h.N.T.T.Y.R.E.L.D.D.D.S.l.g.g.c.D.H.L.H.K.K.D.R.x.z.x.H.H.D.c.L.D.D.L.H.H.L.L.c.D.H.x.h.f.k.Y.j.w.7.7.w.w.q.j.M.b.j.j.j.j.j.h.7.h.w.,.) ) ) _ 7.j.j.7.f.j.x.Y.H.H.S.l.l.S.F.F.R.F.F.R.R.F.D.D.D.K.R.K.D.F.D.R.D.D.x.x.x.x.x.D.h.x.x.x.H.R.L.x.R.W.8X9X4X/.0XR.).^.^.H.M.b.X.U U ] %.i.u.b.N.v.J.N.N.b.j.q.b.n.5.j.m.k.j.j.M.Q.M.J.M.k.k.k.j.j.N.M.m.v.j.j.v.M.m.M.N.N.N.J.N.b.i.b.H.H.L.Y.T.T.R.J.i.I 9 - 1 Z i.b.v.v.b.b.j.8.b.b.j.j.v.v.v.j.T.W.E.H.H.x.l.c.E.E./.4X4X^.K.K.R.R.R.R.H.H.R.^.^.R.D.F.!.)./.R.S.!.R.R./.^.R.R.R.E.R.D.D.H.R.R.l.H.H.j.0.I 0 c W a.f.z.7.g.9.) ) ) ) R 4.j.N.M.j.k.z.z.z.x.S.H.R.W.E.H.M.M.M.k.T.Q.Q.J.H.H.S.S.L.H.H.x.x.x.H.H.E.L.x.x.L.R.=X4X^.R.S.x.H.H.S.l.f.9.X.^ A h 1 1 C t.i.v.j.g.D.H.H.E.^.E.R.R.P.K.G.F.^.(.^.R.D.c.<.<.1.1.1.j.x.M.k.M.M.k.j.j.h.j.k.1.d.x.z.z.k.h.g.S.R.4X/.R.D.c.D.R.E.E.E.W.H.l.",
"j.b.M.v.j.j.v.M.N.N.M.M.M.M.M.b.M.v.j.j.j.j.b.N.&XM.j.j.M.M.M.N.N.N.N.N.N.M.M.M.j.M.J.M.M.Q.W.Y.T.J.J.N.J.J.J.J.j.Y.-X&X&X;XC.q.q.4.5.8.X.) 9.u.q.v.C.n.OXs.[ 0 8 h ..i.N.Y.D.D.z.M.Y.Y.k.z.S.D.R.H.K.R.R.K.H.L.R.E.R.H.D.S.S.c.z.x.D.D.S.D.R.E.H.D.D.L.S.g.g.x.L.D.l.l.k.x.x.j.j.7.7.j.j.w.w.b.M.j.7.7.7.f.1.,.R 7.7.,.) w.k.w.Z.;X&XM.H.Y.H.x.Y.R.R.D.S.D.R.R.R.F.D.K.R.F.D.F.F.K.K.K.F.F.K.R.D.H.R.E.E.E./.4X4X4XL.l.l.K.E.L.E.R.4XW.H.E././.6XR./.Q.T.b.U D I ] %.i.i.A.%XN.M.M.m.j.8.8.q.b.J.f.,.<.M.T.J.k.m.J.Y.Y.Y.T.T.Y.M.v.j.j.j.j.j.N.M.N.M.M.N.N.M.v.i.n.H.H.H.M.N.T.R.Y.B.I 8 - 8 ' OXC.N.b.M.b.j.w.b.j.w.8.8.8.8.5.7.k.k.j.L.W.E.E.R.^.4X6X/.R.H.H.E.R.R.R.E.^././.!.^.!.R.F.R.!.^.).).R.F.E.^.R.R.R.R.R.D.D.H.R.E.E.R.L.j.0.P f V ..|.8.z.g.k.w.q.5.5.5.4.9.8.j.v.k.k.k.k.x.x.S.H.W.H.M.Y.T.J.J.T.=XY.L.J.R.L.H.S.x.D.D.D.D.D.H.H.Y.z.g.x.Y.Q.W.=XR.Y.L.Y.=X5XW.m.f.9.^ ! I z 1 - C t.n.N.m.f.x.c.x.H.W.0XcXxX^.G.!.R.R.R.D.l.3.3.l.c.c.l.g.h.c.M.Y.k.f.9.7.7.k.J.Y.k.z.z.j.z.z.d.z.D.E.E.R.H.R.R.E.H.D.Y.E.Y.Y.Y.",
"b.M.M.M.b.M.N.N.%XT.N.M.M.M.M.v.j.j.8.w.j.j.M.N.N.M.b.v.j.7.j.M.b.N.N.M.M.C.T.T.Q.Q.Y.M.m.M.H.M.M.N.J.Y.Y.Y.J.N.Y.%XT.j.v.%X;X;XN.q.6.6.5.6.b.N.b.u.v.6.t.O.{ k 8 l =.a.N.J.H.R.D.z.j.j.k.H.R.R.H.H.K.R.R.R.R.R.^.R.D.S.L.K.D.z.2.c.Y.D.l.S.R.E.L.D.D.D.l.<.d.l.E.H.l.z.x.H.z.7.k.h.f.j.M.b.b.M.j.7.<.9.f.j.d.<.x.k.M.M.k.j.N.&X9XeXQ.Y.W.W.x.1.z.x.D.U.D.D.F.S.R.F.F.K.K.D.F.F.K.R.!.^.^.~.!.R.K.R./.4X4X4X0XwX4X4X4X4XE.L.L.R.E.R.4XY.H.W.W.8X8X^.4X-X&Xn.U C I ] %.s.A.OX&X%XM.M.M.j.8.8.q.b.N.N.M.M.m.m.M.M.N.T.T.T.J.M.m.j.m.m.M.N.N.M.M.M.Q.J.m.j.j.m.v.j.b.n.H.D.x.k.M.M.L.J.v.P 7 - p *.OX%XT.v.7.9.w.v.q.w.8.9.9.,.) ,.h.k.j.f.x.H.L.D.L.R.^.^.R.H.H.K.^.R.H.H.^./.^.R.R.(.6X(.K.F.!.).^.!.K.D.R././.^.R.R.R.R.R.H.Y.Y.4XE.R.H.OX%.v h ~ e.4.f.d.j.w.i.q.5.9.8.5.5.7.j.z.k.x.M.H.H.H.H.H.f.f.H.Y.J.J.Q.J.k.z.H.L.H.x.S.c.c.D.D.H.D.x.x.H.h.f.L.W.Y.J.J.f.N.Q.J.k.k.k.j.f.8.r.#.W y 1 1 B O.u.b.J.M.D.l.H.D.D.H.R.R.K.F.R.D.D.R.R.R.^.0X4X4X/.H.c.l.c.x.h.7.f.k.k.j.j.k.M.x.z.h.d.h.j.h.H.Y.R.H.D.R./.8X8XE.H.H.D.k.H.W.",
"N.M.M.M.N.T.T.T.C.M.v.j.v.M.M.M.j.j.j.8.7.8.8.8.j.M.N.v.w.j.v.M.b.N.N.b.M.T.Q.T.J.M.H.T.Q.L.m.k.M.N.T.Y.T.Y.J.J.j.M.T.T.C.N.b.q.N.b.q.q.q.C.;X%X%Xv.q.X.O. .] k 0 z @.i.j.k.c.D.l.h.j.j.M.Y.K.H.R.R.R.H.H.L.D.D.D.S.l.S.F.K.R.K.c.x.c.c.c.D.c.2.g.l.z.x.l.d.l.J.S.L.R.L.x.l.z.k.j.j.z.j.m.J.T.M.<.7.g.k.H.L.Y.Y.W.R.E.4XW.Y.W.iX5XE.k.H.W.Y.z.l.h.h.c.S.D.D.D.S.K.K.R.R.D.S.F.F.!.!.!.~.(.(.!.R.R.E./.^.R.H.K.R.E.^./.7X^.W.7X8XR.R.0XW.W.8XY.R.8X^.E.M.b.n.| S A { ..y.A.OXC.T.J.J.N.m.j.w.j.b.M.T.;X-XN.j.j.b.v.M.N.M.j.j.j.j.j.v.N.T.T.N.M.M.T.N.j.j.j.j.j.q.q.w.l.S.H.J.Y.J.H.H.v.P 7 - l }.OX%XT.v.7.9.8.j.w.j.j.j.8.7.5.7.j.k.k.k.H.l.g.c.L.K.K.R.R.R.E.E.E.R.D.H.R.^.R.H.R.K.R.(.).).^.!.K.R.(./././.R.D.R.R.R.R.R.H.H.H.D.c.D.m.OX{.A 0 W e.9.z.d.d.5.q.q.9.9.7.j.j.j.j.z.z.x.x.S.S.S.x.H.z.j.k.M.M.M.m.M.j.l.S.H.z.z.S.H.Y.Y.Y.H.x.z.j.j.7.f.M.H.k.j.M.M.Q.T.j.R R 7.j.j.v.n.t.W y > 4 j | 6.v.J.L.R.D.R.E.R.Y.D.S.L.K.R.R.^.0XxX8X6X0XR.R.K.D.D.D.D.x.j.f.f.j.h.7.j.Y.d.j.h.d.2.g.l.x.x.Y.E.E.W.4X4XW.W.W.W.T.x.j.x.J.",
"N.M.M.N.C.T.T.N.N.M.b.v.v.v.v.v.v.b.v.j.j.j.j.w.v.M.M.v.M.N.M.q.j.v.v.w.w.v.M.m.J.k.z.J.R.J.H.J.T.J.J.N.N.J.J.J.T.M.j.q.q.6.u.Z.N.b.b.q.0.OX:XN.B.8.8.+.t.O.] h 8 v %.a.b.M.D.Y.R.T.Y.k.h.d.l.S.R.R.R.R.K.R.H.L.S.D.K.K.G.S.D.R.x.x.D.D.H.D.S.l.c.S.L.H.m.M.J.Q.M.L.L.L.L.H.M.H.k.M.M.j.f.k.j.7.7.g.x.L.L.L.H.H.D.R.E.E.Q.Q.-X8XH.H.x.L.Y.x.c.E.Y.D.c.S.Y.R.R.R.H.R.R.R.D.l.F.K.!.!.K.K.R.!.!.!.K.R.R.H.D.c.c.D.R.E.H.l.z.^.6X7X/./.W.Y.Q.Q.c.D.Y.x.x.w.u.i.U k V W [ %.XXOXOX%XT.Y.J.N.M.b.b.b.v.M.T.%XQ.N.j.8.8.j.M.v.v.m.M.N.j.j.j.M.M.v.v.M.b.j.j.v.b.j.j.w.q.q.h.S.H.Y.Y.Y.R.Y.B.P 7 - z }.*X&XT.J.T.N.v.8.8.8.j.j.j.j.j.j.,.7.k.Y.E.D.D.E.R.R.K.K.E./.4X/.E.R.H.K.R.R.K.D.F.K.!./.).^.R.K.R.R./.).R.^.^.R./.E.R.H.D.D.H.R.l.l.H.z.i.t.V 7 A p.v.J.z.j.w.j.w.8.7.f.j.k.j.j.j.l.l.l.z.z.l.z.l.l.g.d.f.j.j.7.f.f.g.l.z.c.S.H.Y.Y.Y.Y.Y.H.x.k.j.h.f.f.7.<.7.j.C.Z.N.j.9.9.7.j.M.B.i.#.J y > > C u.OXT.J.x.Y.R.H.E.4X4XR.S.S.L.qX0X0X0X6X^.K.D.S.S.S.D.R.R.H.z.k.j.f.7.1.7.z.Y.j.M.x.z.z.h.g.c.x.Y.R.Y.R.E.Y.x.x.Y.T.k.h.k.Y.T.",
"b.b.b.b.M.b.b.v.N.N.N.b.v.j.j.j.v.b.b.v.b.N.N.M.b.j.q.v.N.M.j.w.8.q.w.8.7.8.j.j.Y.N.m.k.k.m.L.E.T.J.N.M.M.M.M.M.8.w.j.b.b.q.6.5.q.q.q.q.5.u.B.v.v.) R E | ] ] v 8 v &.XXT.Q.E.W.W.E.Y.j.h.h.K./.c.D.H.H.H.R.R.K.K.R.^.^.K.S.G.K.c.x.Y.R.H.D.H.R.K.E.W.L.M.J.Y.J.Y.H.l.x.L.R.L.z.J.L.J.x.g.7.7.<.z.S.L.L.S.x.c.c.R.4X4XY.c.x.h.1.l.D.D.H.Y.D.H.4XW.R.D.D.D.D.U.R.Y.Y.R.R.D.S.D.R.!.R.F.F.F.P.P.!.D.D.S.c.S.D.H.H.D.R.E.K.L.L.D.z.4XqXH.h.h.h.x.Y.h.1.j.b.N.i.I k k A ] ..XX*X&X-XT.T.Y.T.T.T.Z.N.8.N.-X%Xb.8.q.b.j.b.M.j.8.9.9.9.8.8.w.j.j.w.j.v.j.j.j.M.M.j.j.j.b.b.H.D.H.L.Y.Y.W.W.N.P 7 - z }.;X=XY.T.&X%XN.j.j.j.j.j.w.j.j.b.j.M.J.J.L.D.S.K.^.^.E.R.E././.W.R.R.K.K.K.K.K.F.R.R.(.(.R.F.F.R.S.G.D.K.H./.cXcX/.R.H.H.D.c.D.H.K.D.R.M.8. .c t c e.f.m.d.j.w.q.w.j.k.j.j.m.k.j.z.z.z.l.z.l.z.f.d.d.d.d.f.f.j.j.7.d.g.g.z.L.K.R.D.D.x.x.H.Y.H.M.k.k.j.f.7.7.8.j.w.9.5.q.q.8.7.5.m.u.6. .A y > > I XX1X-XN.g.c.D.Y.D.x.z.g.d.z.K.^.R.H.D.H.R.^.^.R.R.F.F.K.R.D.l.d.j.J.J.J.M.j.d.J.Y.H.H.R.z.d.z.x.Y.H.z.h.j.z.h.j.j.j.7.7.j.Y.T.",
"j.v.M.b.j.w.w.w.w.j.v.v.j.j.j.v.j.v.b.j.v.M.N.b.8.4.9.v.b.q.q.N.q.q.j.j.j.j.m.M.j.M.J.M.m.H.L.H.M.N.J.J.J.M.m.j.j.q.8.8.9.5.) ) R T 5.6.5.5.v.B.q.9.q.6.u.#.] h 0 v %.XXN.Y.H.H./.E.T.Y.Q.R.R.K.K.E.E.E.^.^.E.R.^.E.^././.!.R.K.E.k.h.D.R.K.D.c.D.E.R.x.l.M.H.m.J.H.l.l.z.x.S.S.L.L.L.R.H.g.g.S.K.J.R.E.R.R.K.R.E././.E.Y.x.h.1.1.d.g.l.H.E.R.^.8X/./.^.R.D.D.R.R.H.K.R.K.D.F.K.F.F.!.!.P.P.F.F.K.D.c.c.c.D.H.K.4X^././.D.2.S.6XR.wXJ.x.x.g.D.Y.H.1.7.v.A.s.I V k A W ..XXOXC.Q.T.Y.Y.Q.&X&XT.Z.%XC.b.b.b.b.j.8.8.j.M.b.q.w.w.w.5.8.8.j.j.w.8.j.N.b.v.b.j.j.j.b.b.b.L.K.L.L.R.W.^.W.N.P 7 ; c {.OXT.J.N.M.M.m.k.Y.J.N.m.j.j.M.J.k.Y.H.h.l.D.K.R.!.^.^.R.R.E.E.R.H.K.R.K.D.F.F.K.(.K.G.F.!.!.!.R.R.F.R.!.F.!.).R.R.K.K.R.D.c.l.S.^.S.H.N.i.O.c w B t.V.j.7.j.j.q.,.j.M.j.j.M.L.M.x.x.x.z.z.z.l.l.f.f.f.j.j.f.j.k.k.M.x.l.x.K.R.H.U.D.x.k.z.z.z.k.h.j.k.j.k.M.J.N.Z.0.+.5.q.5.7.j.f.8.6. .V 8 > 1 A a.OXC.M.g.l.g.H.D.H.E.E.R.L.L.L.D.c.l.c.R.^.^.!.R.F.l.G.F.K.H.^.E.H.g.l.H.Y.H.x.x.z.H./.H.d.c.j.H.Y.k.d.f.d.7.j.h.j.j.j.h.7.<.",
"M.j.8.9.9.5.j.M.j.v.M.v.j.v.j.j.T.8.9.j.C.C.8.9.) 9.8.8.8.u.b.b.N.N.m.f.v.M.m.f.m.m.m.J.J.J.H.J.j.m.M.M.m.v.j.j.j.4.R R ) X.X.X.) 4.8.u.v.b.q.4.8.v.%XOXr.o.U B 0 h  .u.m.H.c.x.R.M.M.Y.W.R.!.^.K.R.^.^.R.K.K.R.K.K.R.R.E.^./.4X/.R.D.D.E.7X^.D.L.L.H.x.l.j.j.j.l.x.c.c.D.c.l.l.S.D.K.R.^.^./.).6X^.R.^.E.R.R.W.E.Y.M.h.w.w.8.,.<.f.l.g.l.L.K.R.6X6X).).^.^.!.K.F.R.R.F.F.F.F.P.P.!.P.F.F.P.P.F.K.R.H.c.l.c.D.H.R.H.D.D.D.S.G.S.R.J.H.x.c.D.E.6XE.J.N.C.XXa.! f l b H ..n.:X;X-X=X-X-X%XT.C.N.M.N.C.C.n.q.8.j.N.T.j.7.N.Q.N.j.j.j.j.j.8.M.T.M.j.M.M.m.j.j.j.j.b.v.B.M.L.J.J.K.K.(.J.n.P 1 ; v {.;XQ.J.J.N.m.J.Q.H.Y.R.R.R.H.x.L.R.^.L.S.^./.^.^.^.^.L.K.K.L.E.K.H.^.).).^.K.K.K.^.P.K.K.K.K.K.F.P.K.F.F.K.R.!.^.K.K.K.K.D.G.D.L.E.R.Y.%XOXt.C w N t.B.8.8.T.8.5.j.j.j.m.m.l.l.l.R.H.z.z.D.S.l.l.f.j.j.7.j.Y.M.h.d.d.l.D.D.c.c.S.D.x.c.l.l.j.k.m.M.J.k.d.m.T.H.j.X._ T ) q.v.z.f.f.f.6. .V 7 > 4 S t.^ R 9.d.H.g.c.z.j.d.h.D.L.H.c.g.g.x.D.D.R.7X/.R.l.2.g.K.R.S.K./.K.S.S.g.d.x.R.R.L.x.c.x.x.x.R.H.l.g.l.l.z.l.l.M.J.M.z.f.g.d.",
"j.j.v.M.N.M.j.j.J.N.N.M.M.M.M.N.5.8.T.C.B.q.8.B.b.N.N.v.8.q.u.q.v.v.m.M.m.v.f.f.v.m.m.m.m.J.J.m.J.N.N.M.v.j.8.8.8.N.N.8.) 4.4.R T 8.b.N.N.C.OX%Xm.N.%X%Xn.t.| B 0 f  .u.v.M.x.H.H.k.j.j.x.K.P.K.K.K.K.K.R.R.K.K.K.K.R.R.R.R.R.E.x.L.K.L.D.L.L.L.K.L.L.H.H.J.m.g.7.k.z.g.c.L.D.x.l.S.D.K.R.P.^.^.^.!.R.!.!.L.D.H.Y.j.j.Y.Z.w.,.,.7.7.j.H.W.7X^.F.(.^.P.P.P.P.!.^.R.R.!.R.K.!.!.P.P.!.!.!.!.~.^.!.R.K.D.c.c.x.D.Y.z.c.D.R.^.^.!.^.l.M.M.k.L.4X7XD.=XJ.M.B.n.a.! f y z Z [ s.%X&XT.T.J.M.b.N.T.C.M.n.N.n.b.u.u.b.C.&XN.j.v.j.7.5.7.j.C.T.M.M.M.N.T.J.T.T.T.T.N.M.j.b.B.M.J.J.E.^.^.(.P.B.A 1 1 V |.rX=XJ.J.J.J.Y.=X4XR.l.l.R.W.E.E.S./.6X(./.^.K.^.S.L.S.L.L.L.^.^.K.R.^.6X0X0X(.R.^.R.K.K.P.P.P.P.!.K.F.F.F.F.F.F.F.K.K.K.D.D.L.K.K.H.j.u.t. .N t N e.i.u.8.b.7.7.7.7.f.m.M.m.x.m.L.L.H.x.c.l.l.d.7.7.8.9.7.j.j.7.k.k.h.d.d.l.c.D.c.c.c.z.z.x.M.M.m.J.m.f.f.9.9.7.) _ _ ) 9.8.f.f.f.f.6.| v 1 % > J t.^ 4.7.g.E.R.c.z.z.k.H.L.L.S.l.,.:.h.R.R.R./.E.^./.E.R.R.^./.G./.^.S.S.G.z.K.z.z.l.z.z.L.R.R.x.x.x.H.R.Y.L.H.H.H.H.x.m.H.E.E.",
"j.j.j.v.N.C.N.N.M.j.j.b.b.j.j.M.q.v.T.N.b.N.v.B.N.N.b.q.8.q.q.8.M.N.T.-X%Xm.v.N.M.N.N.B.v.m.v.8.N.N.b.v.v.u.u.v.8.v.u.9.6.b.v.5.b.%X>X>X%XN.q.6.v.f.V.B.n.|.#.C 8 h  .s.v.M.H.E.Y.Y.k.h.k.R.!.K.R.K.K.R.!.R.R.K.R.R.R.R.H.H.H.H.D.L.L.H.H.K.K.D.H.H.D.x.H.Y.x.<.:.j.j.7.z.J.L.x.z.z.S.L.K.P.^.^.P.P.P.P.P.G.G.S.R.z.l.L.L.x.k.J.W.E.Y.H.D.S.K.^.K.K.K.F.D.F.R.E.R.R.^.R.!.^.!.K.F.R.!.K.R.!.!.R.D.l.g.h.h.d.h.k.x.z.l.c.D.K.^.4XeX8XJ.7.f.E.4XT.J.N.N.p.{.{.~ f p l V ~ s.:X&XT.Q.J.M.j.M.C.C.N.b.q.q.q.q.b.b.k.n.n.b.q.q.w.n.C.N.C.C.N.b.j.v.%XT.N.M.v.j.j.j.w.v.u.z.S.J.E.^.^.^.J.u.V 1 - B |.%XJ.M.T.Y.M.k.j.z.x.x.L.W.R.H.H./.7X^.R.^./.E.E.^.7XE.E.H.c.K.H.4X/.R.R.R.^.^.^.^.^.^.E.^.^././.^.R.K.H.D.D.D.S.z.c.S.c.c.c.D.H.K.x.8.5.o.! B 0 B #.t.b.q.j.9.j.8.8.j.m.m.j.f.f.f.m.H.x.z.z.z.h.w.w.w.8.8.8.w.j.w.j.k.M.N.J.k.h.M.x.M.M.H.J.J.J.M.H.M.m.m.7.9.j.5.5.6.5.9.5.f.j.j.v.u.| v 8 > > H #.^ 4.7.7.L.E.H.H.H.Y.Q.Y.x.l.x.1.1.z.H.D.x.H.H.S.D.R.R.K.D.K.D.^.^.K.R.E.R.E.S.c.l.g.l.H.L.L.k.M.Y.=X5X=XY.M.,.7.j.M.J.T.M.m.",
"N.M.j.8.j.M.N.T.j.8.w.N.N.j.j.v.N.u.q.4.q.C.u.5.q.q.8.8.q.q.q.q.v.B.N.N.b.v.v.B.M.M.N.N.N.B.v.q.b.u.6.6.u.i.b.b.C.q.4.5.q.u.v.b.&X;X>X>X;X&XN.q.j.4.4.8.i.XX#.B 8 h } s.u.M.H.W.&XQ.N.k.M.R.!.F.R.K.K.K.R.R.R.R.E.E.R.R.H.D.D.D.R.R.R.H.R.R.R.H.R.R.L.l.x.J.x.<.:.f.z.j.M.J.m.j.z.z.S.H.L.L.K.K.P.I.P.P.P.G.G.G.K.K.L.G.S.K.^.W.k.k.Y.W.E.H.H.E.D.L.K.H.D.D.D.D.R.E.E.R.^.(.!.R.F.R.R.K.K.K.K.D.H.z.c.M.k.7.h.k.M.k.h.z.c.D.R.W.4X-X-X-XT.x.k.M.8.q.6.|  .@.Z 0 p l Z [ a.@X&X%XT.=X=XJ.M.M.T.Q.C.C.Z.Z.C.C.Z.n.b.Z.N.w.5.5.q.b.C.N.w.w.j.w.w.b.N.v.8.9.9.5.8.8.q.8.d.z.L.E.^.^.^.J.t.v - - c }.N.J.Y.W.W.Y.k.j.z.M.x.x.x.k.x.W.4X/.L.H./.4X/.^.E./.R.E.E.R./.W././.W.H.l.c.H.E.E.E.E.R.K.K.E./.R.K.H.H.H.H.D.D.D.H.H.H.H.H.L.R.L.x.8.+...] V 0 B %.t.i.8.8.5.j.q.q.q.v.j.7.9.9.,.j.N.k.j.j.x.j.j.q.q.q.q.q.q.n.N.k.j.j.M.N.N.N.k.k.k.M.M.M.M.M.j.j.f.f.M.v.7.9.8.q.u.q.8.8.8.q.8.v.u. .V 9 > > Z O.o.6.7.<.l.l.D.z.x.Y.E.J.z.f.7.j.M.M.z.z.D.Y.H.D.D.H.R.R.R.F.R.K.L.^.0X6XE.R.R.H.x.l.h.z.z.h.h.z.J.T.T.H.j.7.7.8.f.f.8.8.8.5.",
"M.C.T.N.v.v.j.q.N.v.b.%X%XN.b.N.N.N.N.5.9.v.q.5.8.q.q.v.b.b.v.u.v.b.u.9.9.q.v.q.9.4.q.C.%Xb.b.C.i.O.| X.+.t.0.6.b.q.q.q.8.q.N.;XT.C.b.v.b.N.N.b.B.8.8.6.t.a...h 7 y } y.q.j.k.T.W.Z.k.M.Y.H.F.F.F.D.D.D.D.D.U.R.R.R.R.Y.D.D.D.D.c.R./.R.S.l.K.^.^./.R.c.c.H.H.k.j.m.m.m.J.m.j.x.f.l.z.z.x.S.S.D.F.F.F.K.I.F.F.K.K.R.K.D.S.L.H.H.Y.j.h.Q.8X4XY.c.S.D.Y.H.D.x.c.x.Y.R.R.R.E.^.E.R.R.!.!.R.R.R.R.H.D.x.Y.T.M.7.7.k.k.M.T.4X4X/.E.E.x.Y.-XwXeXY.j.w.) +.Y f f l q w 9 p Z [ #.n.OX%XT.%X-X%XT.T.W.W.C.C.Q.%XQ.C.Z.N.Z.Q.&XZ.M.Z.C.N.T.b.5.5.j.w.8.q.q.q.b.b.q.q.w.q.v.j.l.S.K.^.^.^.^.E.6.k > - f a.N.Y.H.H.x.z.x.Y.Y.H.x.x.Y.J.x.H.H.E.4X4X4XW.E.4XE.E.H.Y.E.R.W.R.c.Y.W.^.R.Y.R.R.R.R.K.D.S.c.D.H.D.D.D.H.D.H.x.z.x.x.x.k.x.k.H.L.c.g.5.X. .' v 0 k &.%.6.X.9.5.7.9.4.9.8.8.5.7.5.7.M.T.N.j.j.k.k.b.w.5.q.q.q.q.q.b.w.5.j.n.q.q.b.j.j.h.h.j.w.7.7.k.N.M.j.M.M.w.9.8.q.q.q.8.9.4.4.4.6.O.! z 8 > > V #.i.8.7.f.g.2.2.1.d.k.Y.Y.H.k.M.8XeXY.7.7.d.2.g.R./.^.R.!.(.(.!.G.F.6X0X!.D.K.H.D.c.l.z.x.x.z.z.k.J.Y.J.M.j.w.C.C.N.b.q.9.X.X.",
"M.T.-XC.M.b.M.v.%XN.M.N.N.M.M.M.n.Z.%Xb.q.v.8.5.9.6.q.b.N.n.b.b.b.b.8.R ) v.b.8.) ) 8.C.C.b.b.C.0.] Y Y ] O.+.+.+.q.q.q.v.C.&XT.w.b.M.q.9.5.5.9.j.q.8.6.#.%.{ k 1 y [ t.q.j.j.M.M.j.j.M.H.D.F.F.F.D.U.D.D.D.U.R.R.Y.Y.D.D.D.S.D.H.R.R.D.G.D.R.!.!.R.R.D.x.H.R.E.=XT.M.m.H.l.l.R.x.x.S.x.x.S.S.D.F.F.F.F.G.S.F.L.!.D.D.K.H.S.H.4X0XQ.Y.Y.Y.Y.D.c.D.D.D.c.c.x.Y.Q.H.Y.R.R.R.^.!.R.K.!.!.!.E.E.R.H.z.x.Y.E.H.h.f.j.Y.Y.W.4X4X/.E.E.Q.W.Q.Y.E.4XT.k.5.+.P k h q 7 4 9 p G [ #.p.|.%X&X%XT.T.&X-XT.k.w.k.N.Z.Z.b.k.k.Z.Q.-X-X,X9X8X-Xb.n.j.q.w.8.8.b.w.q.j.q.j.q.b.Z.N.M.H.L.K.R.P.K.^.W.6.k 4 > f y.j.x.x.z.h.d.l.x.x.Y.E.W.4XY.z.x.H.Y.Y.Y.W.E.E./././.H.Y.R.H.H.l.D.D.D.R.~.^.R.R.R.R.R.H.D.S.S.D.H.H.H.H.H.H.x.k.x.k.z.j.j.j.k.M.g.g.5.+. .W k 7 h &...X.T ) ,.,.9.,.9.5.8.5.5.7.7.j.J.Y.M.x.M.Y.b.w.5.q.w.5.5.5.5.) 5.n.Z.b.w.q.j.h.7.7.7.7.7.,.j.&X&XM.b.M.b.b.w.w.q.q.6.+.X.T T ^ | W z 1 % 4 V %.n.q.j.x.c.g.h.h.h.c.x.Y.Y.H.-XeX8Xk.7.7.1.R <.D.^.R.!.).).!.F.G.K.0X!.l.G.R.l.c.c.z.c.D.H.H.H.M.M.k.j.j.w.j.j.v.N.C.N.q.5.X.",
"M.T.T.b.v.N.T.T.J.M.v.v.m.v.m.v.v.q.b.8.8.q.5.,.9.5.w.b.b.b.b.M.j.q.5.,.4.w.8.,.9.q.b.M.b.v.j.q.` Y D D U _ +.0.i.b.n.n.T.&XN.7.7.M.T.C.b.b.v.j.8.8.8.6.o.%.] h 7 y } s.u.k.j.x.k.j.k.x.D.D.F.F.R.R.U.R.U.R.R.R.U.U.U.D.D.D.D.D.!.R.F.F.R.^.!.F.F.F.F.F.D.D.H.E./.E.L.c.D.S.S.R.K.K.K.L.D.D.F.K.S.L.H.D.D.S.D.H.R.x.x.H.H.x.Y.qXc.Y././.R.R.Y.U.D.D.c.x.x.Y.Y.Q.H.R.R.R.R.!.!.!.K.~.~.~.!.R.K.D.D.Y.E./.E.E.R.R.E.R.H.H.D.D.D.K.~.^.^.R.W./.Y.h.5.0.| ! } H q 8 p n G [ $.t.|.OX:XOXN.N.T.Q.M.7.k.k.N.Z.Z.Z.Z.Y.T.T.T.T.Y.M.k.j.j.N.M.j.j.q.j.b.b.j.w.8.8.q.M.C.T.J.K.K.R.R.R.K.!.E.6.h 4 > f s.N.Y.E.Y.H.x.D.x.R.E.Y.x.D.c.H.4X/.Y.l.c.R.E.K.R.D.H.S.K.R.R.(.R.R.U.D.D.F.R.R.R.!.R.R.R.K.K.F.D.R.H.H.H.H.H.H.H.L.H.H.x.M.H.Y.Y.z.l.q.6...( h 1 h =.] O.4.,.7.<.8.5.5.5.5.7.7.f.f.f.j.M.J.M.J.T.M.b.k.j.w.7.9.5.w.w.8.9.8.b.C.C.j.j.h.h.j.j.j.f.7.M.M.w.w.q.q.b.j.j.q.6.5.X.T T U U ! W b 1 > 9 V #.XXN.Y.R.D.c.S.Y.Y.c.z.H.Y.x.x.k.j.w.h.k.x.h.c.S.D.R.(.0X).R.F.G.K.^.F.G.F.H.S.D.D.D.c.c.c.z.d.h.7.1.,.) ,.1.j.5.) X.6.6.0.0.",
"M.J.J.m.j.M.M.j.m.m.m.m.M.J.M.j.b.b.N.q.8.w.q.k.w.w.j.b.j.w.j.j.b.v.v.v.b.v.w.5.w.N.T.v.q.b.v.5.Y D D D D Y X.0.q.i.C.>X9XQ.Z.Q.T.Y.k.j.w.j.j.w.j.j.u.6.o...I 0 8 h @.A.n.M.x.D.h.k.x.j.c.D.F.F.!.R.F.F.U.R.R.U.R.R.R.U.F.D.D.R.F.K.K.F.F.F.P.P.F.F.F.!.R.D.D.H.D.R.F.l.F.F.D.D.R.R.R.F.F.F.F.F.D.Y.R.Y.D.D.D.H.z.Y.Q.Y.D.x.x.x.W.^.!.D.S.D.Y.D.D.S.c.D.Y.Y.Y.x.D.R.R.R.K.!.~.^.~.(.).^.~.!.F.G.S.D.D.H.E./.^.R.D.D.D.K.F.D.F.F.K.F.U.!.R.c.c.M.w.u.|  .&.' l p p n F ' $.y.{.XXp.n.n.n.Z.C.M.j.k.k.k.b.M.Z.Y.Y.M.M.M.Y.Y.M.M.M.M.C.N.b.Z.C.M.b.M.b.j.k.M.N.M.M.T.E.^./././././.K.E.O.h 4 > 0 y.&XE.Y.x.c.x.D.D.E.H.z.D././.Y.H.R.^.^.^.^.K.D.R.K.R.F.K.K.F.K.F.G.F.!.!.U.F.R.!.R.U.F.F.K.K.K.D.L.D.D.D.H.H.H.H.x.l.l.h.j.k.x.H.S.x.j.t.@.J y ; h @.! u.i.5.j.j.f.7.7.7.7.7.f.j.j.d.f.x.H.c.c.H.z.M.N.j.f.7.7.w.j.T.Z.7.7.k.k.7.j.j.w.j.k.k.k.j.k.k.f.7.j.q.9.q.j.q.q.5.| T U U U P P Q b 1 # 9 A O.OX>X9X4XL.D.c.Y.H.g.d.x.D.z.x.w.w.w.h.w.h.c.c.c.l.S.G.G.F.!.!.G.F.F.F.!.(.S.S.H.R.D.l.h.l.h.1.7.7.7.7.7.j.b.j.5.) 5.u.0.X.U ",
"j.m.M.M.J.T.J.M.m.M.M.m.j.m.m.j.v.j.j.j.j.j.j.M.j.m.k.j.j.k.k.j.j.v.v.M.M.m.v.j.5.M.N.8.9.5.8.9.Y ` ..O.+.X.X.+.b.n.C.T.Q.T.T.J.H.l.f.j.j.8.9.9.f.9.9.6.| ] A 0 7 v %.XXq.j.Y.z.x.j.h.h.c.F.F.F.F.F.!.!.!.F.F.!.F.F.F.F.F.D.D.F.R.!.!.F.G.G.G.P.G.F.K.R.F.D.D.D.F.F.F.U.F.F.F.F.F.F.].].U.F.F.U.U.U.R.R.R.R.R.R.Y.R.Y.U.D.D.D.Y.D.K.R.F.F.R.Y.D.D.D.Y.Y.Y.H.H.D.L.E.^.K.K.P.!.P.(.(.^.!.K.K.F.F.L.L.K.K.!.^.^.^.K.L.F.K.K.P.P.K.!.!.^.^.R.K.E.8X;XOXu.O.@.@.H 0 x n v Q $.$.O.#.o...o.0.i.b.M.M.M.N.T.T.T.J.Y.N.Y.Y.Y.T.Y.Y.Q.8X&X;X=XN.N.-X-XT.=XT.M.N.T.T.Q.%XQ.L.L./.^.J.^.6X6XH.X.Z > - 0 O.T.E.E.R.H.D.H.H.R.c.H.E.D.D.E.^.R.F.K.).^.G.G.K.K.K.F.F.K.R.K.F.U.!.].F.F.!.!.R.K.K.K.K.R.K.D.S.z.x.S.S.x.z.c.x.g.l.z.z.k.x.H.L.x.M.C.a.@.Z q ; h [ s.t.u.v.v.f.f.j.m.m.m.z.f.d.<.d.g.l.S.z.7.g.j.z.l.g.d.f.j.j.f.f.7.7.7.7.f.j.j.N.J.j.j.j.h.k.7.,.,.7.w.q.q.q.X.X.X.X.| ! U P P ! W Z b 3 # 8 B t.n.N.M.S.D.l.h.D.D.z.h.l.g.,.,._ _ ,.7.h.h.h.Y.c.l.S.G.G.G.F.!.R.K.F.K.R.K.S.R.E.R.D.D.x.g.f.7.7.7.7.7.9.9.9.X.6.u.6.X._ T Y ",
"j.m.m.j.j.m.M.N.j.v.f.7.f.m.m.f.j.w.q.j.j.q.j.v.j.m.m.j.j.j.j.j.v.v.v.v.v.v.j.8.8.b.M.8.9.5.5.4.i.s.y.t.6.6.0.i.q.v.b.M.M.M.M.m.M.j.f.j.j.8.9.9.5.,.4.+.] U B 7 0 v @.n.8.7.z.1.x.k.x.k.D.K.P.P.F.F.U.R.U.F.F.K.R.R.U.F.F.F.D.K.D.F.F.F.F.F.F.P.F.K.K.F.F.S.D.D.F.D.D.F.F.F.U.U.F.U.].].U.U.U.U.U.].!.!.!.R.R.R.U.R.U.D.G.c.c.c.H.R.R.L.D.H.x.z.x.M.M.M.M.M.k.x.x.S.S.S.D.L.K.K.!.P.P.K.K.L.F.S.z.z.H.L.E.P.K.L./.^.K.L.K.P.^./.^.^.^.^.K.H.J.T.;X:Xn. .W A V c G K K Q W C B P W I Y ] +.0.n.C.T.N.N.M.M.M.C.%XQ.T.T.Y.&X5X5X&X%XM.M.%X-XT.T.;X9X;X-X-X;X-XQ.T.T.J.L.R.R.L.K.^.P.m.! z > - 0 e.N.J.Y.L.Y.J.J.H.R.z.D.L.c.l.D.S.S.G.G.F.F.F.F.F.K.L.K.K.K.K.K.K.R.R.!.F.R.^./.^.K.H.H.K.K.L.L.H.m.m.H.m.z.j.j.j.k.m.M.M.m.v.j.j.j.u.t.#.J z 8 ; b *.&.! T r.i.8.9.8.f.v.m.m.m.m.J.J.J.Y.Y.z.7.7.d.f.g.d.7.7.7.f.f.f.7.f.j.k.z.j.N.T.N.j.k.j.f.h.h.7.7.j.k.w.q.q.5.X.T U Y U ! | U ! W V x 3 # 1 f | o.4.9.7.d.<.g.c.x.j.j.z.h.1.j.5.,.w.j.7.7.k.E.H.l.c.D.S.S.G.L.L.H.L.K.W./.W.H.L.x.l.M.M.k.j.j.w.8.5.9.5.5.5._ O.0.6.X.T Y Y ",
"8.q.v.B.b.B.v.q.u.q.9.4.8.v.v.q.8.6.6.q.q.8.8.8.q.q.j.8.8.f.f.8.v.u.u.v.v.v.v.v.v.B.B.q.8.8.8.6.t.t.t.t.0.6.6.5.5.4.4.4.4.9.9.9.j.f.8.q.8.6.9.6.9.4.5.O.| I v 7 y k [ a.q.j.x.j.k.j.j.j.x.D.F.F.R.K.R.K.K.D.D.K.S.S.c.c.c.c.c.c.D.S.S.S.D.D.F.S.D.L.K.K.H.S.c.c.c.S.S.D.D.D.D.F.U.R.R.R.U.U.U.U.].].!.!.R.U.U.R.!.R.R.U.U.D.D.D.x.m.k.j.j.j.j.j.v.v.j.j.j.q.j.j.N.m.j.z.m.S.L.L.S.S.S.S.m.m.z.z.m.M.J.T.Q.=XE.J.J.E.W.=XQ.E.J.L.E.E.E.W.Q.T.Q.%X;X@Xs.~ j j c v n G J H A j k V v v S W | o.6.u.b.u.u.b.v.q.q.v.N.C.C.N.N.%XC.v.b.8.q.&X;XN.N.:X&X%X%X;X;X:X%X%X%XT.J.J.J.N.J.R.S.v.I y # # 7 y.%XT.M.M.N.N.M.m.J.j.k.M.m.m.J.H.S.L.L.g.z.L.L.g.x.S.L.L.L.L.L.R.Y.R.R.H.L.Y.Q.Q.k.k.m.m.M.m.j.j.N.N.N.B.B.v.v.u.v.v.v.v.v.8.4.^ O.| W A z q 1 - q K } ~ ~ O.O.o.5.6.r.r.u.u.v.u.8.v.b.N.N.B.8.8.v.f.j.v.v.8.8.j.8.8.8.v.M.M.v.8.j.v.q.5.j.j.7.7.7.7.7.8.8.X.) X._ _ ^ | ] ! ! ! U ! W V l 3 # - 0 W ! T R R 9.9.7.f.j.w.f.7.7.8.5.X.X.5.+.) 5.j.b.7.<.f.k.x.x.x.k.k.j.d.7.f.j.j.j.j.5.4.8.8.9.9.6.6.5.+.X.X.| | | | | ! U ! ]  .",
"u.6.6.u.n.C.i.5.u.u.6.6.6.u.i.u.u.t.t.u.i.i.u.u.u.u.q.q.q.q.q.8.4.+.+.+.6.6.6.6.u.6.6.6.6.6.6.6.o...o.O.0.6.O.+.O.6.5.+.5.4.5.9.4.9.6.6.+.+.+.o.+.+.O.O.[ A h 7 w h W t.u.8.k.M.b.b.k.k.M.M.H.L.H.H.H.H.D.D.x.H.x.x.x.x.x.x.x.m.J.H.H.L.L.K.K.L.S.H.H.H.M.m.M.M.Y.Q.Q.Q.Q.Q.Q.Q.Q.Q.Q.Y.Y.Y.Y.D.R.R.!.R.R.D.D.D.D.D.D.D.x.x.Z.N.N.N.n.i.i.i.i.u.u.u.t.t.t.t.u.u.6.^ T X.4.4.8.V.m.B.M.B.b.B.B.v.n.n.B.n.N.N.N.N.N.%X;X*X:X%XC.N.B.N.N. X%XOXOXOXn.t.~ j f g c c G Q Q Q W V f q y h B J ] ] | +.u.u.i.i.i.i.u.6.u.n.OXC.b.u.q.q.u.i.n. XOXOXOXn.u.r.i.n.OX Xn.n.i.n.B.v.u.B.N.N.N.N.W i + # ; ..@XC.u.8.8.q.q.u.b.j.j.m.M.M.N.J.m.J.H.j.j.M.m.f.j.m.M.M.M.M.N.C.T.C.N.b.v.v.v.i.i.i.i.p.p.i.u.u.e.#.O.O.O.O.O.O.#.e.t.y.t.#.| U P B h 8 4 > # @ - q v H W S B P ! ! ^  . .o.o.O.O.e.e.e.e.o.^ ^ r.6.6.u.u.5.5.8.6.6.6.8.r.8.6.4.6.u.8.8.v.b.v.M.v.q.q.q.6.X._ _ Y Y U ] ] ! ! U !  .! V p 3 % % 0 Q  .^ T T 8.q.8.8.q.q.6.4.4.5.X.t.t.X.X.6.u.6.5.) ) 8.M.C.T.%XC.N.v.8.4.X.) X.X.+._ T | X._ |  ... .| | ] ! I ! W I S C A W ' ",
"s.e.o.o.O.t.t.t.t.i.i.t.t.t.t.t.t.#.O.O.O.#.t.e.t.e.6.6.6.6.6.6.e.e.e.e.t.t.u.t.O.X.| X.X.| ^ ^  .] U U | o.O.O.o.o.O.O.O.O.o.o.X.o.O.o. . . . . . . .[ Q b 9 > 4 q H O.o.4.5.j.q.q.0.0.q.v.v.m.k.k.j.j.j.j.j.j.j.j.j.j.j.v.v.b.q.j.v.M.M.M.J.T.Q.T.M.j.q.v.N.OXv.v.b.b.n.n.N.N.OXC.C.N.N.n.b.b.N.J.J.N.M.v.b.v.n.b.b.v.i.u.u.u.t.#. .' W A A H H A A A A I W W ! I W |  . .t.a.t.t.t.t.t.t.t.%.@. .] ~ ! !  . .O.e.#.o. . .#.t.#.#.#.#.#.@...[ W S h 0 0 l x b J } @.@.@.J v q y u p x Z H  .%.#.t.%.| | #.t.O.o.O.%.y.t.| | O.| e.t.o.o.t.e.| O.O.#.t.t.e.#.O.#.y.u.t.y.XXOXOXOXXX' i + + # H $.%.%.O.o.o.O.6.i.u.u.r.v.v.u.u.8.u.v.u.u.r.u.e.p.u.u.u.u.u.t.t.t.%.O. .] ! ~ W ' ] W W W W W H V V V v V v v v v V Z H J Z v l q 8 > # @ @ O O - 1 9 8 8 1 ; q q h l c v V H H H W W ~ ' ' W ' #. .@.t.#. . .#.y.t.t.#.O.O.e.e.e.s.s.t.u.i.u.v.n.u.0.6.X.U I U I I I I ! | O.e.e.t.%.Q p < & $ 2 K } .. .| u.i.i.i.i.t.e.o.X.o...&.&. .] #.O.] Y Y _ o.0.u.a.XXi.t.O.o.o.| ] U U | ] ! ] ! U ! ] ' { } { ' J H B Z J J J V v v ",
" ...@...] ] ..%.%.y.s.y.%.#.#.%.....[ ] ] [ ..#.t.#.#.t.t.#.e.e.O. . . .O...o...#. .|  . .| ! ~ U I P I ! |  . .|  . . . . .] ]  .O.#.....[ .... ...[ ' J x 3 2 3 l J  .o.o.8.b.u.0.O.O.0.t.q.q.v.v.v.u.v.b.v.q.6.6.6.6.q.0.q.q.u.i.b.b.v.v.b.B.N.N.N.n.i.i.u.t.t.u.i.a.a.{.XXXXi.y.t.t.t.#.#.O.e.e.t.e.6.O.O.O.#...[ ! W I A Z v h q w 7 1 1 1 4 4 7 7 8 w 0 q q q y h h f v V Z Z Z Z Z V Z V b l h 0 0 f k c k j k h h h k c v v v z z v h y 0 0 8 w 9 p F K J @.&.=.@.' m z y i p z v V A W W [ [ W ] ....W W C C [ @.[ ! [ [ [ [ ! W W W W .. . .@...[ ] ' Q ' [ ]  .%.y.y.t.$.K s o o O r V Q } @...[  . .#.e.e.e.u.u.e.u.t.e.t.y.%. . .#. .' ! W W W A Z Z v v l h q 0 0 9 8 8 7 7 7 1 1 4 4 1 1 > > > > - - > 4 4 4 > # # @ + . . . . . @ 3 < # # - @ @ - - - > 1 2 9 8 7 q q u x m F K K H J Q W H H W A A S B c B A W  .#.#.#.t.t.e.u.0.+.X.U Y S S S S A ] { ..#.s.n.|.|.{.} p > % + # L K Q ~ ! #.t.%.%.%.@.] W I W ] J J ' { W W W A A I W U W ! ] ] W A A I A C V A ' ' A Z V v B Z Z K K K H m M z z b F F M M M ",
"B Z W Q A V V A A W Q Q W H W W Q ' ' H A W ' [ @. . ..... . ... . . .....@.@...! ~ ~ W W ~ W P A P I ! [ ] ! W [ [ [ [ ' W W W I W Q H J J H H H W H H G a < 5 3 x G W  .O.6.u.0.O.....O.O.6.6.6.6.6.6.6.6.O.X.+.O.+.X.X.X.+.o.t.t.O.O.O.+.X.X.U T |  . .] P C N j j c B B B V A S V V V V B B V V V V v z z z y q 8 4 1 > - # > # # # % # # % > , < 3 3 3 3 3 3 9 9 4 4 2 8 7 7 7 7 4 4 4 1 4 9 3 4 4 4 8 8 8 8 w 9 q u q 8 4 1 2 2 4 4 4 4 > > 1 4 9 a L ( } *.}.s.@.} { m p a i i a z z h k Z H J ' } ' Q H J V v Z Q W H H Q W J H H A H Q H A H H A V B V 0 0 f f f h j j A c i 6   o O - 8 z K J J Z S A S W W ~  . .| #.@.[ ' ~ W S V V c h h q 9 8 8 4 1 - - > - # @ # # # # # # @ @ @ # # # @ + O + + + % % % % * + $ . . .       . X . 6 5 & & < & + + @ + + O O O @ % , > # > > > > 4 4 7 7 7 7 w w z z z l h c V G V W ~ ! #.t.e.e. .| U I A A A Z v Z J {  .o.6.e.u.O. .~ u > * X + e a x b V A I V A A Z j k j h v h z m Z Z m Z Z Z Z Z B v B v v c h c v h h y v m b y u 9 7 8 9 9 i u i q 9 8 9 3 3 9 i a x L ",
"y 8 8 0 y 0 0 q 0 0 8 0 q y y y q h h 0 7 0 h l f 0 0 f q 0 0 q 0 w q q l l l l l z c l c v v c c c c c v v Z A V V b z z l y y q y y 9 9 q 9 8 w y q q a < # , 3 a x b A W A S V V v v V V B B C S C B B C B k V V B B v v N v k h 0 0 f f f 0 f f 0 0 0 0 0 7 7 t 7 7 7 1 1 1 7 ; ; ; ; 1 1 ; ; - ; - - - # @ # @ @ @ # $ + # # @ @ # + + + % & < < 5 5 3 3 , < 3 3 < 3 i i < 3 3 3 3 3 3 3 3 > , < 3 9 i q 8 u 9 3 4 3 3 3 3 , 3 3 2 > 2 4 4 4 1 4 i M ( -.-..X.X%.@.}..X*.( M a i q y h c v z f h Z H v z Z z l f 0 0 0 0 0 0 q q w 7 q h h z l l l q 7 1 1 1 1 ; ; 1 1 1 7 7 - % *   o + @ > 9 p p q 7 7 7 7 h g f c j f v z l q w w 7 7 1 - - > - # # # # # @ @ # # @ @ @ @ @ + + + + @ @ + @ # @ + + # % % % % + + + + + X X X X . . + $ , 6 < < < , % & + + + + + + $ $ O % + + + + @ @ @ # - # # - - - - - - - - ; 1 1 7 w 0 g V H Z V Z B v h z x z p y p z z c B A ~ ! B v x 3 % * X . & @ # 4 7 8 7 1 y u 8 1 4 7 1 > > 4 > > 4 4 > 4 4 1 4 4 3 1 > 1 > > 4 > - > 4 4 3 > % > > > > % % % # # # # # # @ @ # # # # , ",
"1 1 1 4 4 4 7 8 8 4 1 1 1 > > 4 - 1 4 1 > 1 - - - - # # # # # % # - > > > % % # > < < < 3 9 8 4 > > > > 2 < 2 > > > % > % # # # # % % % % % % > % % % % % % , < 5 5 < - @ @ - 1 - - : # # # - > # > 2 - - - - # # # # @ @ @ - - @ O O @ # @ @ - # - - - - - - - - @ - - @ @ - @ @ - : # @ # % # , # O O # # # O % # # @ + O @ % O # # O O , , # , < 5 5 5 < < < 3 < 5 5 i s > i s 5 5 3 3 3 < , < e i e p a p 8 q y p p p q 3 4 3 3 4 4 8 i 9 4 p y b Q } } *.{.oXy.a.1X3X$X.X&.{ Z v v Z Z Z A J V h c v V v l v V v h 0 q h h 8 i p p p i q q q i q 8 4 4 1 > > > # - > > # - @ @ + .     X + < s s 3 > > % @ % # @ @ # > > - # # # # - # # # @ O @ @ @ @ # # @ + + # + @ @ @ # # > > # # - > - 1 1 1 1 8 8 4 4 8 8 1 - 1 4 4 4 > - - > 3 9 8 p l p y q q q q 9 > > 2 - @ # > % # # # # @ @ # # @ @ # @ O O @ O O O @ O O O # - @ @ O O @ @ O # - - - # $ $ o + $ $ $ # @ # # , # $ $ X o o   X + $ $ $ + + @ + + + + X X + + .   . . . . . . X X X . X . X X + . . . . . . . . . . o X . . X o o X X X X X X X X X X X X X X ",
"4 u i u i u y u 9 q q q 3 < < < q 9 8 8 2 2 4 2 3 , > < < & & % < < , , & & < < < < < , , 2 4 > , , , < , , , , # @ # # % , , , & % % + + + + + # % % % > , < < < 3 5 , , # @ O @ + + + @ O + + + $ : # + # & $ . $ X X $ & + @ & $ + + + O + @ @ @ # - - - > - 2 - 1 2 > 2 2 : > > , < , , & % @ > < < : # - > # # > < < % # @ 2 1 2 9 9 2 2 9 9 9 e e p e q 9 e e i 3 i i 5 L a s 3 < 3 5 3 4 4 p F F F F G b b z l q q q u u u l l q w q l b l Z } }.{.{.{.XX@Xn.XX1X3X3X3XoXoXy.@.@...[ ' [ [ [ [ ' W W ' @.H Q Q J V v k h z p p p p p p u 1 4 4 4 9 u 9 4 4 1 > - # @ # @ # # # @ + . O + < < 3 3 3 > % # # # # # % % # @ @ @ # # > - - # # # # # # # # # # # # > > 4 4 4 4 8 q u u q u y 0 h v Z J Q J Z Z Z Z V v V Z Z v v v V Z H H H J Q [ [ W W S V h l x l q u 9 - > # # # - # # # # # # # @ @ @ @ # @ @ @ @ @ @ : # @ O . . . . . O O @ O O       . . X . . . . . .               + $ $ & $ $ + + X X X .                                         . . . .         .                               o X $ $ o X X X ",
"z v m v k h h v v z b b z z p p l q 0 0 w 7 7 7 8 1 - > < < , > 3 3 < , , , < < > > > 4 4 q u q 4 4 8 8 9 9 9 e 9 9 9 9 9 i i i i i 9 3 3 9 u u 4 3 9 9 i i p p a p i 2 2 2 - : - : > : > , , < , < , - - , , # $ & + . & < # : # # # @ @ # - - - 1 7 q p l l z l q y p 8 w w ; 8 4 1 1 4 4 3 9 8 9 7 7 w 8 q q p 9 7 7 q p z b K G G K K K K J Q J H Z V v l q 8 q p p x L 9 9 a a a 9 8 8 9 q l K } } } ' ' ' Q W W H H J Z Z v Z J A Z J ' } } s..X+X#X3X3X<X:X:X*X2X2XyXyX*XXXa.i..XoXoX@X#XoXoXoX.X}.s.{.#X$X#X.X}.%.@.[ ' ' K m v z z z l b z l l h z x z m K K m z z l p 7 8 q 9 3 4 8 q p u p b x y w y 1 7 y b G K K G F x y w w q z b z z z l z z z b m Z G K J ' } } } } @.*.*.*.*.*.}.}.{..XoX#X#X#X{.{.{.}.{..X.X.XoX.X#X$X$XoX.XoX.X.XoXoX{.}.{.{.}.-.-.*.} } Q b V l h l z p q 8 l n n l l z x x x l p p l p l n p e , $ X X X X + @ # # @ . . . O O @ O O O O O @ @ @ @ + + + + > > , < , , > % % # # @ # # # @ O O + @ + + + O O O + O + + + + @ @ O O @ @ @ O + @ + @ + O . + $ $ $ $ $ $ $ $ @ @ @ @ @ @ @ O ",
"&.&.&.=.@.%.%.$.@.$.&.&.}.}.-.-.} } [ Q ' [ Q A Z v h q y p a a p i p a a a i i i p p p h l c c c c v v b v b b b b z l z b b z l y q q q y l l z z b V Z Z H J K G b l q w 9 9 9 9 8 8 2 2 2 2 2 2 1 1 1 1 1 - < 6 $ @ 3 2 - 2 - 1 w 8 y b Z b J ' } *.&.-.}.}.&.*.*.@.' J H V Z G Z Z H K J J ' Q Q / } *.$.&.&.&.&.-.}.}..X.X.XoX.X}.{.#X$XoX.X{.{.{.{.{.}.}.-.*.} Z b G m G m M M b m G H H Q *.}..X.X{.{.{.s.s.}.}.}.s.&.@...#.$.%.}.oX#X#X3XfXfXdXZXKXKXZXKXKXKXKXKXKXKXyX3X2X3X3X3X3XyXZXZXyX3XyXdXdXZXZXPXAXZX3X3X1X1X$X.X-.@.' Q H H A ~ [ @.@.*.&.}.}.}.#X$XoX.X.X}.$.}..X.X}.-.*.*.&.}.}.}.}.}.&.&.&..X.X$X$X3X3X3X$X$X$X$X$X$X$X#XoX#XoX#X#X$X$X$X$X#X#XoXoXoX#X#X#X$X$X1X1X1X1X1X1X3X2X<X<X<X<X1X1X<X<X+X+X*X<X<X+X+X+X<X3X#X|.a.{.XX@X@X@XXXoX<X1XfXoX}.}.y.#.#.$.s.$.@.$.@.[ ' W $.$.$.$.$.&.-.&.*.@.} } } } ' Q K F a 5 * o X + # # - - # @ @ @ # - - - - 1 1 1 ; ; - - - - # - 4 7 8 9 9 8 7 7 1 - - - - - - - # # - - - # @ @ - # - - - # # - - - @ @ # # # # # @ @ # # # # # # # - - - > > 1 4 4 1 - - > > > ",
"3X$X+X@X+X1X3X1XOX@X@X+X1XfXyX3X+X1X1X+X#X3X#Xy.%.$...W A Z Z Z x p p x b x x b Z K Q ' [ @.@.@.%.$.%.%.$. . ...@.@. .[ ..@.@.@.[ ' W W W W ] ' [ [  .@.#.#.$.$...@.@.} W V c c v v z c z l l y p p l l z l p r 3 3 2 e a 8 7 l v H [ } @.}.{.}.oXoXoXoX+X@X@XoX+XoX#X#XoX{.{.}.s.oX#XoX#X$X$X{.y.|.+X+X@XoX+X3XoX+X+XXXa.y.y.a.<X2X2X<X<X3X3X1X*X<X2X2X2X2X2X2X1X3X$X@.A H J } ' J Q } *.}.}.}.oX#X$X1X1X3X3X<XyX3X1X#X$X#X$X1X1X<X*X+X1XyXAXZXZXyXyXKXPXPXPXKXLXKXPXPXKXVXpXtXVXpXpXpXtXrXtXtXrX*X:X2XyXZXZXZXZXZXZXZXZXZXZXAXCX3X#X{.y.$.#.y.}.#X3XfXyX3X1X1X+X2X3X2X1X2X@Xp.o.e.|.@X<X2XdXAXZXZXZXyX3X3X3X2X1X1X2X2X1X<X*X<X*X<X<X2X2X<X*X@X*X<X<X<X<X2X2X2XyXyX2X2X*X*X:X:X;X<X>XsXrXrX2X;X;X;X;X*X;X;X&X%X;X:X%X%X&X:X&X%X&X:X;XsX;XOXOX@XB.OX*X;X:X:X:X;X*Xv.6.r.r.r.B.p.n.n.|.|.|.a.a.|.{.|.|.|.{.oXoX|.a.a.y.y.y.e.#. .[ H x i & + + * # > - - ; 4 4 1 q g h h c c B B c c v v v V V V H W W Q Q W W W H A V V v c c k v v v v v v v c v v V v v v c c v c c c v v v v v v z z z v v v V V Z G H H J J Q Q J H H J Q J ",
"*XOXn.n.OX2X2X:X*X;X&XOXOX:XOXn. X<X2X*X*X<X@Xu.e.s.a.y...] W H H v c v Z H Q } @.&.}..X+X<X1X1X1X<X*X1X1X+X@X@X#X#X@XXXXX+XoX|.|.|.|.n.|.|.@X+X@X@X*X*X*X*X*X<X@XoXoX.Xa.y.%.%.@.@.@.%.&.&.&.*.*.*.*.*.@.Q J H z q q p y y Z @.y.{.XXXX{.a.a.s.u.u.u.u.i.i.u.8.r.6.i.n.p.n.OXXXa.XXXXi.s.|.XX|.n.B.v.r.6.r.B. X<X2X*XN.u.q.v.N.OXN.%X;X-XN.b.N.%X-X-X-XT.N.N.N.XX{.XXy. .@.[ W [ %.}.}.&.&.}.oXXXoX@X<XyXZXZXdXKXZXZXZXZXZXyXyX2XaXVXyXrX2X2X>XC.b.B.C.;X;X9XuX9X9XiXSXuX;X-X&X%X=X-X;X;X;X9X9XT.C.T.&X;X;X>XrXtXrXrXrXrX2X2X3XZXZX3X#XXX{.XX+XdXZXZXdX2X*X*X*X>X>X;X%X%X&X%XN.%X&X;X;X;X;XrXrX9XrX9X%XT.%X&X%X%X%X%X&X;X;XrXuXMXuX5X&X&X;X;X5X;X;X;X5X5X5X5X;X;X;X;X;X;X5X5X5X4X5X5X5X9X5X9X9XuX9X5X5X5X-X;X5X5X-X=X&X-X=X=X-X=X%X&X&X%X%X%X%X&X;X>X;X&X%X&X;XT.J.N.m.M.:X%XB.N.N.%X%XOXN.N.%XOX%X%X XN. XN.n.u.u.p.u.r.e.6.o.#.Q m a , + X + % 3 y l b H K K { [ [ @.$.y.y.y.a.a.}.}.}.{.{.{.XXXXoXoXoXoXXXXXXXoXoXXX{.}.{.}..X.X.X.X.X.X.X.X{.{.{.{.{.}.a.s.s.y.y.s.}.{.{.{.oXoXoXoX.X.X.X.XoXoX#X#X#X#X#X#X$X$X$X#X#X$X#X.X",
"&XOXN.b.C.&X&XC.;X;X;XN.N.B.v.8.N. XOX XN.B.v.8.8.n.OXOXXXa.t...@.Q H W [ @.}.oX1X1X3X2X2X2X<X*X>X:X;XrXpXtXrX2X;X;X&XOXOXOXn.u.4.9.8.8.r.v. X%XrXrXaXaXaXrXrXrXaX*XOXOX@X*X1X2X@XoX@X+X#X<X#X#X#X#X#X#X{.@.~ W J b b z h A &.{.OXOXOXn.i.6.4.9.8.8.8.8.v.v.j.f.9.4.8.q.8.v.N.N.;X:X%XOXN.n.OX2X;XB.4.:.4.8.q.8.j.N.;X;X%XN.v.j.M.j.M.T.N.7.7.j.m.M.J.Y.T.Q.E.T.%X6.6.| | y.{.s.#.}.oX{...! ..s.Y X.u.:XrXZXKXPXZXKXKXKXKXZXVXtX;XuXtXtX9X-XC.v.8.8.7.9.7.f.M.T.Q.Q.-X-XQ.&X5X=X;X-X-X&X&X&X&XQ.-X-X;X5X;X-X;X;X9X;X&X%XC.N.%X>X2X3X3X<XOX|.@X<XaXaXrX;X;X>XtXtXiXuX9X5X5X5X5X5X-X-X4X7X5X5X5X4XT.T.Y.H.M.M.M.M.5X5X5X5X9X9X9X9XMXMXMXMXMXuX5X5X4X5X5X5X5X5X5X4X=X-X;X5X8X9XwXuX4X8XqX0X6X5XqXwXnX8X4XW.Q.E.=X5XQ.R.Y.J.J.H.J.E.4X9X5X=X=X5X-X=X=X=XT.N.M.M.T.=XH.H.E.E.E.4X=Xm.J.J.Q.%X%XT.T.%X-X&X-X=X%XJ.N.N.b.N.N.B.q.8.u.r.u. .H x 3 + X + 3 x ' } @.&.}.}.a.a.{.|.@X*X*X:X:X:X:X:X:XOXOXOXOXOXOXOXOX XC.N.OX@X*X<X*X*X*X1X2X<X*X*X:X:X:X:XOXOXOX@XOXOXOXOXOXOXOXOX@X*X*X*X2X3XyXyX3X3X3X1X*X*X*X*X*X<X<X<X3XfXdXyXyXyX1XXX",
",X,X&XC.T.%XT.b.v.T.%XN.v.m.m.v.%XN.N.%XN.q.8.B.q.B.OXOXOXXXi.#.[ W A ! @.y.{.+X*X<X<X;X;XrXuXuX&XT.T.;XuX9X-X%X&X-X%XC.T.&XC.b.9.8.f.f.f.v.J.&X-X;X5X5X;X;X-X-X%XN.B.OX>XrXrX2X:X:XOXOXOXA.n.u.s.a.XXXXs. .P S A Z ' Q B @.oXs.N.b.b.N.b.q.v.N.v.j.j.m.m.M.m.z.M.m.M.v.f.j.M.N.j.8.B.%XT.8.q.C.%X%X%XJ.N.B.v.v.j.M.T.T.T.T.N.M.M.T.T.M.h.j.k.k.Y.J.Y.Y.E.Y.J.M.j.6.n.0.U | t..X{.y.#.O.O.O.| T X.u.OX2X;X:X;XrXpXtXtXtXtXpXpXpXiX9X&XT.&X;X&XN.j.Q.5XT.m.M.M.k.k.M.H.z.h.Y.-XT.Y.T.Y.Y.Y.Q.T.Y.T.J.J.Y.Q.T.N.N.N.N.T.%XT.T.%X,X2X3X3X2X@XOX:X<X2XaXaXrXiXpXuX9X=XQ.=X-X=XT.E.4X4X7X=X7X7X7X7XE.L.M.M.L.L.m.M.Y.4X4X5X9XiXMXuX9XE.R.J.J.E.=X7X-XE.Q.4X4X4X4X4X=X8X9X9X8X4X4X4X4X4X7X7X^.E.E.W.4X4XW.=X4X4X=XQ.Q.Q.Y.Y.Y.J.H.J.=XR.4XW.L.L.=X=XM.J.T.Y.T.T.T.T.Y.k.f.m.4X5X-X=XE.M.M.J.=X-X;X;X5X-X%X&X;X;X%XT.%X%X;X;XN.v.v.N.N.6.^ A b u % + % p ( -.}.y.y.y.y.u.u.u.n.n.OX%XOXT.T.T.%X%X%X%X%X%XT.N.N.N.b.B.B.B.C.&X&X%XC.%X&X;X;X%XC.N.B.b.b.v.v.B.B.B.B.b.b.C.C.C.OX%X:X;X;X:X2X2X2X2X2X2X*X;X;X*X;X;X;X:X:XOX*X2X*X*X:Xn.6.",
";X%XC.n.N.N.b.w.v.j.8.v.M.M.m.M.C.C.N.v.q.8.v.b.&XB.u.n.A.0.X.|  .%. .U t.+X*X:XrX;X5XtXuX4X5XMXuXQ.Y.5X9X9X-XT.T.M.w.9.5.j.N.N.M.d.9.f.T.-X=XT.J.T.=X=X-X-X=XJ.=XJ.Y.-X9X9X=XT.N.tX9X;X%Xq.q.v.OXp.6.6.e.s.t.] W H [ A W y.o.n.C.j.j.b.v.j.j.j.v.j.j.M.J.Y.L.M.m.j.7.9.f.j.j.C.8.9.8.j.7.q.w.R 4.b.N.N.%X%XT.&X%Xj.9.q.C.Q.T.C.Z.T.Y.k.w.h.x.Y.Y.T.Y.M.M.Y.Y.k.9.q.q.i.t.| s.oX@X.XO.Y Y | +.X.b.C.OXOX%X;X&XOX%X%X&X>X9X>X>X9XiXT.k.&X9X5XQ.;XeX9X&XT.Q.T.N.T.N.N.M.M.N.Y.T.T.j.M.M.M.N.Q.&X&X;X;X;X&XQ.N.M.b.b.N.C.T.T.T.&X;X,X;XyXyXXXn.:X<X<X2X2XrXKXSX9X&X%X%X=X=XT.N.M.J.Q.Y.5X8XW.W.W.L.Y.J.-XT.M.Y.M.=XJ.9XeX=X=XiXiX5X=X=XJ.M.Q.9X4XY.4X9X9X9X9X9XW.J.qXW.W.9XiX9X4X8X4X4X4XY.E.4X4XY.Y.T.&X;XW.N.Y.-XW.M.k.N.Y.;X9X5X8X4XQ.Y.Y.E.T.Y.J.M.N.Q.&XT.j.9.k.J.Q.=XQ.Y.N.j.Q.T.T.%XQ.N.T.;X-X%X&X;X%XM.v.N.;X%X&XN.C.b.9.OXu.o.! J u % % > ( @.&.s.u.i.i.i.n.i.i.N.N.N.M.N.=XQ.=X=X=XQ.T.T.Q.m.J.&XJ.J.%XT.-X;X-X%XC.T.%X-X;X;X-X%XN.M.M.N.N.N.N.N.C.T.T.T.v.b.N.C.-X>X;X-XrX>X&X>X%X;X;X>X>X;X;X%X>XpX%Xq.u.N.OXC.v.6.) E ",
"q.w.n.C.C.b.v.b.q.8.9.8.q.8.q.v.v.v.q.8.9.6.q.v.q.q.6.6.u.i.t.o.] t.t.O.|.2XrXtX;X9XuXiXuX9X4XW.5XY.J.T.J.M.J.J.%Xj.,.8.j.j.7.j.m.m.J.=X-X=X=X-XH.M.J.J.m.m.J.5XE.J.J.W.=XT.M.m.T.iX9X=XM.5.j.M.C.B.v.8.6.p.@XoXoX[ @.]  .o.X.%XN.b.N.T.j.7.j.M.M.M.m.M.J.Y.J.M.M.T.N.M.M.j.7.7.j.j.M.N.b.N.N.7.8.v.q.u.C.N.v.b.b.v.b.b.b.q.w.w.Q.Q.C.Z.C.T.Z.k.k.M.x.j.k.Z.x.j.j.v.u.n.t.o.a.@X.X.Xa.t.0.t.0.+.OXN.u.6.8.v.b.v.N.N.Z.C.C.C.C.T.Q.&X;X9X9XiXeX9X8X8XQ.Y.Q.Q.T.T.Y.N.j.j.M.M.j.7.M.N.T.Y.T.Q.&X&X9X;XQ.C.N.N.T.T.;X;X;X&XC.Z.C.C.C.N.OX*XOXOX*X*X2X:XN.OX9X9X;X9X%XN.M.C.%X%XJ.M.=XT.5X9X=XQ.R.k.M.N.;X&XT.T.M.T.GXQ.M.Q.&XN.M.Q.9X-XQ.=X-X-X=X=X=X=X=X=X-X;X;X=XJ.&X;X&X&X9X9XQ.T.Y.M.k.M.T.W.Q.T.&XT.N.C.;X&Xk.Q.Z.T.;X;X;X;XQ.Q.Y.Y.Y.T.Q.Q.Q.=X&X&XT.N.b.Z.Q.T.N.%X>XT.8.w.T.C.&X;X;X&XT.C.N.C.C.N.v.v.b.b.b.u.b.n.OX>X>XC.%X:Xp.#.Q y > > p } =.s.i.n.N.N.b.b.n.N.N.N.M.T.;X=X=X=X=XQ.E.T.T.m.J.-X5XT.=X-XJ.M.uXpXT.M.-X9XT.j.J.T.J.j.j.J.-X=X%XT.T.T.T.J.N.T.N.N.N.T.-X9X9X;X;XT.T.q.b.b.v.%X%X-XC.N.C.j.8.) ) R ) 9.q.6.) ",
"v.8.q.N.N.q.q.b.0.6.6.6.5.+.5.8.q.8.9.4.4.4.8.8.) X.X.+.0.i.i.O.| t.i.u.OX2X2X>X5X9X9X=X4XqX6XR.Y.M.Y.J.f.7.M.Q.;XQ.Q.&XT.k.M.%X5X9XuX9X=XJ.M.J.J.T.-X-XT.M.M.J.R.L.L.L.L.J.Y.Q.J.5XT.M.j.7.j.M.8.j.J.T.B.n.XXa.a.] %...t.T Y 4.T.b.b.Z.b.k.j.j.N.M.M.M.N.N.M.k.w.b.M.k.T.T.T.T.C.C.Q.&XT.T.T.b.v.b.b.N.OXZ.N.%Xn.Z.n.b.w.i.n.Z.C.Z.k.i.n.C.Q.C.C.C.T.Z.Z.Q.T.b.b.u.0.u.O.o..X@X$X3X3X1X2X3XaXtXN.8.X.X.6.u.N.C.C.C.Z.C.C.C.T.&X9XSXSXuX=XQ.Y.J.Q.W.T.T.&XQ.T.T.Y.N.M.k.M.M.k.w.Z.T.&XQ.Q.%XQ.%XQ.&X;X>X9X>X&XC.&X%XT.C.n.n.Z.C.Z.n.OXOXn.n.XXOXn.u.6.v.C.b.j.N.C.C.%X&X&X%X&X;X;X%X=X-X&X9XuX9XQ.;XtX;XQ.Q.M.M.7.j.T.-X;X&XQ.&X9X&XQ.;X;XQ.Q.;XeX9X&X&X&XQ.-X9XQ.Q.&X;XQ.N.M.C.T.T.N.N.N.C.T.&XC.C.T.%XT.C.%X&XC.Z.&XtXtX&XC.N.Q.Y.T.W.-X&XQ.&XT.Q.;X>X&XC.C.&X%X&X;X%Xn.b.N.%X>X>X&Xb.q.n.C.C.q.n.N.b.b.N.N.u.+.6._ X.u.C.OXOXN.r.#.} M > 4 F *.&.a.n.Z.C.C.N.N.A.C.Z.n.N.&X9X=X=X=XQ.T.T.Q.Q.M.;XtX9X&X9XuX%XN.C.T.%XT.N.C.T.N.N.N.C.T.T.T.%XT.T.C.N.C.C.T.T.N.T.T.C.T.%X&X%XN.%XC.N.9.b.v.q.%XT.%XN.M.M.q.q.q.q.q.i.C.%XZ.q.",
"%Xb.8.q.b.i.t.0.t.t.6.6.6.O.+.6.6.6.5.5.6.u.v.B.q.+.+.u.i.t.O.t.o.t.t.u.OX;X&XN.J.Q.Y.k.x.L.R.H.M.k.J.Y.j.j.Y.;X;XuXiX9XQ.&X9XeX5X5X=X=XQ.Q.Q.Q.=X=Xk.9.7.J.T.k.l.S.H.S.x.m.J.T.Q.Q.k.M.Q.&X-XT.m.j.m.v.v.v.n.t.%. .}.] O.O.N.N.Z.j.j.N.n.b.b.w.M.M.b.b.M.M.M.k.j.C.N.j.M.C.Z.Z.C.T.&X&XT.T.T.C.b.q.8.v.N.N.b.C.n.Z.b.q.k.C.&X&Xb.b.b.q.k.N.Q.&XT.T.C.C.C.C.C.b.v.q.6.0.o.O.@X@X1XCXZXZXZXKXKXKX;XN.v.v.v.q.q.b.N.b.b.n.N.N.T.;XiXiXuX9XQ.M.J.4XY.Q.E.Q.=XW.J.J.k.Y.=XQ.J.J.Y.Q.Q.&X-X&XC.C.C.C.&XT.C.T.&X>X>X,X&XQ.Z.b.q.q.q.q.Z.%X>X1Xn.6.t.n.u.n.XX&X;XC.N.C.N.N.C.C.C.N.C.&X>X%XT.N.Q.;X9X9X>XtXtX&XT.%XC.b.8.&X>XN.b.&X9X;XQ.T.T.&X&XT.T.&X9X,X&X&XT.N.Z.-X;XC.T.;XT.w.q.b.%X%X%X&X%XC.C.C.C.Z.%X>X,XC.&XtXtX%XZ.Z.b.b.%X>X>X&XT.&X-XT.T.T.;XT.N.N.C.T.;X>X&X;X&XN.N.&X&XC.OX&X%XN.b.b.b.q.n.5.R ) b.OXq.E 6.i.5.0.b.u.n.u.8.X. .@.Z 1 4 K &.{.A.A.Z.Z.N.N.OXC.C.C.T.&X9XuX=X=X=XT.T.T.Q.Q.M.&X;XT.N.&X;XT.-X8.9.%X>XM.j.T.N.M.M.T.-X-XT.M.T.T.C.T.T.T.%X%XM.C.T.T.C.C.C.N.b.N.C.%Xb.&X&XC.Q.j.j.j.b.N.q.q.b.N.C.C.C.N.i.6.",
"u.u.q.q.i.n.u.o.O. .| O.#.O.O.O.6.6.6.6.b.OX:X*XOXn.n.XXn.t.O.O...t.a.A.A.%X&XQ.J.Q.Q.Q.J.x.x.k.M.k.M.J.M.M.J.J.Y.T.J.M.Q.9X9XQ.-XQ.J.H.Y.Q.W.Q.M.j.,.,.j.T.T.Z.m.R.4X=XR.H.M.m.J.J.j.M.=X-X;XM.m.m.M.M.v.v.i.t.y.s.3X%.O.O.OXB.q.v.C.C.q.8.b.N.b.N.N.N.M.M.N.N.M.%XQ.N.N.M.j.8.j.M.C.T.=X=X&X;X%Xv.8.v.N.N.b.q.b.N.C.N.Z.C.C.n.n.C.Q.C.C.C.N.b.T.T.C.N.T.T.T.N.b.u.q.u.+.t.1X+X+XCXPXPXKXpX9X&X5X%X%X%XN.8.6.u.b.v.j.j.v.M.T.-XuX>X-X=XQ.Q.4X8XW.4X4X=X4X=XJ.J.H.=X5X4XE.Y.=X5X&X&XQ.T.N.b.b.M.N.M.v.M.N.C.C.N.C.N.b.q.w.q.q.q.n.%X>X*Xn.6.6.i.|.1X2X*X&X&X>XtX;XC.B.N.-X;X%XN.J.T.Q.-X9X9X;X&XT.-X&XT.T.Q.T.M.T.N.N.T.Q.%X&X%X%X&X%XT.%X&X%XC.M.M.N.T.N.j.v.N.v.N.N.M.v.N.b.w.N.N.N.C.C.N.M.N.N.C.%XC.&XrX>XC.b.v.T.>X;XN.b.b.-XT.N.C.C.N.N.C.;XC.v.M.C.%X-X;X>XC.b.C.%XN.N.%XC.N.N.N.N.v.v.b.u.v.v.8.) T 6.C.N.N.q.n.u.) q.q.B.6.^ } Z ; 7 ' &.a.XXC.b.u.b.N.C.%X&X&X%X&X5X9X=X=X=XQ.T.%X&X=XJ.T.T.T.%X&X%XT.%XN.v.M.%X;X&XC.N.T.&X;X;X;X>X>X9X>X;X&X&X%X%X%X%XQ.N.v.j.M.C.T.b.j.v.;X&X>X,X,XQ.j.w.j.N.T.b.v.b.b.u.q.0.i.i.u.",
"9.v.v.6.X.O.O. .Y P Y U  . ...O.6.6.6.q.u.n.N.N.n.&XOXn.u.i.t.| O.s.@X@Xi.q.Z.T.9X9X9X;XY.j.k.Y.J.k.x.M.x.k.j.9.k.f.j.J.=X%XT.T.Q.W.Q.Y.M.M.M.M.7.,.7.T.&XN.M.Q.=X5X4XQ.L.J.J.Y.m.N.N.T.M.b.T.v.j.M.=X%Xm.u.6.| ..%.$X.XO.Y 6.6.v.v.N.Z.b.b.N.N.b.b.M.b.b.b.b.N.T.-X%XT.T.C.N.%XM.T.T.Q.-X&X=X9X%X%X-X%XM.M.T.%X-X9X9X-XC.M.M.N.T.C.M.b.N.C.N.j.J.N.M.N.Y.Y.Y.T.N.v.b.n.O.i.1X@X$XCXZXZXtX9X=XJ.N.M.N.%X%XN.N.%XZ.N.b.M.M.J.T.-X;X9X-XY.Q.7X4XE.4X8X4X4X8X4XW.R.E.7X7X4X4X9X9X9X=XQ.T.N.N.b.b.M.j.M.N.T.%XT.M.q.q.j.j.v.b.N.C.C.C.C.C.C.A.t.X.| s.+X*XOXC.%X;X>XuX;X%X-X9X9X;X-XT.&X=X&X9X,XQ.%XT.=XT.T.=X%X%Xm.j.j.N.-X5X&X=X-X%X-X&XT.T.%XT.M.j.M.N.T.N.M.M.M.j.j.j.j.j.j.j.j.j.j.j.j.j.M.N.C.b.N.N.N.T.T.N.b.C.b.M.N.b.M.T.%XC.N.b.n.N.C.T.C.b.b.N.N.N.M.M.M.C.C.C.N.M.b.M.N.T.b.j.v.v.j.M.T.;XN.j.v.b.b.b.N.C.u.6.q.4.T 6.v.u.e.o.$.Q 7 7 { &.a.A.N.u.q.u.N.C.;X>X-XN.v.M.T.Y.&X=XQ.T.-X-X-X=X&X=X5XtX9X-X;XT.;X;XN.N.;X>X&X;X-X&X&X-X>XuXiXrX>X;X&X%X%XT.T.%XQ.T.M.M.C.T.T.N.w.8.%XC.%XC.T.T.N.T.M.N.C.n.Z.Z.N.b.N.OX1X+XA.",
"b.N.b.6.T U U U C N N C P ~ ]  .6.0.q.6.6.5.6.6.i.n.n.t.O.t.t.| %.s.+X+X0.5.u.v.;XQ.T.M.j.7.j.N.J.k.x.x.z.z.l.7.j.k.J.Y.Y.J.Y.=Xk.H.Y.J.M.Y.T.T.j.7.7.j.w.7.j.Q.Q.Y.m.f.d.k.J.T.T.Q.&X&Xb.v.%XN.=XJ.m.8.>.5.u.e. .] &.}. .U OXrXC.v.q.b.N.C.C.v.j.v.b.v.j.w.j.b.9X;X%XT.T.N.T.9X-X9X&X&X9X=XQ.5XJ.=X9X=Xf.f.Y.Q.5X5X;X=XQ.Y.T.W.T.M.f.7.f.m.J.J.M.z.j.j.z.x.x.k.N.b.N.A.O.t.+Xs.XX@X*X%XT.T.E.J.J.J.T.%XT.N.N.N.M.b.v.m.k.m.H.Y.J.J.J.Y.E.4X7X7X6XqX6X6XxXqX7X7X^.7X7X7X6XqXwX9X=XT.J.T.T.N.M.M.Q.T.J.N.N.T.Q.%XC.C.C.N.N.N.N.M.T.&XC.Z.OXt.U U t.OX+X&X&X&X&X&X=X-X5X4X=XJ.=X5X9XuX&XJ.J.j.f.j.=X-XJ.Q.-XQ.=XJ.J.=XQ.M.j.M.T.=XT.Q.Q.Y.M.M.M.M.Y.Q.Q.M.m.M.J.M.J.j.j.J.M.9.9.v.j.m.j.f.j.N.T.N.M.j.m.J.m.7.7.M.j.j.M.J.M.Y.T.M.M.N.N.b.N.T.C.M.M.v.f.7.9.5.k.T.M.-X-XM.m.T.%XM.j.m.J.=X=XT.M.m.M.M.N.N.M.v.M.M.b.8.M.%XC.C.v.8.^ 6.t.}.} 7 7 ] s.a.A.C.b.u.n.OX%X&X-XT.M.M.M.k.H.Q.-X&X=X;X;X-XQ.=XQ.&X9X-XT.&X;X-X-X%XC.N.C.-X;XC.b.b.C.%X&X%X;X&X%XC.C.%X%X%XT.T.T.T.T.%XQ.C.T.b.w.N.j.M.b.b.j.v.N.j.8.j.q.v.N.C.C.&X1X,XC.u.",
"N.B.n.i.6.T D N C N N N D Y U | 6.6.u.6.6.+.4.6.q.6.6.6.o.| X.O.t.%.a.OXi.u.v.w.M.N.N.N.M.M.M.M.M.k.x.m.l.x.H.M.m.M.k.f.j.T.T.m.E.E.J.M.H.Y.M.k.j.T.T.j.j.N.T.M.T.T.J.M.M.J.N.v.N.M.v.b.w.q.T.b.J.f.9.9.8.B.n.O. ...}.oX .^ i.N.N.v.v.b.b.N.N.v.v.M.M.b.j.j.j.M.v.v.M.T.=XN.J.>X9X9X;X;X9X;X%X9XuX5X=XJ.k.T.Y.7.j.7.j.Y.5X;XQ.J.J.Y.Y.m.j.z.J.=XQ.J.H.m.m.m.m.m.C.N.OXOXo.O.XXO.t.XX:X%XT.T.T.J.m.m.N.T.T.N.v.8.M.M.m.M.H.H.L.E.5XJ.J.-X=XH.L.6X7X6X7X7XqXqX4X8X7XqXxX7XE.E.^.7XW.J.J.T.&X%XT.N.j.v.N.T.T.T.T.T.b.M.N.T.T.T.T.T.M.&X&XC.OXt.|  .i.a.n.C.&X%XC.%X-X=X=X=X-X-X-X5XQ.5X-X&X9X-XY.;X=XQ.j.J.Q.T.5X-XM.M.m.m.M.J.M.f.Y.J.Y.T.J.j.k.Y.J.E.H.f.7.m.J.M.m.Y.E.M.j.j.j.j.M.J.N.v.M.T.N.j.M.m.j.7.f.M.k.7.f.j.k.j.z.Y.Q.M.M.C.N.v.v.N.v.5.j.8.7.j.j.k.m.m.-XT.M.T.-X;X&X=XQ.-X-X=X=X5X5X=XM.T.T.M.j.M.T.%X-Xq.N.N.N.>XN.8.4.r.p.&.Q ; 7 [ {.XXC.%XC.C.OX;X&XC.b.N.-X9X5XY.m.Q.-X=X&X;X>X;X5X9X-XT.=XT.J.&X9X-XQ.%XT.N.M.N.C.%X&X&XT.T.-X>X;X&XT.C.T.%X%X%X&XT.M.j.M.Q.&X&X&XT.M.M.8.M.N.N.w.v.N.w.8.b.q.q.N.C.OXC.b.i.u.q.",
"B.v.v.p.6.Y C D C C Y | +.6.0.u.u.OXOXb.8.q.8.6.4.8.X.R 6.u.o.X.o.%.t.i.n.n.v.q.m.m.M.H.L.J.L.J.x.k.x.M.M.H.M.k.k.J.M.M.J.M.k.M.E.Y.E.5X8XQ.M.j.Y.W.5X;XQ.Q.&X9XY.T.T.J.T.J.N.M.M.8.5.8.M.%X%Xv.8.j.j.j.M.N.u.o.] y.}..X%...XXn.C.N.v.v.v.v.j.5.j.j.j.m.M.N.M.m.N.b.w.8.N.;X;XT.Q.T.N.j.5.5.q.N.,Xb.8.k.M.j.f.j.k.M.M.N.M.M.M.M.7.N.M.T.J.f.J.M.M.J.Y.Y.J.M.M.M.b.u.n.a. . .%.#.O.n.%XN.N.N.N.T.-XuXuX-XN.M.C.T.M.v.j.j.z.H.R.W.9X=XT.J.H.m.H.Q.J.E.Y.J.W.4X5XE.R.^.^.J.R.^./.W.L.Y.Q.Q.N.v.M.T.b.M.C.C.C.N.T.;X;X;X;X;X;X-X%X%XN.N.;XA.A.| ] Y t.+X:XOX;X%Xn.%XN.%X%XT.C.T.Q.T.Q.M.T.;X&X;X9X;XQ.M.m.J.%XT.J.J.N.T.=X=X-X-XT.m.N.M.N.T.Q.T.b.w.v.8.7.v.T.&X&X-XM.N.Y.T.T.T.N.M.Q.v.j.C.T.M.j.v.j.k.M.M.N.T.T.N.N.C.C.M.j.j.N.=XT.N.N.C.N.j.j.M.&XT.N.N.J.T.T.T.N.M.C.;X9X9X%XJ.N.T.T.j.j.J.4X9XQ.T.Z.Z.Q.&XQ.N.b.C.;XC.%XC.N.4.R T e.s.J 7 7 ' }.XXOXN.j.b.T.;Xv.j.b.N.N.J.Q.5XJ.=X5X&X%X&X-X&X5X9XuX9X5X;X5X5X=X-X5X-X=X9X5XN.Q.T.T.T.T.T.T.&X&X%XN.T.-XN.N.9X%XN.v.M.&X9X9X-X;X&XT.N.T.T.Q.T.N.B.8.8.v.8.6.v.v.q.u.q.0.q.i.0.",
"8.v.r.X.^ | o.| |  .O.u.N.OX&X,X;XOXb.u.8.4.9.q.) q.b.OX2X*Xi.6.O.t.i.n.C.OXC.N.M.M.H.H.L.L.H.m.x.M.M.M.k.j.h.h.M.Y.T.T.Q.Y.k.k.H.W.4XQ.H.x.J.E.9X4XW.W.=XW.Y.k.N.J.N.M.m.j.j.j.N.j.N.;X-XM.w.5.j.j.m.J.-X;Xb.X. .y.s.}.%.] y.u.OXT.N.M.b.v.v.j.7.m.J.J.k.j.m.T.M.j.9.8.v.N.T.T.b.j.q.q.q.q.q.8.Y ) 6.q.M.Z.k.7.M.M.M.N.M.v.9.:.f.j.f.N.=X=X=XJ.T.T.T.T.N.M.M.v.N.u.i.t.P N U | a.OXOXb.b.b.b.n.T.=XT.m.v.N.C.N.N.v.f.j.J.R.K.x.J.M.m.m.j.f.j.m.Q.T.Y.M.M.Y.W.=X/.E.H.x.R.0X4XE.4X=X=X=XT.N.N.C.&X%X%X%X%XC.C.T.%X%XQ.T.T.Q.%X%X%XN.b.t.%...] U s.+X*XOX&XZ.v.C.&XOXN.v.j.M.T.Q.Y.T.-X%Xj.7.j.j.M.;XuX-X%X%X%XN.N.M.j.8.5.8.N.-X;X-XT.M.v.j.v.v.8.j.C.&X%XN.b.b.T.T.T.M.M.M.M.v.j.N.C.b.j.v.N.C.k.M.m.j.j.N.T.T.&XN.q.b.%X;XQ.M.Q.J.M.M.M.j.N.-X-X;X9X;X&X&X9XtX;X;X&XC.T.&X-X-X;XT.M.T.=XQ.E.&X;X,X9X,XC.w.w.N.b.b.N.q.b.b.u.X.8.^ #.&.Q 7 ; J }.a.n.N.T.&XQ.C.q.q.j.M.M.M.J.E.4X=XQ.%X&X;X>X9X5X=XQ.=X=XQ.Q.=X9X-X5X9X5X5X5XQ.N.M.N.T.T.N.N.N.N.%XT.%X;X&XT.-Xv.M.J.Q.&X%XT.M.J.M.j.j.M.M.M.v.v.q.6.8.b.u.q.b.b.q.q.q.5.q.q.5.",
"v.v.r.+.o.u.a.a.e.{.+X1X>X;X%XZ.N.0.6.b.Z.n.N.C.>X;XOXC.OXn.0.u.e.y.n.A.n.OXOXT.M.M.M.m.S.x.z.l.z.x.J.M.k.j.z.k.M.Y.Y.T.W.Y.M.k.L.H.H.L.J.Y.W.8X9X=XT.W.5X-XT.j.j.v.M.N.N.T.=X;XT.N.%X9XQ.v.j.v.j.T.-X=XT.N.8.X.#.s.&.&...] %.i.b.M.M.v.8.9.8.j.M.N.T.J.N.N.T.Q.C.M.M.T.C.8.) R 9.4.5.q.b.b.v.w.i.C.C.n.M.T.T.J.T.J.k.j.8.j.v.v.M.m.m.N.T.-XJ.H.H.J.J.N.N.M.N.N.n.0.t.t.P C  .s.|.OXN.q.j.v.j.v.j.m.N.M.M.N.M.j.M.N.J.J.L.L.D.x.d.f.j.l.k.H.H.H.M.J.Y.E.Y.M.H.Y.4X0X8X4X4X0X0X4XR.J.Y.Q.-X;X>X2X;X&X%X%X&X%XT.T.;X&XT.N.v.j.j.v.T.N.b.i.%.%.] I %.OX&XOX%XZ.b.C.C.N.v.v.v.v.v.b.M.T.-XQ.v.b.N.b.5.C.&XC.b.N.N.M.q.v.T.9X9XT.v.q.b.b.b.b.b.N.C.%XM.C.-X;XT.b.v.b.M.M.M.j.j.M.C.T.N.N.b.q.q.b.b.j.j.M.J.N.N.C.T.C.C.N.N.C.%X%XT.M.j.m.N.%XT.N.M.T.M.T.T.J.m.j.M.T.j.C.%XN.M.N.M.j.C.v.8.v.N.M.J.Q.M.b.C.,X&XN.Z.&XN.R X.b.&X5.X.u.B.6.e.&.J 7 ; J }.{.b.b.T.-X&XT.N.C.T.%XQ.T.Q.Q.5X5X9X9X;XT.&XuXMX5XQ.5X5X=XQ.5XQ.M.J.=XY.H.J.Y.5XQ.M.M.M.N.T.&Xj.T.T.T.;X;XT.M.m.N.T.T.N.M.N.T.N.j.j.j.M.J.M.v.q.8.4.8.b.v.8.u.v.q.u.u.q.i.q.5.",
"u.9.4.8.r.e.e.s.@X<X*XA.b.v.b.b.b.i.u.q.b.Z.N.q.C.N.N.OXOXu.O.6.t.a.A.i.i.b.b.v.M.M.m.x.x.x.x.k.j.x.M.M.M.k.M.H.M.M.k.k.Y.Y.J.Y.H.h.h.Y.W.E.Q.8XY.Y.Q.W.Q.T.J.M.v.j.v.m.M.M.M.T.N.T.T.N.j.N.T.N.M.&X9XQ.v.8.8.6.a.}.%.....] %.A.u.v.j.8.4.) 4.8.M.v.v.v.M.N.J.N.%XN.M.M.M.b.v.b.b.b.n.C.%X%XC.C.b.Z.Q.&X&XZ.N.Y.f.k.T.&XT.N.M.N.T.J.5XT.M.J.j.J.m.m.m.m.M.M.N.N.N.u.i.O.C B  .t.|.OXN.q.j.j.q.v.j.J.%XT.M.M.v.v.N.Y.Q.Q.L.H.H.L.L.E.R.J.L.Y.R.H.H.H.Q.4XW.J.H.Y.R./.4X/.R.R.W.4X4X=XQ.%X%X%X&X;X&X%XOXOX%XOXT.T.N.N.N.N.N.N.N.N.M.%XOXXXO...I I O.a.C.C.%X%XC.%XN.u.q.b.b.j.w.8.j.v.v.j.b.C.N.8.b.v.j.v.M.b.N.C.;X%XN.v.q.v.C.;X%X%X%XT.C.C.T.T.T.C.C.N.N.b.v.j.j.j.j.j.v.J.T.T.T.j.8.v.b.w.8.8.9.7.j.w.w.q.q.q.9.v.C.N.j.7.7.j.T.M.j.j.j.j.M.T.N.M.j.j.v.M.j.5.M.C.C.b.v.M.N.N.5.N.%X%XT.%XT.N.Z.N.C.&XQ.N.k.b.) 9.8.R 6.u.b.6.v.u.|.&.Z ; ; Q }.XXC.M.M.N.&X-XN.C.T.%X%XQ.Y.Y.M.Y.5X9X-XN.M.T.;XY.J.Y.Q.T.Y.Q.T.J.T.=XY.J.T.=X%XT.T.&X-X%XN.M.M.N.M.N.-X>X&XN.=X=X%XT.M.M.N.T.j.j.j.j.M.M.j.j.v.u.8.8.v.q.9.6.q.q.b.b.0.6.5.) ",
"v.8.8.v.n.p.p.a.@X*XOXv.q.u.n.n.Z.b.q.5.5.w.v.q.v.q.N.;XOXu.+.X.O.a.XXn.i.n.B.M.T.J.H.m.m.m.m.m.M.M.M.M.M.M.m.k.M.M.j.j.M.T.T.Q.x.H.L.Y.J.J.Y.Q.M.J.T.Y.N.k.j.j.N.j.j.m.M.M.j.v.j.v.M.M.M.T.N.7.N.T.T.M.M.J.OX|.{.}.&.@.=...O.A.N.b.v.q.6.9.8.v.v.b.b.v.v.v.M.T.M.M.v.v.N.-X;X%XT.C.N.C.%X%XC.b.Z.n.n.Z.N.b.v.N.-XQ.N.M.v.v.T.;XJ.H.5XT.M.J.m.=XJ.M.M.m.k.k.M.M.b.n.n. .N P #.%.t.n.N.b.b.v.k.b.N.J.J.m.j.M.T.=XQ.J.M.J.W.4XW.R.^.7X^.R.R.4X4XR./.R.R.E.E.E.E.4XE.Y.x.l.D.R.W.W.=X-X=X%XT.T.%X&X&X&X&X%XC.C.C.C.C.T.%X-X-X&X%XT.N.:XC.n.|  .U ! O.i.N.C.%X&X%XOXN.q.6.0.q.8.8.w.9.8.9.9.n.&XC.q.C.v.8.8.v.v.v.b.q.OX%Xv.8.q.N.C.-XT.N.v.b.M.M.M.j.j.j.v.j.j.w.8.j.M.M.M.b.M.b.j.8.w.M.C.b.8.q.b.j.8.,.R ) 5.q.q.q.b.N.M.j.f.j.j.j.j.M.T.&XT.j.7.N.b.j.j.N.%XN.j.T.M.N.T.%XN.N.N.T.-X&XN.b.N.T.T.T.;X;XC.w.w.q.q.5.q.u.E R 9.B.8.8.B.|.@.v 1 7 H &.|.&X%XC.T.T.Q.;X>X9XuXuXuX9X5XQ.Y.J.T.>X9X&Xv.f.m.M.M.N.Y.Q.Y.J.J.=X=XJ.Y.=X-XJ.N.N.%X-X%XJ.M.%Xm.j.N.;X9XuX9X;X&XT.T.T.N.j.8.8.j.v.b.b.M.M.M.N.N.u.u.b.v.q.q.q.q.u.8.) _ ) _ ",
"B.N.N.B. X*X<X@X|.OX:X:X%XC.N.b.q.+.) q.k.w.n.&X>XC.C.C.u.+.+.X.o.a.@XOXXXOX:X%X-X=XJ.H.H.M.M.M.J.N.M.M.J.J.J.M.M.M.k.k.J.T.J.T.J.=XW.M.J.5X5XJ.J.J.J.J.J.N.M.m.N.v.j.M.T.N.m.j.j.9.5.M.T.N.v.7.j.N.T.N.M.T.%X@Xs.s.s.&.s.%.] 0.n.b.u.q.8.6.q.b.b.q.8.5.8.q.q.8.5.j.M.M.C.T.b.9.v.w.q.b.%X%XN.q.,X&Xb.w.8.b.T.%X-XT.J.=X;X%XM.j.m.m.J.M.m.H.M.J.H.M.M.M.M.M.M.M.q.i.i.| D ] s.t.U o.6.8.j.j.b.C.M.m.j.v.J.=X=XT.M.M.M.H.R.W.4X4XK.K.L.L.K.W.W.W.E.H.D.H.E.E.E.E.E.W.W.W.E.R.R.R.J.Q.=XQ.T.%X&X;X%X&X&X%XC.T.%X%X&X;X;X;X&XT.N.M.T.%XOXn.t.%...U t.a.OXOX%X%XOXA.i.t.0.u.q.q.9.9.4.q.q.q.C.&XOXC.9.v.v.8.6.v.b.q.q.v.q.4.8.C.C.q.9.9.9.8.v.b.b.j.w.j.v.8.9.5.j.M.j.M.M.M.b.v.j.5.8.N.%XC.N.C.n.q.N.v.8.5.8.v.v.q.v.b.M.M.M.M.M.N.T.N.v.b.N.T.C.N.j.v.j.j.j.M.M.j.7.9.j.%X;X%XM.v.;XN.8.q.j.v.M.T.C.C.b.8.8.N.C.Z.N.v.N.N.B.X.6.v.B.B.a.! h 7 7 Z {.|.N.N.T.&X&X%XT.&X-X-X;X;X&XT.9X;XJ.j.N.-X&XN.j.T.=XY.J.T.T.J.j.k.J.J.j.M.Y.T.;XT.N.N.T.Q.-X9X;XM.v.N.T.&X9X9X%XN.j.v.N.T.v.8.8.j.M.N.M.N.T.%Xv.B.v.v.N.N.b.N.b.v.u.8.+.6.b.b.",
"v.M.B.q.v. XOX X*XOXN.B.Z.C.C.T.n.q.q.n.C.b.n.%XC.v.n.A.u.0.0.+.o.{.+X@XOX*X;X;X=XT.H.m.m.m.m.m.M.M.M.M.M.M.M.M.k.M.M.M.J.M.m.M.Y.T.J.m.Y.9X=Xk.M.M.M.N.T.T.T.T.Q.N.b.M.v.9.R R f.,.7.v.M.M.m.f.j.Z.Q.J.j.v.N.|.t.y.s.s..Xs.] O.n.u.q.q.6.4.6.v.q.X.R R 4.8.4.R j.j.8.7.8.j.b.N.b.b.n.Z.C.%X%XC.q.q.w.q.v.b.N.T.9XT.M.M.N.N.N.T.m.H.m.m.m.j.m.z.k.k.m.M.Y.Y.Y.M.n.u.6.U N I ..] ! X.X.4.8.w.q.N.j.j.m.T.;X5X=XJ.k.J.Q.E.Y.Y.W.8X7XE.L.L.L.S.z.l.D.D.D.D.R.E.R.D.c.E.8X9XR.x.z.H.=X=X&XT.T.T.C.N.C.C.C.C.C.%X&XT.N.N.N.T.T.T.Q.%XT.%X:XXX.Xy...U t.n.&X&XC.C.OXOXi.n.A.N.b.v.8.4.q.n.v.q.v.q.X.5.X.v.N.i.u.N.C.N.6.+.T T 6.b.6.E 5.8.v.n.N.b.q.9.v.b.j.5.9.q.N.%Xv.M.M.M.M.b.j.w.b.C.N.b.b.C.N.8.q.q.q.q.q.u.q.5.4.9.8.8.7.d.z.M.v.M.N.Q.%XT.N.v.v.N.N.v.j.M.N.M.M.j.8.m.T.T.%X%Xv.j.b.&X;XOXB.v.C.b.8.5.q.n.b.q.q.C.>XC.C.N.N.8.N.u.e.~ h 7 w Q #XoXB.v.N.%X;X&X-X;X;X-X;X;X-X%XJ.T.N.j.7.9.q.M.J.&X;X%XN.M.m.j.M.m.N.T.M.m.N.T.T.T.Q.-X-X%XT.T.Q.J.Q.T.v.M.%XT.N.b.j.M.T.Q.N.v.9.8.8.w.w.w.v.M.q.b.b.M.C.C.N.C.C.N.N.b.b.Z.%XC.",
"N.v.v.b.B.u.v.n.n.r.8.v.C.C.M.b.Z.b.q.q.i.Z.%X&XC.q.b.b.0.0.u.O.o.{.1X*XOX:X:X%XN.M.k.j.l.z.k.k.k.M.M.j.f.7.7.f.j.k.j.j.k.j.j.M.m.k.J.Q.J.f.7.j.k.M.N.N.m.m.N.%XN.M.M.N.M.5.) R ,.j.N.M.v.N.m.,.Z.Y.M.k.m.N.N.u.y.y.s.&.oX.X| s.n.i.u.u.q.5.q.N.q.q.u.u.q.v.b.C.N.M.b.M.j.j.v.T.N.%X&XC.8.9.b.&X,Xb.q.v.w.) 9.C.b.M.N.N.v.8.j.N.m.E.M.J.m.d.H.M.M.M.M.M.J.M.k.j.n.6.X.U P [ s.s.{.a.6.5.5.5.5.8.M.N.%X-X-X=XQ.T.Q.T.E.Q.W.W.R.L.L.z.z.L.R.K.K.R.E.E.H.c.D.R./.E.R.Y.Y.Y.Y.Y.R.Q.H.J.N.N.T.&X&XC.%XC.N.b.N.C.N.v.T.T.N.N.N.C.T.%X%X:X;Xu.%.] ..| O.i.&X;XC.C.*X+XOX*XOXn.u.i.b.q.q.v.5.5.b.q.X.6.q.6.6.u.u.q.q.u.v.v.q.X.R R ) 5.5.9.8.q.8.8.5.5.q.q.8.w.b.T.C.b.N.T.N.M.b.M.b.j.q.j.b.b.q.8.b.C.N.N.b.q.q.u.v.q.q.q.j.j.k.M.H.M.M.N.N.M.b.b.N.N.j.M.M.j.M.Q.%XC.M.M.m.m.M.N.v.8.v.C.C.v.u.b.N.N.q.q.b.b.q.9.4.5.q.8.v.q.N.v.N.N.N.e.e.[ c ; q -.oX@XOXN.C.T.T.C.%X&X%XC.T.%XT.N.b.v.N.T.C.b.b.C.&X&X;X;X=XJ.N.J.J.j.M.%XN.j.v.T.C.N.N.N.M.j.j.j.j.N.5X&Xj.N.-XT.b.N.-X9XuX-XM.8.j.j.j.j.w.j.j.v.b.%X%X%X&X%XC.%X%XZ.Z.Z.n.Z.n.5.",
"M.q.8.B.N.B.u.8.6.6.8.8.j.b.k.k.b.b.k.i.w.j.b.n.i.q.N.C.u.A.OX+.] %.+Xn.u.OXN.%XM.N.H.m.m.J.J.H.k.N.m.f.f.7.9.,.f.v.v.f.j.M.M.j.m.m.M.m.j.f.j.M.M.m.j.j.N.%X-X%XT.v.N.C.8.9.8.8.7.j.Y.=XQ.J.T.=X9Xk.J.k.8.M.v.p.t...y..X#X#X#.t.i.C.A.u.i.OXOXB.b.u.u.v.b.N.b.v.M.j.b.M.v.C.%Xv.N.T.&X%X9.4.C.C.v.q.q.v.q.q.N.%Xq.8.8.M.C.b.j.f.J.J.N.m.j.f.f.j.j.M.J.M.k.M.Y.N.b.5.| U S A [ @.{.OXN.5.,.q.N.j.T.T.T.T.Y.Q.=X=XW.Y.H.Y.W.W.H.g.d.g.z.z.S.K.E.^./././.^.R.R.S.c.x.H.W.W.x.R.5XW.L.Y.N.M.C.C.N.C.%XZ.N.C.OXOXT.&X&XN.M.T.&X-X%XT.%XsX&Xn.o.O. .| +.u.OX:XOXOX+X1X3X*Xn.n.C.OXN.q.v.Z.n.q.q.u.0.0.q.u.N.C.n.b.n.u.N.n.q.X._ X.+.X.6.q.u.q.q.8.8.q.q.8.v.q.C.N.%XT.N.N.N.C.N.v.j.v.N.q.5.9.9.5.8.q.v.C.C.q.5.q.q.8.9.q.j.7.j.J.R.Y.M.M.M.M.M.M.M.M.M.N.N.M.v.b.T.-X-X-XT.T.M.8.8.9.M.q.C.b.b.v.OXv.q.v.q.4.5.N.N.q.b.4.R 4.4.X.4.B.v.u.o.[ w 7 V oX#XOXv.B.%X-XT.Z.N.b.j.j.C.&X&Xb.b.Z.N.b.b.%X&XN.T.&X&XT.M.b.M.M.N.v.j.v.M.M.N.N.M.b.b.j.j.j.j.j.m.M.M.M.J.Q.Q.J.M.N.T.-X;XQ.N.b.8.j.j.v.j.7.v.T.%X%X%X%XT.T.C.%X%XN.b.b.i.q.5.q.",
"b.v.j.v.q.8.B.%XB.B.b.b.b.b.k.q.k.n.C.&X;X;X&X&X&XN.C.+X@X*XA.U  .] t.u.n.OXv.b.M.M.k.m.J.Y.M.j.j.m.f.9.7.j.v.N.m.M.M.j.j.M.M.v.9.m.T.=XE.T.M.f.j.j.v.M.N.T.N.b.C.C.&X%Xv.v.N.M.%X=XQ.N.k.M.Q.-XW.j.J.M.j.M.v.p.i.#.s.}..Xs.| t.u.u.q.6.u.A.C.b.v.b.b.b.b.b.b.b.N.v.b.v.j.M.N.j.b.C.%X%Xv.q.C.b.v.n.N.v.8.b.C.b.b.v.v.b.M.v.N.Q.J.N.N.N.J.J.J.N.M.T.Y.N.M.M.M.M.b.i.i...C B W @.t.a.A.N.Z.Z.b.w.C.N.N.M.M.J.J.L.Q.Y.x.z.z.D.R./.E.^.K.S.S.K./.4XR.R.^./././././.W.H.E.8X8X4XW.x.Y.Q.T.T.&X&XOX&XZ.Z.C.%XOXb.q.w.N.N.T.%X%XQ.%X&X;X%XN.*Xi.O...a.*XA.0.u.Z.OXOXOX@Xa.i.A.OXN.b.b.b.b.8.9.q.b.n.N.C.A.OXOXb.u.u.6.6.X.+.6.q.6.6.u.u.q.q.q.q.q.q.q.q.8.v.j.N.v.N.v.v.v.b.M.b.j.j.b.b.n.v.9.9.q.u.5.8.v.n.b.q.u.b.Z.C.C.N.b.N.Q.Q.M.8.v.N.M.j.w.v.C.C.M.v.b.C.T.T.N.T.M.f.M.T.N.%X&Xv.9.u.q.b.v.b.) ) ) 4.5.q.b.b.v.8.q.q.9.9.u.v.v.B.|.#.~ 0 h J }.}.p.8.v.N.b.b.Z.v.j.w.8.j.n.n.b.8.b.n.q.8.j.v.8.8.M.C.N.M.j.j.w.8.8.8.j.j.8.8.w.8.q.j.j.j.j.j.j.M.M.J.Y.J.M.j.j.N.v.8.5.9.7.j.M.b.w.8.j.v.v.j.8.5.B.%X;X%XT.N.B.C.n.b.b.q.q.i.b.",
"8.5.q.b.N.B.v.v.N.N.N.N.n.n.n.Z.q.n.Q.;X;X&X%XC.&XZ.C.OXOX@Xi.Y ] | y.i.n.C.v.b.v.m.m.M.J.J.m.f.f.M.m.j.M.M.M.N.M.M.M.m.v.m.M.J.=X=XM.9.,.7.j.5.8.v.T.%X-X&XT.M.C.%X>X&XN.%X>X-X&X-XQ.k.j.M.J.M.T.j.Y.T.N.N.v.i.t.%.}..X.Xs...t.i.u.6.6.u.n.C.B.q.b.N.N.b.v.v.b.b.j.j.j.j.M.C.b.w.v.v.N.b.b.C.v.v.b.N.v.8.v.b.9.6.q.N.%XT.M.m.M.J.N.m.M.J.N.M.v.j.b.M.M.M.N.M.b.v.n.n.#.I W ..@.%.t.i.C.C.C.C.C.M.M.M.M.N.J.Y.R.L.R././.W.E.E.E.E./.4X/.E.E.^.^.R.E.W.R.R.R.R.W.H.1.7.M.E.=X5X=XQ.&XQ.T.%XOXN.C.C.C.%X%XC.N.C.T.&X%XT.T.T.T.%X;X;X%XN.1XXXt.%.+Xi.u.i.N.b.0.+.+.0.+.6.A.A.u.q.N.9.8.q.b.C.N.u.b.B.b.N.N.b.b.B.i.5.6.u.N.N.b.i.b.i.q.6.0.q.u.q.6.5.9.j.w.b.q.j.8.v.v.v.b.b.b.b.N.v.v.q.6.8.u.q.9.5.5.q.q.0.5.6.b.b.b.b.j.v.N.M.k.v.v.j.v.b.N.b.b.v.v.v.v.j.w.5.9.9.8.j.T.T.j.q.8.b.8.v.q.b.u.q.T 5.5.8.u.b.v.v.v.b.8.8.B.T.N.N.N.N.|.#.W 0 f H &.y.6.q.N.M.8.q.Z.b.b.v.q.q.8.q.b.q.q.5.4.q.Z.M.8.9.8.8.9.9.8.q.j.9.8.q.b.j.8.9.9.w.q.v.M.N.C.T.%XT.j.j.Y.5XQ.j.<.,.8.b.C.N.j.w.j.N.j.8.j.N.N.j.5.8.M.%XN.v.v.v.v.n.N.n.v.b.n.Z.Z.",
"N.q.8.q.v.b.B.B.b.b.B.n.n.n.Z.C.C.C.%X&X&XT.C.C.>X;X&XA.6.X._ D P %.XXi.u.C.n.q.8.v.J.H.k.j.j.k.m.N.M.M.T.N.j.j.m.m.M.M.m.m.J.=X-X=XN.8.9.5.5.,.8.M.T.%XT.C.M.v.Z.C.T.C.N.C.%XQ.T.T.J.m.k.M.M.j.k.j.M.J.J.M.v.e.| @.s..X#X.X%.t.n.u.q.i.N.N.N.b.8.u.b.N.b.v.v.v.j.j.j.j.j.M.N.N.q.j.8.q.q.v.N.q.b.8.q.v.q.6.6.4.8.q.v.v.j.8.j.M.M.B.v.B.v.v.j.8.j.q.j.j.k.b.M.b.v.b.u...] @.&.@. .| X.5.5.q.N.C.N.N.N.J.J.Y.E.W.R.H.H.H.R.E.R.Y.4XqXwX4XE.D.l.l.c.D.D.Y.U.Y.R.W.E.x.z.j.h.j.J.W.T.=XT.C.%XC.B.N.&X&X%X%X%X%X;X9X&XT.N.N.%X&X%XT.%X%XOXOXi.{.a.XXt.OX;XOXu.6.t.a.X.X.0.n.N.u.u.n.b.b.q.8.8.5.u.*XN.v.b.u.6.6.6.6.5.N.OXb.u.N.n.6.u.0.5.+.6.q.6.9.4.5.8.8.j.q.j.7.8.5.9.8.8.5.5.q.q.5.9.u.u.9.5.q.q.q.u.b.u.q.q.u.5.q.b.j.j.j.v.M.N.j.8.j.N.C.b.q.w.j.v.j.w.5.9.,.5.b.b.b.v.8.N.N.N.N.OXN.b.u.v.q.b.b.n.b.v.q.8.q.b.8.8.N.%XN.N.;X%Xp.o.~ f 7 B &.t.e.v.N.v.8.q.b.q.j.v.b.q.5.q.C.C.b.8.5.q.N.N.8.8.8.5.,.,.8.b.N.b.b.M.N.b.w.5.8.9.4.,.9.j.N.C.C.T.N.N.Q.5X=Xk.7.,.8.b.N.v.8.q.b.b.v.v.v.b.b.b.b.T.-X%Xj.5.8.b.N.N.Z.N.b.n.C.C.Z.",
"N.N.N.b.q.8.v.N.b.v.v.u.q.q.q.i.n.b.N.N.N.N.N.N.%XOXOXi.O.| | ] I O.t.e.u.n.u.T 8.j.M.m.j.7.f.k.M.v.5.5.v.m.j.v.v.v.v.m.v.v.N.%XM.m.v.N.J.N.M.N.N.%X%XN.v.v.u.q.b.q.8.8.j.w.w.v.%XJ.M.M.J.M.M.T.j.j.7.j.M.j.8.+.U  .$..XoXs.%.t.u.u.v.N.N.b.v.v.q.q.v.b.M.b.v.v.j.j.j.j.v.v.j.j.b.C.v.v.v.v.b.q.N.8.r.B.u.8.6.6.6.8.8.8.8.8.j.v.q.u.v.v.v.v.v.v.N.b.j.q.j.q.k.v.N.b.t.| ! @.*.] I  .6.6.8.v.n.b.N.N.N.N.J.J.L.R.R.R.Y.R.E./.W.E./.4X7XE.H.H.Y.R.Y.R.R.R.R.R.R.Q.E.5X5XE.J.H.H.H.Y.Q.T.C.%XOXN.OX%X%XC.C.C.C.C.N.b.b.N.T.-X;XQ.N.N.;XOXXXt.XX|.a.a.@X*XN.i.A.a.+.+.0.u.i.b.b.b.v.8.v.b.Z.C.q.5.q.u.6.6.6.4.9.8.5.) v.B.8.9.v.v.6.6.6.5.+.+.+.5.6.5.6.8.q.j.v.j.j.j.8.5.9.9.4.5.9.8.9.8.b.q.5.9.v.q.q.q.q.b.N.n.u.6.q.q.q.w.j.j.j.8.8.q.j.j.j.j.v.M.j.w.b.T.&XC.j.N.;XOXv.q.v.N.u.N.%X%X%XC.b.v.b.N.&X;X%XOXOXC.N.9.b.N.v.8.v.J.%XOXn.e.W h 7 Z -.O.6.v.B.q.q.q.5.) ,.9.q.q.q.u.A.C.&X&Xb.5.) 4.9.w.j.j.q.q.v.M.N.T.N.b.b.v.w.8.5.9.) ) 4.q.b.v.j.j.;XiX;XM.j.k.k.N.N.M.j.9.,.w.N.j.v.v.q.w.j.M.C.T.%XT.M.M.N.C.N.N.N.N.n.C.&XT.n.",
"u.b.N.N.b.q.8.6.q.q.8.6.0.q.q.q.w.8.8.w.q.j.q.8.v.u.u.u.u.t.o.| I !  .s.u.+.4.4.j.8.d.f.j.f.f.f.f.8.,.9.f.8.9.9.8.f.j.j.8.f.j.v.M.8.9.8.f.f.M.-XN.N.N.j.8.8.q.u.9.4.) 9.b.j.j.C.T.N.J.Q.Y.M.m.J.Q.Q.j.k.m.9.) T  .%.@.s..X%.%.0.6.u.b.N.N.b.b.b.v.q.q.v.M.N.b.v.8.j.j.j.M.j.8.j.8.C.b.b.N.v.b.v.v.B.B.8.6.i.n.6.5.6.u.b.N.M.v.8.v.v.B.v.v.q.q.v.b.v.q.q.q.q.b.b.v.b.u.| I ' @.{ W O.t.6.q.b.n.j.j.j.m.M.J.Y.R.R.E.4XwXwX4X/.W.W.H.R.E.E.E./.4X4X8X8X/.^.R.Y.D.c.z.T.E.Y.4X9X=XT.T.=XT.N.C.N.b.N.b.b.q.q.b.C.T.T.%X&X-XQ.C.T.Q.-X%X%XOXOXi.XXi.n.n.OXOXi.i.A.t.U +.0.u.q.q.u.q.5.T.M.5.9.b.b.u.b.4.) X.5.5.8.v.q.5.9.6.8.6.6.8.q.5.6.6.6.+.5.6.q.u.v.w.b.j.M.b.M.N.b.j.j.j.w.q.q.8.n.Z.q.6.q.v.q.q.q.w.8.v.N.b.q.q.6.5.5.v.b.j.8.9.9.5.8.j.v.j.j.b.v.b.N.&X&X%XN.&X;XC.b.N.N.b.R N.C.N.&X;X&Xv.v.n.&X>X;X;X;X&XN.b.v.q.8.8.f.v.V.v.|.}.A 0 0 J &. .X.q.v.j.N.Z.5.4.4.9.8.q.6.6.6.6.b.Z.b.6.5.9.9.v.v.j.8.8.w.v.b.%XN.j.j.q.w.8.8.v.q.q.b.C.C.v.8.j.&X9XY.j.k.J.J.T.T.T.C.b.w.w.v.b.b.j.w.j.b.N.M.N.M.m.M.N.N.N.b.M.M.b.N.C.%XZ.b.",
"A.u.5.+.8.v.i.8.6.5.+.5.q.i.i.i.b.v.v.v.v.v.v.q.N.B.u.u.u.o.Y N Y ! | a.i.| 6.v.j.8.7.f.j.j.f.f.7.7.5.8.j.5.R :.5.f.j.8.8.j.j.8.8.5.8.j.8.9.5.8.8.8.6.4.) 4.4.4.9.q.q.v.C.C.N.&XN.T.Q.T.M.j.z.m.;X9XT.J.M.,.T T O.s.&.}..X%.s.i.i.b.b.b.b.N.N.b.M.v.q.j.b.M.b.v.8.j.j.j.N.v.q.N.9.b.q.v.N.v.v.v.V.v.B.8.4.u.n.u.C.N.b.v.v.M.J.T.b.v.v.u.q.q.8.8.q.q.q.v.q.q.b.n.q.u.u...I Q } } I I Y T 4.8.q.j.8.j.j.M.M.Y.R.R.4X/.E.H.D.D.Q.W.W.4XW.W.E.R.H.z.Y.Y.D.D.Y.Q.Y.Y.x.Y.x.k.E.E.M.M.J.T.N.b.b.v.u.N.n.b.v.q.b.%X>X9XrXuX9X%XN.N.&X;X%X%XN.:Xn.{.i.XX*X*XC.t.6.t.i.i.6.q.q.q.q.8.9.4.8.q.w.q.N.N.u.8.u.8.8.8.9.9.5.4.8.9.8.v.v.8.8.q.5.6.0.0.6.0.u.b.v.b.q.b.j.N.v.M.b.j.w.j.v.q.q.v.q.C.Z.q.5.b.n.q.N.b.b.b.b.b.b.b.N.b.q.v.N.Z.b.v.j.8.9.w.b.N.v.8.w.b.C.C.N.M.b.b.N.b.+.5.u.C.;XOXb.C.b.%X-X;XM.T.u.b.b.b.b.v.q.8.%Xu.8.v.N.V.9.8.8.u.y.B 0 7 H &. .^ 8.M.b.Z.C.5.q.w.8.9.+.X._ U T T ) 5.u.N.b.j.b.v.8.) ) 9.q.q.b.q.q.q.q.q.q.q.q.v.b.N.N.b.v.j.M.J.J.m.J.=X=XT.C.N.b.j.w.5.9.8.j.b.b.b.b.N.N.v.N.v.f.v.M.v.v.v.b.b.M.N.N.b.q.q.",
"6.q.i.b.b.b.v.v.q.9.4.5.q.b.i.k.N.b.j.j.v.M.N.N.v.v.r.6.t.o.I P A W Y t.n.i.B.8.8.8.j.m.j.7.f.j.f.f.8.8.f.5.5.j.8.v.M.v.m.J.J.v.8.v.M.M.m.M.N.N.N.N.N.q.8.9.4.R v.-X-XC.T.N.j.M.=X;X=Xj.9.f.M.T.M.;XN.N.M.4.4.6.| s.s..X.Xy.a.n.N.N.v.8.q.b.b.v.M.v.j.j.j.v.j.j.M.N.b.v.N.v.w.N.j.T.q.8.v.8.q.q.N.r.r.v.6.6.v.N.N.OX%XC.N.M.m.v.v.u.8.8.v.b.v.u.v.v.n.Z.b.q.q.b.b.u.t...W ] { ' W Y Y +.b.N.N.N.j.j.k.j.z.z.z.l.D.D.D.E.4X4XE.H.R.L.x.z.x.Y.Y.H.Y.D.c.z.x.D.x.x.z.M.x.H.W.M.h.H.j.M.j.j.b.b.N.&X%X;X>X&X&X%X%XT.%X%X-X-X;X;X&XN.N.%XC.OXa.XXa.|.A.u.u.i.i.0.O.0.u.u.n.Z.b.8.5.w.) j.j.8.6.q.u.n.8.5.9.8.6.8.q.9.5.8.q.q.v.b.q.5.5.6.0.0.q.q.b.n.q.u.8.b.w.N.j.b.v.q.q.v.n.N.N.Z.b.b.q.6.q.b.b.u.v.8.q.b.v.8.q.N.b.N.N.b.6.4.5.6.j.v.M.b.j.q.8.q.v.v.v.N.%X%XN.u.T T R 6.6.+.q.v.v.OXv.N.N.C.M.>XN.u.6.q.8.9.6.v.q.OX;XC.v.j.v.v.r.O.@.V h ; Z &.O.T 5.N.m.M.N.8.9.8.9.) _ ) T Y R T T ) 5.q.v.b.v.v.q.8.5.8.8.5.,.9.8.w.w.8.w.v.j.b.N.N.b.M.T.&XQ.Y.J.J.R.=X4X-XN.N.N.C.N.8.R E ,.q.N.N.b.b.v.v.M.f.j.T.%XN.v.M.N.M.N.N.v.9.5.6.",
"X.q.q.5.,.9.5.4.8.4.) 4.8.v.v.v.b.b.b.b.N.N.B.v.v.f.v.r.6.O.I B v Z W ..t.i.v.v.v.M.v.v.j.j.j.j.j.7.f.v.f.8.f.f.M.m.m.j.m.v.m.v.j.N.M.5.5.M.T.M.M.N.v.5.9.8.v.B.J.T.&X=XJ.m.N.=X=XY.M.M.M.M.m.M.j.j.v.N.b.8.6.t.U s..X.X#Xa.O.i.B.B.v.b.b.v.j.v.M.m.k.m.M.M.m.k.M.j.j.v.j.j.v.N.v.v.v.v.b.v.v.v.N.8.8.8.T 4.N.N.%X:X%XN.v.v.v.v.v.u.u.u.b.N.u.6.q.u.b.i.u.q.q.q.u.i.t.] A { @.W ] Y U ) 6.q.q.b.M.Q.=XJ.m.M.L.H.x.x.H.R.R.H.D.x.L.M.M.J.H.x.x.H.M.M.Y.Y.H.z.j.x.L.K.R.R.R.L.H.x.z.m.J.m.j.J.-X-X&X%X%X;X-XT.N.%XT.N.T.N.M.N.T.N.C.b.OXOXOX|.s.{.XX6.6.i.u.0.0.i.q.i.n.b.q.5.5.q.q.b.b.9.,.8.b.u.u.6.9.5.5.5.X.) 5.5.0.i.i.i.0.6.q.8.5.8.v.b.b.u.u.q.q.v.b.b.n.n.5.q.v.v.q.q.j.b.j.q.8.9.q.Z.Z.i.k.q.i.n.b.i.N.Z.Z.n.i.0.5.5.i.N.N.v.f.j.f.5.9.9.9.9.v.8.N.v.b.8.X.U T O.6.^ T X.X.o.q.u.n.OXOXn.i.n.i.q.i.u.6.6.q.B.C.N.v.B.M.B.u.#.[ V h 8 ' [ | b.N.J.^.E.H.M.j.q.8.q.8.9.5.6.6.X.X.u.i.+.X.6.q.8.8.b.v.8.8.M.v.5.5.j.M.M.N.%XJ.J.k.7.f.M.m.f.k.x.H.L.J.E.4XuX=X%X-X-XN.8.,.,.8.b.j.q.M.b.q.v.j.q.m.N.J.N.M.M.v.M.M.v.q.8.q.q.",
"v.q.q.b.u.4.) X.8.8.8.8.q.v.v.j.v.v.q.v.b.B.B.v.m.B.N.u.O...S v Z A ] ..u.b.N.N.v.v.b.b.v.v.j.j.j.f.j.j.7.5.f.j.m.v.j.f.j.f.f.8.5.8.8.8.8.j.v.j.4.5.8.q.q.b.b.b.%Xm.f.v.M.J.=X-X=XM.j.j.J.J.J.N.b.n.q.4.8.A.i.] U &.s.s.{.y.#.n.B.v.u.u.q.q.B.N.M.M.m.k.k.M.M.M.j.8.8.v.v.j.b.C.;XC.q.6.8.q.q.6.) r.4.T 6.X.T B.%X%X Xu.4.4.8.v.8.u.v.b.C.C.v.6.b.v.q.8.8.8.v.b.0.t.%.{ S J ] A ] s.@XOXC.%XC.b.Q.J.f.7.j.J.L.k.Y.E.Y.x.x.Y.R.L.H.x.D.H.H.H.L.E.W.W.4X4X/.R.R.E.H.L.L.K.K.L.L.J.E.H.k.j.M.5XuX;X%X%X-X-XJ.v.j.b.N.N.%X%XJ.%X%XN.N.b.OXXX|.|.y.a.s.o.+.i.n.b.b.b.OXC.b.0.5.q.n.C.q.b.N.b.j.q.q.8.4.u.n.u.X.) 5.q.b.b.i.i.i.i.i.i.u.u.q.v.b.b.b.b.q.q.v.q.8.9.5.5.6.6.q.q.q.8.8.5.b.b.v.b.N.C.C.n.b.b.Z.C.n.q.q.5.b.q.q.q.b.b.b.v.j.8.8.8.8.8.8.6.X.X.+.R T T 6.O.n.O.T T _ | 6.i.u.u.6.6.6.6.6.+.0.6.X.+.b.A.u.6.b.b.b.N.C.&X%Xn.e.#.@.H l 0 ' [ ..b.N.J.4X^.K.Q.j.q.v.N.%X&X&X%Xb.b.q.5.6.0.+.Y +.T T 6.j.8.5.5.v.v.8.,.4.N.;X5X=Xf.,.7.j.f.f.m.H.M.H.L.H.m.S.H.Y.Q.-X-XN.8.5.8.j.b.q.8.M.b.v.b.M.v.8.5.7.7.m.T.N.j.8.q.8.X.+.t.",
"6.5.q.N.OXC.N.C.B.N.N.N.B.B.v.v.v.q.q.q.v.b.B.v.m.v.b.t.O. .Z v m Z ] O.t.v.b.N.N.N.C.N.M.v.j.j.8.8.v.v.5.,.9.9.9.9.5.8.j.j.j.j.v.8.6.q.q.5.9.8.X.4.8.b.N.N.b.b.v.v.m.B.v.v.M.T.j.v.N.N.m.j.j.b.b.%XN.5.6.n.i.| W &.}.}.}.#.^ O.i.i.B.N.N.b.b.N.v.v.j.j.j.j.m.M.C.N.N.C.Z.n.N.C.q.v.n.b.q.6.5.X.u.6.+.X.R E T 8.6.i.B.v.8.8.v.N.N.N.N.N.N.N.C.N.M.v.j.j.j.j.j.q.u.t.%...A A J A ] a.*XOXn.b.b.j.j.M.M.v.k.J.W.=XQ.5X8XT.T.-XW.Y.D.D.D.D.K.K.R.^.^./.(.R.R.R.F.D.E.W.R.J.x.j.j.k.m.j.N.%X;XrX>XN.b.b.N.%X%XC.C.%XM.b.C.%XC.C.%XN.N.N.OXn.n.n.t.s.t.o.6.i.A.C.C.Z.u.b.C.%X%XC.b.q.C.Z.N.b.v.u.u.u.8.q.q.q.8.8.q.u.b.b.b.q.q.b.n.Z.N.Z.C.N.b.j.q.q.v.b.N.b.q.9.5.5.) X.9.q.b.b.b.j.8.8.q.b.b.v.q.q.N.j.8.8.9.9.8.7.5.9.7.8.j.v.w.9.4.9.6.6.6.q.6.O.6.6.O.U T _ t.i.OXb.q.6.q.q.8.8.u.u.q.8.6.6.X.T E Y U U +.0.0.t.OXi.6.X.+.u.n.OXs.t...V 0 7 J @.oX*X;X-X-XT.M.T.-X;X-X=X-X-XT.m.j.N.b.9.9.u.6.U T X.6.6.5.4.9.8.X.8.q.8.8.v.v.8.8.) ,.j.j.7.7.j.j.j.m.N.N.m.j.j.T.%X-X%XM.j.v.b.N.b.8.8.v.v.6.9.4.8.N.%XT.M.v.b.v.9.) ) ) _ | +.",
"6.u.u.u.u.N.N.b.OXOXOXC.N.B.b.v.v.v.v.v.b.b.N.N.J.M.B.t.#...Z v z Z { ..t.6.8.9.4.9.8.8.w.j.j.j.w.8.q.q.9.9.w.q.9.9.4.5.j.b.b.b.C.b.u.b.b.q.q.q.v.q.q.b.b.u.q.q.j.v.M.M.v.8.j.M.5.j.N.N.w.9.7.b.q.q.q.5.X.| | | [ &..X.X.X$.^ o.n.OXOX:XOXB.b.v.u.v.v.j.j.j.M.N.N.b.b.n.b.v.v.b.n.Z.C.N.i.i.N.OXOX6.u.i.R Y 6.u.n.n.N.B.u.8.8.q.T.J.M.j.f.j.j.M.k.k.k.M.M.M.k.j.b.t.t.#.] A H W =.t.A.OXC.b.N.T.%XT.N.M.J.T.Z.j.M.T.T.Y.N.Y.M.z.R.!.!.!.!.!.!.!.!.(.^.R.!.^.~.K.z.k.x.k.k.k.M.C.M.N.%X&X%X:X;X&X&XN.N.%X>X;XC.v.N.b.b.N.b.N.%XC.C.%X&Xn.p.|.i.i.i.s.i.n.A.OX&XZ.N.n.N.N.C.C.Z.n.&XZ.v.q.q.q.q.u.j.8.9.9.v.b.q.8.q.j.j.j.k.b.N.b.b.N.N.N.b.j.q.8.q.q.q.q.9.5.5.5.q.q.q.v.j.j.w.8.j.j.b.C.N.v.q.j.j.7.j.M.M.M.M.j.j.8.7.w.v.b.j.q.X.5.6.+.+.6.+.X.X.+.+._ X.+.t.u.N.j.9.R ) 6.q.q.q.b.Z.C.N.u.6.X.T o.O.| ` U U X.X.+.6.+.X.| X.+.t.e.[ c 1 - v [ {.XXOX%X%XT.%X-X=X-X-XT.Y.E.M.f.7.f.v.b.q.5.4.6.+.u.i.0.+.+.6.0.+.X.5.q.6.X.X.8.) v.C.b.8.8.8.8.8.8.j.M.T.T.N.b.C.N.N.M.v.j.v.v.q.9.4.8.b.N.v.q.u.v.N.%XC.N.N.C.q.N.b.5.O.i.i.6.",
"*X*X*XZ.Z.A.OXOXZ.N.b.u.v.u.u.q.v.N.Z.N.n.B.C.%X;XC.N.u.%.@.B y z Z { =.0.5.9.9.w.w.w.q.7.7.j.j.N.q.w.9.5.b.&X,XN.q.w.8.j.b.q.q.b.b.n.N.Z.Z.Z.b.;XOXC.%X%XZ.n.Z.C.v.8.8.v.T.T.T.N.j.7.w.j.b.N.C.&Xb.6.q.u.6.e.y.&.&.&.&.&.$.#.a.@X@XOXA.i.u.i.b.u.b.Z.Z.N.n.Z.C.q.q.q.b.n.b.b.n.b.q.5.5.q.b.i.6.0.n.i.a.OX6.X.XX:XC.u.6.6.6.u.b.M.M.N.M.k.j.j.j.N.k.j.7.j.j.k.v.v.0.t...I Z J Q [ %.XX>X>X-X&X;XM.T.&XN.7.w.C.>XT.M.k.k.k.k.x.Q.^.(.).).)./.(.^.F.R.R.R.!.6X0X/.z.x.M.M.M.N.Z.C.C.C.;X&XC.C.&X&X%XN.n.C.&X%Xb.8.N.v.b.N.b.n.C.Z.%X%X&XN.B.XXa.n.|.XXXXA.i.A.%XC.&XC.b.v.v.N.C.OXq.5.4.6.q.6.6.8.q.v.b.v.8.6.8.v.N.M.v.j.j.M.j.7.j.q.j.b.b.b.j.w.w.8.5.5.5.8.w.q.q.w.q.q.8.8.7.j.M.j.b.Z.n.q.q.v.w.8.q.v.v.b.b.q.u.q.q.8.q.q.6.6.X.6.5.X.X.+.+._ _ X._ X.+.0.0.+.5.9.,.,.7.b.b.q.n.C.&X&XZ.q.5.X.t.t.O.o.t.t.O.X.T | +.+.X.X.X.X. .#...Z 7 ; 0 A #.O.u.b.b.b.C.%XN.&X-XT.M.M.k.f.j.7.j.b.8.T T 6.0.0.+._ +.u.0.X.+.+.6.b.i.q.q.b.b.;X&Xq.5.q.b.q.q.q.q.b.N.C.N.v.b.j.8.7.w.q.q.8.b.8.8.v.N.N.b.q.OXN.b.b.b.b.b.b.q.A.OXi.t.a.a.0.",
"i.0.5.u.q.5.q.OXb.v.q.8.q.q.q.8.j.b.N.n.v.v.b.N.C.v.u.6.O.} k 8 M A { =.+.6.q.j.C.N.M.j.j.h.h.j.j.w.w.q.q.N.T.C.T.Z.b.j.b.b.q.q.q.n.Z.n.n.Z.Z.q.&X&X&X,X,X&X&X-XN.M.m.m.J.=X&XQ.N.M.N.Z.T.N.N.Z.b.q.5.) T X.t.s.&.@.} } @. .#.e.:X:XOXA.n.b.b.u.v.b.n.Z.N.N.N.N.N.N.N.N.C.Z.Z.N.b.b.b.Z.Q.C.n.q.u.u.i.n.B.q.q.N.C.b.q.q.b.N.N.C.N.M.M.M.b.b.b.N.j.w.w.8.q.w.w.q.j.q.0...S Z J ' ' s.@XOXN.T.Q.J.-XN.j.M.&X9X,XT.W.Y.Y.W.W.Z.Y.8XY.E.(.^././.^.E.K.R.R.H.R.R.R.R./.W.W.W.E.Y.N.M.N.Z.%X&XOXC.N.q.v.b.N.N.n.b.b.n.N.b.Z.OXC.Z.N.b.%XC.%Xb.u.n.i.{.a.a.n.i.0.u.C.C.%XT.T.C.C.N.b.u.X.T T X.6.0.u.n.B.OX%XC.u.8.q.b.b.b.j.7.7.j.j.7.j.q.j.b.b.b.w.8.q.w.9.8.w.b.b.j.) 5.5.5.8.w.b.C.j.w.w.w.5.5.5.5.q.9.4.) T 5.q.6.5.6.6.6.+.X._ T X.+.+.X.X.X.X.X.+.+.) +.+.t.6.5.R ,.q.b.Z.b.q.X.q.u.i.0.X.T T _ X.6.6.6.u.i.u.u.i.O.T T X.+.6.o.o.$.[ b 1 1 7 H $.t.B.N.b.N.C.N.%X;X>X%XM.v.j.8.v.q.9.4.X.X.X._ +.X._ T X.0.t.0.5.u.N.N.N.C.N.q.n.b.q.q.i.b.i.q.q.q.q.q.q.b.j.w.j.8.7.5.j.M.v.w.b.8.w.b.b.b.v.8.b.u.b.N.C.N.u.0.6.0.u.i.t.+.X.+.",
"b.5.5.k.q.5.5.n.v.j.j.q.q.q.j.j.j.j.j.j.q.q.j.v.8.9.6.+. .{ j 0 m A { O.+.5.w.j.,.,.7.7.f.j.x.H.h.j.N.Y.M.M.k.7.T.T.T.T.M.M.k.k.k.C.T.N.b.M.N.M.M.C.T.T.N.N.J.J.m.J.T.T.Y.Y.Y.J.M.T.&X=XY.j.j.M.b.C.N.q.9.6.i..X%.] H Q [ ..#.t.OX%XOXN.N.N.b.w.j.j.j.k.k.b.b.k.N.M.M.M.M.M.j.j.k.b.b.j.w.w.N.C.C.8.b.N.5.8.C.b.C.N.N.N.C.b.j.w.k.q.5.5.5.5.q.b.5.0.q.q.q.q.0.6.v.v.t. .V b K ( } &.t.O.8.N.Q.J.=X5X9X8X=XY.H.x.x.x.R./.W.Y.H.Y.x.Y.Q.Y.Y.Q.E.Y.4XW./.W.Q.Y.Y.R.R.R.R.E.4X4X4X-X5XT.N.M.j.v.b.b.Z.C.C.b.w.w.b.C.T.Z.T.&XT.Z.Z.M.%Xb.N.u.u.p.p.|.{.s.a.i.t.u.Z.C.;X-X%XN.b.v.i.u.O.X.T T | O.t.i.n.p.u.u.u.i.r.8.9.q.v.8.8.q.j.8.q.v.b.b.v.q.q.8.9.9.9.q.q.u.q.q.v.v.u.q.w.w.j.v.j.j.q.8.5.6.6.6.5.6.u.u.6.6.6.X.6.6.6.6.O.X.| | _ ) X.5.+.X.X.+.+.O.) +.) 6.+.+.X.) ) X.X.X.X.+.X.T Y Y D Y U | O.i.p.e.6.+.X.o.6.5.+.6.u.6.X.T $.*.Q y - 1 8 }  .6.N.C.N.&X>XOXq.b.N.C.Z.n.b.b.q.q.5.X.+.0.0.+._ +.5.+.) +.q.b.Z.Z.b.5.5.b.n.b.q.,.5.q.n.i.q.q.w.w.8.9.8.w.j.w.j.j.f.j.M.T.N.j.9.R 9.v.j.b.C.C.b.u.6.q.u.u.u.i.0.O.6.t.0.X.| o.",
"5.8.w.j.b.M.M.b.j.j.m.j.f.8.j.j.m.k.j.v.b.b.v.q.8.8.i.6...{ v h k Z [ O.+.X.,.9.j.j.j.j.j.l.c.c.H.Y.W.T.M.Y.W.T.Y.=X8X-XY.k.k.M.T.Q.Y.M.j.M.W.9XW.8X5XY.x.H.Y.R.R.H.z.j.L.=XQ.M.E.M.k.j.j.j.x.Y.&XT.N.T.%XN.u.#.s.W B S ! y.#X2X:X%Xb.8.q.v.v.j.j.j.j.j.j.M.k.j.M.H.M.H.J.Y.Y.J.N.M.N.Y.Y.N.k.w.w.b.j.q.N.N.v.C.M.j.j.j.v.j.j.M.q.w.q.b.b.u.q.q.q.q.q.0.5.0.q.b.v.v.t.! v v K J K B N Y q.N.T.Y.H.H.L.L.H.H.H.Y.Y.E.E.R.Y.R.R.R.Y.Q.Q.Y.Y.Q.E.Q.Q.Q.Q.W.Q.Y.Y.Q.^.!.R.!./././.E.W.Q.-X;XJ.M.M.v.k.j.w.8.j.Z.;X9X;XT.T.T.Z.N.C.N.T.v.b.u.e.t.t.XX+X{.XXXXA.n.OX&X;X:X%X Xn.u.6.O.|  . .| | | | ^ | ! U ! o.O.o.X.X.u.OXn.u.q.8.5.+.6.u.u.q.q.i.b.9.q.b.C.C.Z.b.v.q.q.q.q.v.b.b.b.v.v.q.5.5.0.0.O.q.8.8.5.T X.6.o.+.X.| | | | | ^ T T X.O.O.| | X.o.e.O.t.o.u.6.e.U ^ o.#.t.O.O.%.] I D C S A ] ..t.p.t.e.a.a.e.O.o.o.o.e.6.O.6.#.[ } K q # 1 7 [ ..t.C.N.v.N.T.8.X.X.6.b.n.v.q.8.5.6.u.i.u.0.0.0.q.5.5.5.5.5.5.q.q.5.8.b.N.j.w.w.j.j.j.j.w.9.8.j.j.j.j.7.7.w.h.7.f.j.j.j.M.N.v.8.v.5.j.M.8.8.b.b.v.8.6.5.X._ _ X.X.| _ _ _ X.| | ",
"9.8.j.v.v.v.v.v.m.m.m.m.m.m.m.M.M.M.M.N.N.b.u.8.4.4.6.6...W B h k k S  .6.6.9.8.M.v.j.j.j.l.z.x.c.x.x.x.x.z.L.W.4XW.L.H.L.Y.L.J.E.H.x.H.R.7X4X7X4X7XE.L.L.L.K.L.H.H.J.R.E.W.W.W.R.m.x.H.R.W.8XMX9X9X=XT.%XC.n.s. .I j A ! ^ 1X*X%XJ.m.f.7.8.8.7.f.f.j.j.k.m.M.M.L.L.L.L.L.H.H.H.M.H.J.J.M.k.k.j.f.j.j.f.j.T.-X-X=XM.j.j.m.M.J.=Xv.b.v.q.8.8.q.v.b.q.6.q.q.q.q.q.4.u.s.] V b G ( b c j X.@X%Xj.m.=XS.z.K.E.K.L.L.R.R.K.D.K.(./.R./.W.E.E.Y.H.H.H.E.W.W.E.Y.Y.E./.(.(.(.^.!.!.^.^./.E.J.E.W.T.M.f.f.v.M.j.j.N.;X9X&X9X9XQ.N.J.N.v.b.C.b.u.6.X. .#.{.#X+X{.@XyX3XOX:X:XN.e.X.| | !  .[ [  . . .] ! W ~ ~ ~ !  . .! | ..#.e.O.O.O.O.0.t.t.u.t.6.6.O.0.i.OXC.b.q.6.u.u.0.6.0.u.b.u.q.6.6.+.+.6.6.O.+.X.6.6.X.+.6.6.o.O.X.^ ^ | X.| ^ ~ ! [  . .! W W A ~ ..%.s.s.$.~ [ @.$.&.&.*.} ' ' ' ' K ' ' K Z ~ ! ] ..$.$.@...@.[ [  ...@.$.} } ( x > > - 7 ' #.4.:.9.m.H.j.4.8.5.9.6.q.q.8.9.q.5.q.B.u.5.X.) ) ,.9.9.5.5.5.7.,.7.7.7.5.5.f.f.<.7.f.j.k.j.f.7.f.7.7.7.f.8.7.7.9.7.f.7.9.9.8.v.v.M.b.j.8.j.v.v.6.T T T X.| X.+.T T T U U U | | ",
"8.q.v.v.v.v.j.j.v.v.m.m.m.m.m.m.M.m.b.v.b.i.i.u.B.n.i.o.! W B 0 v v C ] O.6.q.b.b.b.v.v.M.M.H.H.g.g.l.x.H.L.R.W.W.R.H.H.H.H.H.m.M.x.x.H.L.J.L.S.K.J.R.E.E.P.K.L.J.L.L.J.J.J.H.M.k.M.Q.9X9X5XY.M.M.m.f.v.-XrX:XXX..W j B W ~ #X Xv.v.m.m.M.m.v.j.j.j.j.j.k.m.m.m.k.z.x.m.M.H.H.M.l.z.k.k.j.j.f.f.j.v.m.j.M.Q.-X-X=XJ.M.M.M.M.M.J.j.j.j.f.8.8.w.j.j.8.8.8.8.9.5.8.v.u.#.W c b K ( K } %.e.s.i.N.>XE.K.L.E.W.K.K.K.R.R.R.R.^.^./.4X/././././././.7XE.E.R.R.R.H.H.K.!.!.!.!.R.R.K.R.R.R.K.W.7X7XR.L.J.N.M.m.M.T.Y.J.&X;X5X;X=X%XY.N.Z.OXOXn.t. .] #.$..X#XoXa.oX+X+X<X<XOXp.o.! ! W W W W W ' [ ' ~ Q Q Q Q Q W ] [ ' [ [ ] ]  .%.y.s.y.t.%.#.O.O.O.| O.O.O.X.X.O.6.t.t.t.i.u.t.t.6.| X.o.O.%.%.O... .#.#.O.O.#.#. .! ~ I P I ~ W W ' Q J G V v v b l v b b G b z q c b G G K H G L x b x a x x a q q h l z v z z z Z b G K H K ' K F F i # # > 7 ' O.X.:.9.j.m.j.8.v.q.8.9.5.5.j.v.f.9.9.8.4.X.4.4.9.8.8.8.8.5.9.9.9.9.9.9.9.9.<.<.7.7.<.<.9.7.f.j.f.5.7.5.7.8.7.5.8.8.j.8.8.8.8.u.v.v.q.8.8.8.q.8.) U U ^ | T U ^ U Y D N D I | #.",
"b.b.b.v.u.u.u.u.b.v.v.B.B.B.B.v.B.v.i.u.u.s.s.p.e.p.e.! W W Z 0 0 h Z  .e.e.e.u.q.q.u.v.b.N.M.m.f.7.7.k.J.J.J.M.k.k.k.M.J.J.J.M.M.N.J.T.J.J.m.z.L.H.L.E.E.L.x.m.J.J.N.J.J.J.m.m.m.j.f.7.f.k.m.j.j.7.:.9.M.;X:XXX! A B B W P y.O.6.6.8.B.N.B.v.B.v.v.B.v.v.v.j.v.j.j.k.v.v.v.j.j.M.m.v.v.M.v.v.j.b.N.N.N.C.%X;X%XN.N.m.B.v.j.f.j.z.z.j.f.j.j.j.f.7.7.f.j.j.f.j.B.e.#.$.Q z b K K K *.&.$.y.a.n.OXT.=X=X=XE.R.E.E.W.L.R.^.E.H.H.E.!.^.^.(.).).).6X^.^.!.^.^.^.!.K.^.^./././.E.E.E.4XW.E.Y.L.H.x.j.T.M.m.v.M.v.j.v.-X%X%X-X-X%XJ.C.b.A.n.i.O.I A ' @.}.}.s.%.%.%.t.|.|.{.#.! W A A H H H H H H A Z Z b b H Z b V J Q Q ' ' ' [ } @.@.[ ] W W W ! ! O.#.#.#.O.#.e.y.t.s.a.s.%.O...O.#.O. .] W W W J J K K K G G m M b x z z l l z l p e 9 - - - - - - - : : - : - # - ; 1 2 9 2 1 ; 1 1 > : : : : # # - > > > # - > # # > , > , 3 3 1 4 > O O # 7 Q #.o.4.9.f.v.v.q.8.f.v.f.7.9.d.f.z.9.9.9.:.:.8.8.4.5.9.9.9.9.5.5.9.4.,.,.4.9.,.) 9.4.9.9.9.5.5.5.9.4.) 4.4.4.4.X.R T X.X.X.X.+.+.6.6.+.+.6.6.6.X.T U U | | ! W ! [ W C N C P [ ..",
"t.#.O.O.o.O.O.O.e.e.e.e.e.e.e.O.6.O.o. .@.@.#.$.y.}.s.$.[ Q b 7 7 q Z [ #.#.O.O.O.O.O.t.p.n.b.v.B.u.q.v.N.b.v.u.8.8.v.b.N.N.N.N.v.v.v.u.q.r.v.B.v.8.7.v.M.m.M.J.m.B.B.B.B.v.v.v.v.v.v.v.N.%XT.N.8.j.M.N.N.OXn.#.A S V Z [ ~ &.#.p.e.6.e.u.e.u.n.p.p.p.u.u.u.t.e.6.r.u.u.u.u.u.u.i.u.t.e.u.e.6.6.t.u.i.u.i.n.i.u.u.u.i.i.u.r.q.8.8.8.7.8.f.8.8.9.9.4.5.8.8.8.8.r.|  .&.} x x K K K ' W W $..X{.t.B.N.%XN.M.N.T.T.%XT.T.%XT.M.k.m.S.L.L.K.K.K.R.E.K.K.L.L.L.K.L.L.L.J.Y.Y.L.J.J.J.J.J.N.M.M.M.M.N.%XC.C.C.N.v.N.%X%XN.v.B.N.N.N.B.i.i.t.O.] C C Q @.} } } [ ] W W s.y.y.$.Q H H H b b z z c l h h y q y p y q y z z z b m b v z v ' Q H H A H W W ] ' [ ....[ [ ! ' ' ] W S S A W ' W S c h f h q i s 3 s 3 < > > < < < 2 > > > 2 > - : - - - # # @ @ O O @ + $ # @ - @ - - - - # : > > : # # , , , < 3 < , % % < % % % & * * % # # # % @ % < p } $.e.6.r.i.n.a.a.6.u.B.v.f.8.8.V.8.:.R R R T 4.5.+.O.6.6.6.6.6.6.+.X.X.X.X.+.X.X.X.X.+.5.6.5.+.X.+.+.X.X.+.o.+.X.X.X.o.O.6.e.6.O.o. .|  . .o. .| P P P W W A A H W A V B V A A A ",
"Z Z Z V B Z Z Z A A A H A A A S S S Z Z Z H Z Z ' Q Q Q K F i 4 3 q z Z H ~ ~ [ [ ' [  .#.#.e.e.s.t.e.t.t.#.e.e.e.#.e.#.e.e.e.#.O.O.O. .o.#.i.XXi.e.6.r.u.e.r.B.u.B.B.u.6.5.5.6.6.i.n.OX&X:Xn.6.b.b.N.n.e.t.t.[ V v b b Q W ..[ &.[ ~ ~ ! ~ ' $.@.@.@.@....... .! ! ]  ...@.#.#.#.@. . . . .] W [  .@.@.#.$.#.@.%.y.y.y.%.%.t.t.u.e.r.e.u.u.e.e.u.t.O.O.O.o. .! ' Q Q K x F ( ( K H V V S { &.}.y.a.i.t.u.|.OX|.i.n.n.n.XXOXC.v.8.8.j.v.v.v.v.v.T.T.T.N.M.B.N.N.N.N.N.b.b.B.N.N.N.C.C.N.N.N. XOXOXn.n. Xn.u.n.OXi.u.6.6.i.OXOXi.XXs...] W V v J H J ' ' H Z A ' [ [ ~ H V l l p 7 7 8 8 8 q q 0 8 9 9 8 8 r p q q q 8 7 7 7 8 q q 0 w w w 0 0 q h c v V V B j j v c j f f f h c f g h h q 7 1 - , % + # + @ + % @ @ # # # # > > 2 2 9 e e e 2 2 5 5 < < , & & , , 2 2 2 3 e e i 3 5 e e 5 e i a a a a a i s s i a s s s 5 5 6 % # # % + % 3 a K }  . .O.O.@.@.@.#.#.O. .o.e.u.B.o.^ |  .^ ^  . . .[ [ [ ] ] ] ! |  ...| | | |  ... .| ] |  .| [ ! ! ! ! ! ! ! W ! ! !  . . . .!  ...@.@...[ [ [ Q W H H Z b G G F b b m G K G G ",
"9 9 8 8 9 q q q q q q q q q q q q q q y p p q 9 w 7 7 q p 3 , < > 2 q p l c c v v z v v V Z A A W W W W W W ~ [ ~ ~ W W W W W W W W W W ] [ $.&.s.%.#.t.#.O. .O.t.s.s.t.e.e.e.t.i.a.a.a.i.i.t.O.OXn.n.u.o.#.@.S z G K K } G v l V c g l h q h z m m m m m m m b h h v v v v Z m J H Z Z Z m v v m Z K K J ' ' Q ' ' ' J J J Q Q ' ' ' ' [ [ ' ' ' Q J A J J Z v b z p p L K K K G l g h h v Z J W ~ W W ] @.@. . ... . ...%.O.] U ! | | | | .. .O.#.O.O. . .#.t.t.t.t.t.t.t.i.a..X{.{.a.s.y.t.y.a.t.t.t.p.t.O.| | O.e.e.|.<X+Xa.s.#.U C B k h b H m m G Z m B Z v c l g 0 7 1 4 - > 4 8 8 q q q q p p q p x z q p q 8 4 1 1 1 1 1 1 1 ; 1 1 1 1 ; ; 7 7 7 7 7 t 7 t t 7 7 w 7 7 ; ; 1 ; ; - - > # # # # # > > 4 > 4 2 9 q p p l b v v v b b b x x a a a i i i i e e e e i a a a a a a a a a x F L x x L L x a a L a a a i a i 3 > # % @ + % < p b B B B v z p a z z v v A H W W W H W Q H H J A ' ' ' ' ' ' ' ' ' { { { ' W W ' Q ' ' ' ' ' J J ' ' ' ' ' ' ' ' Q Q [ } @.@.@.} } } } } ' J J J K G b z l a x L x a a a x L F L ",
", > % > , , > % % > % > > > > > 4 4 4 4 , > > - 2 4 4 2 2 , & & $ , 3 9 8 7 1 1 1 1 7 1 7 7 0 0 0 w w 0 q 0 y l q q q r y l l l q q q y h l z z v v V H Q Q [ [ ~ ! ! ^  . .O.#.%.y.}.{.a.#. .| O.t.+X#Xa.%.W 0 m K } ( -.K l 8 7 1 1 1 1 1 1 > 9 9 9 9 9 3 3 3 8 4 4 1 1 1 1 1 4 4 4 4 > > > > 1 1 4 3 9 9 9 9 p u q 8 8 q 9 8 8 9 9 9 8 3 8 9 4 4 > > > < < > 8 y 9 i F K K ( } v h h 0 y u 1 q 0 q q h l l h v v v v v v v h v z v v v v v m h h h h h h v v V S S S S A W W I W W ! [ [  . .#.#. ...#.#.| P U !  .#.a..X{.%. .] S k k h l z K m z x m m v l v l l p p q 9 e 3 i a a x n n n b L L L L x x x p e q 8 4 1 - - 1 1 1 2 2 2 4 9 7 9 w 7 7 ; 1 7 ; ; ; ; 7 7 7 ; 8 7 ; - # - 2 e l v V V H Q / Q ~ ~ ~ ! ..$.#.#.#.$.$.....[ / Q H Z G H G b m G x a p p p a l p x x x x b x M G G G G H H G G G H G G G b L F x x e 5 , & s i a y q 7 1 > > + + @ # > , 3 3 4 > 3 4 3 3 < < 3 > 4 8 8 9 u i u u x x x x x z z z y l b F F b p q 8 8 8 8 4 4 8 8 0 q h l z b b b b x x x x p p p 8 9 ; - - - : # , , % # # # > > ",
", % % % % % # @ + # @ # # # # - > > - # # # @ @ @ - 4 1 , 5 5 6 i i i 3 1 ; 1 4 - > 4 1 - - ; 1 - - - - - - - - - > 1 1 1 > > - 1 > > - > 1 1 1 1 7 7 1 7 8 8 w h f f f c c c h c h c v v h h V S W &.@.V v b w u x F p K M p p e e e 3 3 e 5 3 3 3 3 3 < < < , , > > > > > > > > > > > > % % > > % % % % # # # # # # @ # > > @ # % % % # # % % % % % + + % & , 9 b p i F K } .X;.} H c w q p 8 p p l x x z z z q w 0 y h 0 q l y p u q 9 9 9 9 a p q 9 8 8 4 1 w 0 y h h h c v v v v v V V v c B S S C B B C C A C C W [ [ W W U ] I B B Z Z H G H K G m Z K J H V c z z p q q z x F K K K K K K K Q ' K G G K K G z y y l M F F F F G K K J K J Q ' Q J Z Z Z Z Z V V V V G H H G G G G K ( } $.{.oXoX+X3XyX2X X X|.OX:X*X:X:X:X@X@X|.s.#.! W [ ! W ] W H W ' Z Z Z G K K J H J Z Z H J H J W / ~ / [ [ / [ } Q W Q Q H H J H G p p 3 3 a a x x y 8 1 - % + + % % + + @ @ @ @ # @ + + X + * + % % > > > > > > # # @ # > > - # - # # # - > # # # # # # # # # # # - - - - # # # > # # - > - # # - # @ @ @ # @ O @ @ @ @ O @ @ # ",
"u 3 4 4 < 4 3 3 4 4 4 > > 4 4 1 8 4 1 4 > > > > 3 2 2 e a x x a F x x p q 4 2 q 3 4 4 3 9 3 < < 2 2 > > > > % % % % > , < > % # @ > 3 e i 9 3 4 > 3 > @ - 3 , @ > 1 1 1 1 1 4 2 1 1 4 4 4 1 1 1 1 i p 3 7 p u 1 q p p x F G Z b p p q e i p i e 9 3 3 3 3 < < 3 3 2 3 3 > > < , 3 3 > > > 3 < > % % % % % # % & % % % # % % % % % % % & % % % + @ # % & % % , 3 e x F L F ( -..X}.-.-.K F F p p 8 l G K K G G m z l y l b b z l x x x L L x p p x x p 9 a p 4 q 0 q y q q l l l z z z z v b m v H Z V V V v V A Z Z Z A H W W A W ! ! ] ! ] ' ' [ } [ Q W ' ' Q W I A A W W W A H ' @.-.&.[ } @.@.[ *.*.$.$.@.}.&.@.' ..@.@.@.&.s.s.s.a.a..X.X.Xa.+X+X@X@X{.t..Xs.a.s.t.a.oX+X+XoX+X#X#X#X#X$X3XyX*XyXaXyXdX2XyX;X>X;X&X;XtXtXrXiXuX2X2X+X{.y.y.a.%.t.{.{.#.O.i. . . .@... .[  .] ! ! |  .| | |  .%.#.%.y.$.%.&. .%.$. .%.@.[ $.[ A g f v A H A H V f 7 7 8 1 - 4 > > > > > > > # # # @ X X o o   * & % + + @ @ @ + + + + % # @ % + + + + . X * . . X X X X X X + O + O O O + @ @ @ @ O O O @ @ O O O O @ @ @ @ # O O O O O # # ",
"M z a a z z x x z z l l z b x y y 9 9 9 q 9 9 q 3 8 p n F K K ' ' } ( x r n x p F a p a i 4 > , e e e 3 , , , , < < , , < < 3 3 5 i a L x a a a a a a i i 5 < a e e 3 5 e 5 2 > 3 3 3 < 3 3 3 3 2 3 3 3 3 3 9 q n b G K } } ' H K F l p l x n p 9 i i i e 9 i i e 4 4 9 i a a 3 > 3 e e i i 5 3 s s s 5 < < < < , , , , , < < , , , % # % , < 5 s s 5 3 < 3 i a F b G K ' Q $.}.$X-.-.} } } K K K K ' } } ' ' J Z b b b G Z b b G K K K K K K K K K K b F F b K b G H Z Z H K K Z Z Z Z Z Z Z Z m Z z h h v v k V V V A W ~ ! ~ ! | .... . . .@.#.[  .&.%.[ W [ [  . . . . .o.o.O.oX#X1X3X1X#X}...$.}.y.y.oX{.{.XXoXoXoXoXXXa.t.n.A.C.OX*X*XOXA.u.A.b.i.OX;X1X3X*X1X2X1X*X*X1X1XyX1X;XtXZXVXyXVXrX;X>X;X;X;XC.C.%X%X%X&X&X&X,X9X9XiXuX&XXXoX.X{.s.{.n.i.n.OX*XOX2X*X@X@X*X<X+X@X+X@XOXOXOXOXOXOXp.oX{.|.oXoX@X{.@XoXa.y.XXa.#.t.#. .! ^ O.y.y.y.%...I j h h v Z h h l p u 8 8 8 8 9 9 , & = = $ = * X + + > < , # # + + + # @ O % @ @ # % $ + $ + + + . X . X + + $ % % # @ @ @ @ @ @ @ @ @ @ @ > - # # - - - @ - # > 2 > > 4 - ",
"} ' ' ' } } } } J Q J J J ' H Z J J Z H K G Z m b Z H K Q ' } *.} *.} K G K K K K F x z x x F K x b b x a a a x a L F x p q p x L F K K K K K / K G x L K F L F L L L x a a e 9 i 9 3 2 3 9 3 3 i 3 9 a a q p M G K } -.}..X}.} Q J G G H G b b x l p p p p q 8 p p z l q 9 u q a p p i 9 i p a i a i i 9 3 3 3 9 9 9 9 9 9 9 9 9 9 q i i i a a a p p a x x x b G G ' -..X}.}..XoX-.-..X$X$X-.} } Q Q } } } ' Q ' Q Q ' ' ' ' ' } } } } } } } } ' ' Z c z z z V J W W W W W Q ' Q H A A A A A S Z h h Z Q A S W P I !  ...@. .| | o.t.t.O.O.O.#.t.y.y.t.t.t.%.#.O.%.%.%.t.t.t.t.s.@X@X+X1XfXfXoX..s.oX{.a.|.a.|.OXOX|.t.u.XX@XOXn.N.Z.OX&XOXb.q.q.u.5.5.b.&X,X>XtX>XOXC.OX&X;X>X>XpXtX&X;XpXrXB.;XrX;X;X9X;X-XN.b.b.T.;X&XN.N.T.M.T.&XOXXXs.y.%.y.XXXXu.n.>X3X*Xi.XX*X2X3X3X1XOX1Xi.t.OX2X*X:X2X3XdXyXZXKXZXyX<X<X+XOX@X3X3X3XZX1X1X1X<X<X+X@X@Xt.XX+X}... .}.$Xs.[ A H } @.} ' v l y e 3 % o * % , 3 u 4 1 > > 1 4 4 3 i p 9 4 - > 4 - - - > - - # # # > > > > - - - - > 2 i p p p p p l p p p 8 l b b b F K / G b G G G G b l ",
"&.&.&.*.&.&.}.-.}.{.}.}.}.}.s.&.&.&.@.@.&.*.@.} @.*.&.&.%.%.y.}..X}.}.}.-.} ' } ' } } J J Q H l G H J G b b b G K ( } } ( K K K J ' } } } } *.-.-.-.} / -.;.-.} -.;.-.} K F F F b n p q p p p p z p z F M b Z ' ' -..XoX$XfX$X.X&.$.} } ' W J J J K H Z Z b b z l b Z b l l b b b b x p q u l x l l l l p y q q q q y y y q u y q y l l z l l l z z b H K J J J } } @.*.}.$XfXfX$X$XfXfXAXAXfX$X-.[ } &.&.*.*.*.*.*.*.&.$.@.&.&.-.}.}.&.*.-.-.*.&.$.W ~ } } @.@.$.%.%.$.@.@.#.%. .[ ] [  .] ] ! I C P y..X%.O.#.| O.t.a.a.a.u.e.p.n.OXXXn.n.n.n.i.|.XXu.i.|.XXi.t.y.s.s.i.i.i.n.XX|.u.|.+XoXoX{.#.y.#X<XXXu.e.OXOXOXOXOXn.XXXXn.C.C.C.C.C.Z.v.6.v.q.6.q.b.Z.Z.N.Z.Z.%X,X&XC.N.N.b.v.N.;X;XN.N.;X%XrX;X;X;X&X>X%XM.N.T.T.N.b.b.N.j.f.v.OXa.| W ..#.t.i.n.N.N.C.OXOX%XA.u.i.@X@Xn.u.t.u.C.;X2XrXyXZXaX*XaXaX<XaXyX%X*X;X%X%X:X2XyX*X<X;X;X*X*X;X*X1XOXn.n.@X#X@Xa.+XXX.X#X3X3X#X}.{.$.} } F > + < > 3 i u 0 0 h v m K ( ' } [ ' Q v H Q Z c c v b z b Z Z Z Z Z G K K J Q } *.-..X.X}.}..X.X}.}.-.}..XoX#X#X#X$X$X{.}.}.}.&.&.@.~ ",
"#X#XoXXXoXoX@XoXoX#X#X#XoXoX+X+XXXoXoX.XoX.X.X{..X.XoXoX+X@XoXoX{.}..X#X.X}.}.{.s.&.&.$.}..X.X}.s.}.s.$...' ' [ *.*.=.&..X.X}.@.}.}.}.}.}.}..XoX}..X.X-..X.X.X.X$X$X.X*.' K H K J H Z V Z H H H J J ' } } } *.}..X$XfXfX3XfXfX3X3X#XoX{.%.$.%.}.$.}.}.&.@.@.&.}.&.} ' Q Q [ ' Z Z Z J H J J J Z J W Q Q ' Q Q Q ' ' [ [ ' ' ' [ [ ' Q J J Q [ } @.} } @.&.-.}..X.X.X.XoX$XfXfXfX#X3X$X#X$XfXfX$X$XoX#X3X$X#X#X$X#X#X#X#X$X#X$X3X#X3X1XoXoX#XoX{.}.y. .#.O. .y.t.|.|.n.a.u.u.s.i.u.u.u.i.a.u.0.t.O.a.OXOX@X*XXXe.0.n.OX:X&XOXC.C.C.C.C.N.C.N.N.n.n.i.n.*X>XOXN.OXXXXXn.n.XXXXA.n.n.n.u.i.i.6.o.U #.t.+X1X*XOXn.;XOXC.C.%X%XC.%X&X;X&X&XOXC.Z.C.C.N.q.b.C.C.b.b.C.n.&XtXiX;XN.N.&Xj.j.T.9X5XJ.E.uX;XpX9XrX;XT.;X%X-X-XN.w.w.N.T.Q.Q.k.j.b.O.I P ..] | 6.i.i.q.u.OX;X%Xq.) 5.OX&XA._ &XtXOXN.rXpX;X%X%X:X;X%X%X9X-X%X>X>XC.b.C.-X%XtXrX;X;X5X9XuXuXrXrX>X;X>X2XVXZXKXKXaX:Xn.n.2XZXyX3X#X{.( i , 3 9 p b ' &.{.{.{.$X$X3X$X$X+X@X+X#X3X3X<X+X#X#X#X#X1X1X#X#X#X#X$X#X1X3XfXAXAXfXfXfX3X3XfXyX3X1X3X3X<X<X3XyXaX<X|.+X@X+X+X@X+XoXt.",
"<X1X<X+X+X<X<X*X{.|.oXXXXXXX+X+X2X2X1X@XoXoXXXXXoXoX+X<X<X*X@XXX{.oX#X#XoX#X#X#XfX+XoX#X#XoX#X1X1X3X1X+XoX.X.XoXoX#X$X$X+X#X1X$X1X$X$X$X#X$X#X#XoX.X.X#X$X.X.X.X$X.X*.} } } @.[ &.&.&.&.}.}.}.}..XoX#X#X#X$X$X$X3XfXZXZXfXfXZXdXyXyXyXyX1X+X+X1X#X+XXX{.oX#X+X.XoX{.}.&.#.%.s.$.%.%.&.&.&.&.&.%.s.y.s.s.{.{.{.{..X.XoX.X.X.X.XoXoXoX.X.X.XoX#X#X+X+X+X#X#X$X1X1X+XoXoX1X3X#X#X1X1XAXfX1X$X1XfX1X1X#X1X3X<X#X1X1X2X3X3X3XyXfXdXAXdXZXZXyX3X3X1X+X<X1XoX@Xe.! s.i.n.n.b.i.i.i.i.n.C.C.OXOXOXn.b.A.OX*X>X:XOXOXOXN.OX:X>X;X%XN.N.C.N.N.M.M.N.N.N.b.N.N.C.&X;X&X%XOXOXA.n.A.C.C.N.b.q.N.u.6.6.t.u.U t.s.XXOX*XyX*XOX%Xb.j.v.b.b.C.;XN.N.N.b.v.b.C.&X%Xn.C.&XN.q.b.T.&XT.T.T.Q.Q.Q.=Xm.5XuXE.T.9X5XM.-X5X;X;X%XM.T.%X%X-XT.j.j.Q.&XN.M.J.b.6.] I A A P  .t.6.8.v.C.&Xq.C.C.8.) 6.n.C.q.b.N.C.%X,X&XC.M.5XuX-Xm.%XuXM.5X;X5X&X&XuXiX-X=XJ.M.m.M.J.Y.J.=XT.J.=XpXKXKXpX9XiXSXSX9X%X%X;X;XyX<X..v u 4 # 9 H -.$X3XyX3X2X1X*X+XOXA.N.C.&X;X:X%X%X*X2X*XOX*X*X:XOXOX:X2XyXyXyXyXyXyX3X2X<X*X*X*X*X*XOXOX:X2XyXZXZXyX2X2X2X%X:X2XaXaXyX2XOX",
"n.n.n.u.u.|.|.B.B.|.|.XXOX@X@XOX@X*X@XXXn.XXoXXXXX+X+X+XOX|.i.s.1X1X1X#XXX{.y.%.U  .a.+X<X@X@X+X:X*X*X*X:X@X+X+X@XCXAXZX+X@X1X3X1X<X#X+X+X@X@XXX#X.X.X$XAXfX.X.XoX.X&.&.}..XoXoX1X3X1X1X3X3X3XfX3XfXfX3X3X3X3X#X+X+X1X3X3X3X2X3X*X:X*X2X2X<X*X<X3X@Xs.t.XX<X@Xt.O.a.@X|.t.y.@X#XoX#X@X.X{..XoXoXoXXX.X|.oXoXXXXXa.a.a.a.s.s.a.|.XXXXXXoX@X@X@X@X@X+X1X1X1X+X@X@X+Xa.t.t.t.t.XX3X@X+XoX+X*XXX@Xa.|.n. X|.p.n.|.n.n.n.n. X@X@X*X2XyXyX3X3X2X2X1X<XXXOXn.OXt.X.@X*X&XC.N.N.C.C.%X%X%X%X%X%XZ.v.b.C.>XOXC.&X%XN.C.rX9X>X;X%XC.N.C.T.&X%X%X%X%XQ.T.C.N.%XT.b.N.%X&XC.Z.A.n.n.n.n.b.v.n.%Xv.6.u.OX2XXXs.s.XXXX*XyX:XZ.&X&X-X;XQ.M.7.,.8.8.w.w.w.j.b.N.&X%X;XT.8.8.j.j.j.j.j.T.;X9XY.j.M.m.M.E.=XE.E.-XM.j.M.J.J.m.j.M.T.Q.T.N.Z.Q.Z.j.f.k.v.+.U I C k I O.u.6.q.N.%XC.Q.uXiXZ.) R q.%XC.5.) n.>X,X&X-X9X9X5XM.,.m.iX;X9X=X=X5X=X-X=XM.j.k.M.Y.-X8X9X8X4XiXGXGXGXMXGXGXiX5XT.Q.;X5X-X%X%X:Xi.P f 8 4 - h } #X+Xn.N.:XrXrX;X&X;X>X>X9XuX9X&XT.&X5X9X;X;X;X;X-X-X9XrXpXpXrX;X%XOX%X&X;X;X;X:X;X;X%XN.C.&X>XpXKXaX%XB.N.%X%X;XtXpXtXpXrXT.",
"u.i.i.6.r.B.B.u.r.r.u.p.|.XXn.t.X.+.t.0.t.a.@X+X@X+X$X+X|.s.t.s.O. .#.a.t.U Y Y U y.n.O.| u.OXOX:X:X:X:X:X@X@X@XXX1XyX3X2X1X*XOXOX|.a.a.a.i.u.e.| y.#X$X3X$X.X.X}..X.X.Xs.a.oX<X<X<X1X<X<X+X+X+X1X$X+X+X+XXXi.t.u.6.u.OX>X*X:X*X2XOXu.q.t.u.i.OXXXOXn.u.u.n.XXn.XXOX*XXX6.t.i.t.t.n.OXOXXXXXXXXXXXn.n.i.n.a.n.i.u.u.i.t.t.t.i.a.XXn.i.u.u.i.n.XXn.n.n.i.u.u.u.i.n.@X*XOXOXXXXXn.*X|.6.XX:Xn.XXn.B.B.B.u.r.B.N.u.u.r.u.B. X X%X*X@XOXOXOXOXOXOXOX:XOXu.XXi.6.1X&X&XC.N.C.%X&X-X;X&X&X&XT.b.w.b.&X&XC.N.N.C.T.;XtX9X-XC.M.N.T.&X;XT.Q.%XT.N.b.j.q.b.v.b.%X%Xb.b.b.Z.Z.Z.n.n.b.b.b.b.v.8.v.C.OX:Xn.a.t.oX+X*X*XOX>XC.Q.T.T.T.Q.J.j.j.j.v.M.N.N.N.b.T.-X9XC.9.8.v.9.j.T.,X&XT.T.T.N.M.M.J.J.m.m.m.J.&Xv.T.-X;X=Xj.T.;X&XN.v.j.j.M.M.M.j.8.+.] A C C ! ..t.u.b.N.b.j.j.Y.;X;X&XQ.T.Z.8.q.q.8.b.&X>X;X-XT.-XiX=XY.uX9X=XM.T.eXW.J.Y.Y.M.Y.&X9X9X9X8X4X8X4X4XW.8XiXMXiX8XY.h.j.M.J.T.N.%Xu.| C 0 1 > 1 h @.3XaX<X;X9X9X5X-X;XeXGXGXwXqX9X5X5X9X5X-X5XuXuX9X5X9XiXMXuX;X;X%XT.N.T.%X-X&X-X&X-X;X%XM.N.&X-X%XC.C.%X%XT.N.&X;X9X>X&X&X%Xv.",
"n.n.i.n.|.|.n.a.a.p.e.^ ^ o.+._ U Y `  .....s.s.oX$X#XoX{.s.%.| I P D D Y U | O.e.a.i.X.6.XXn._ OXv.X.u.OXXXOX@X*X*XOXA.n.n.n.i.i.i.u.i.XXOXn.t.O..XoX.Xs..X.X=.&.&...#.s.i.u.n.n.n.C.C.n.n.n.A.n.OXXXn.i.u.u.n.i.N.A.A.OXOX&X&Xn.n.i.t.O.+.O.0.i.OX*XOXn.n.n.n.C.OX:X&XN.b.b.u.u.u.n.&XOXn.i.n.i.i.0.0.n.i.0.i.i.u.u.u.6.+.0.A.i.i.u.u.u.t.u.n.u.i.n.i.q.0.u.n.b.n.C.;X2X*XOXa.n.n.n.b.b.n.n.n. XN.B.n.N.B.B.v.u.8.v. X%X XN.OXOXn.O.O.t.6.0.OXXX*Xn.OX6.A.yX>X;X&X&X&XC.b.n.C.&XC.&X%Xb.b.C.Z.Z.C.%X&X&X&X,XtX>X&XQ.,X9X,X&XQ.M.Z.C.N.q.q.w.b.q.n.Z.n.n.%XC.b.k.b.b.b.b.n.b.j.N.b.v.n.C.%X%XOXa.&..XoX1X@X1XOXC.w.w.M.M.T.T.j.M.b.N.T.-X&XN.b.N.;X&XN.C.M.5.,.j.%XT.b.M.T.N.w.j.v.M.M.J.T.=X&X=X-X%XJ.%X%XM.v.M.M.M.M.M.j.j.j.k.M.u.X.] W S V A O.t.n.%XT.T.m.k.E.4X5X5X&Xb.,.,.k.M.k.C.-XW.T.%X;X9X9X9X9X;X=XM.M.Q.uXeXQ.J.T.Q.-X-XW.T.E.E.Y.R.W.W.E.E.8XeXeXeX-XQ.T.N.b.M.N.B.6.| ..K M > > z s.oXOX:XrXuX=XM.T.W.5XwXcXwX8X-X;X9X9X;X-X&X%X9XiXMXiX9X9X-XQ.;X>X;X%XT.&X;X,XT.N.C.;X9X&X%X&XC.C.b.b.N.C.%X%X;X>X,X;X;Xn.w.C.",
"+X+X@X@X@XXX{.s.O.^ ^ o.O...+.t..X%.#.#.[ ] I A { { ] W ] [ ....U Y P S P | t.{.t.t.i.a.p.e.6.6.6.N.B.OXOXi.u.t.i.OX1X+XA.i.N.XXA.XXn.u.t.6.o.! O.%.%.{ ] } *.*.%.@. .O.t.O.+.q.u.v.v.B.B.n.B.n.n.XXA.i.b.u.u.n.&X&X&XC.N.N.N.B.OXA.n.u.6.6.+.+.u.u.i.XXXXn.i.i.N.N.%X%XC.OXOXb.8.q.u.C.C.A.N.n.n.A.u.u.i.t.+.0.0.u.u.t.6.6.6.6.t.t.t.0.6.0.t.u.n.u.u.n.C.N.n.OX&X;X>X>X*X:XOXC.u.6.6.u.b.b.N.C.n.n.N. XOXOXOXOX%X:X%XOXN.n.N.N.t.n.i.6.+.O.0.i.u.u.u.u.6.:X2X2X;X%X%X;X;X%X&X9X&XT.Z.b.i.Q.,XZ.&XC.C.%X%XZ.b.q.n.Z.T.&X%XT.Q.&X,XT.n.j.b.n.n.b.q.b.k.5.5.q.b.n.0.q.i.i.b.n.M.k.8.j.N.T.%XOXB.u.| =..X.X@X+X+Xi.C.b.b.b.k.C.Q.j.j.M.N.N.b.j.b.N.M.M.j.M.Q.M.8.v.q.b.b.b.b.v.v.N.B.M.N.M.v.v.v.v.M.J.m.j.N.T.J.J.v.7.7.M.Z.j.w.k.f.v.u.6.#.{ B k j  .i.OX%XM.J.Q.Q.4X8XqX8XQ.M.j.7.T.,X-XQ.Q.Q.;X;X;X-X%X&X-X&XT.7.j.J.&X8X-XT.Y.Z.T.T.Z.M.Y.Y.D.4XE.H.H.W.8XW.Y.M.M.T.>XtX>X-XC.N.i.a..X} M > s h ..y.n.C.%X-XY.m.Y.-X8X8XW.R.H.5X;X;X-X%XT.Q.Q.&X;X5X&XY.T.Q.&X;X&X;X;X&XC.C.%XN.q.q.n.%X%X%X&Xb.b.b.b.b.i.q.6.Z.&XC.u.b.N.u.u.",
"s.a..XoXoXoX{.{.a.e.#.t.t.s..X+X.XA..X.X&.[ A v v v v S A A W ]  . . .#.t.a.XX+X3XXXu.u.6.^ o.n.N.>XOXi.6.6.t.6.t.0.0.a.OXOXn.6.i.n.n.t.X.| | ..| [ ] A Z A ( ' { ] | #.i.t.0.B.b.b.b.b.B.N.N.C.n.A.b.u.b.v.u.N.N.C.C.N.N.n.C.C.XXA.n.n.n.i.u.t.6.| X.i.OXn.u.i.B.b.N.C.C.;X;XB.N.N.C.C.C.OXn.i.n.n.i.u.i.u.6.u.n.n.u.X.T +.6.6.X.+.6.O.O.0.t.0.n.u.i.n.u.O.u.;X;XrX>XOXb.i.i.i.u.+.+.u.N.b.b.C.v.n.OXOXOXN.u.6.6.n.OXn.N.C.N.i.i.i.i.6._ _ X.T 0.X.0.+.X.OXn.XXOXN.Z.;XrX,X,XtX>XZ.q.q.Z.>XtX%XZ.n.Z.%X&X%XC.n.N.C.%XC.Z.C.C.%Xb.q.q.v.C.OXC.Z.b.n.C.OXOXA.b.u.q.i.b.q.j.j.j.7.j.M.C.N.N.N.b.t.] %.s.t.%.XX@XA.n.b.Z.C.N.n.b.w.j.C.-X&XN.j.w.j.C.N.b.C.-XC.M.T.q.b.b.q.q.8.q.C.v.b.N.b.v.8.q.v.v.m.j.8.j.v.v.M.N.v.b.T.Q.C.N.T.M.b.6.O.O.{ V k P s.OX:XN.9.7.g.x.x.H.E.Y.j.j.M.k.T.&X;X9X;XW.-X9X;X%XC.%X&XT.M.7.M.T.N.M.T.N.j.b.b.M.k.k.M.M.x.W.H.j.k.T.T.k.h.T.Q.>XVXKXVX>XOXN.A.+X#X( a + < h [ %.n.C.T.=X=X9X9X=XJ.k.x.R.E.Q.;X9XtXtX>X%XC.-X&XQ.C.N.T.Q.T.&XC.%X,X&Xn.b.N.b.N.C.OXOXOXC.Z.i.0.+.+.+.0.n.@Xi.A.t.+.0.i.0.X.",
"] ........ .] ! ~  .o. ...O...` ` ] ..[ I S A A k k k B V v B I #.a.XX+X+X+X@XXXOXn.p.n.|.OXOX Xu.OXb.u.i.i.u.O.+.+.+.t.i.u.0.t.u.i.i.t.6.O.t.a...[ W A Z m m Z C U | o.t.u.u.b.b.B.v.u.u.u.u.u.i.b.u.q.i.v.u.N.C.OXC.N.b.i.b.u.i.i.n.n.n.n.n.i.O._ _ 0.n.n.i.i.B.b.b.b.N.;X;XN.&X;X:XOXOXOXC.i.u.u.u.u.u.u.u.i.0.i.n.n.n.i.t.+.X.6.t.0.t.a.n.i.u.t.t.6.X.| u.*XOX&XOXu.5.6.i.i.n.u.6.u.n.N.B.N.i.i.u.u.i.n.n.n.6.i.XXn.i.u.0.6.OX+.X.6.+.| X.X.| T +.X.0.@X@X*Xu.b.C.;X>X,X;X;X>Xb.q.C.>X>X>X>X&X&X,X,X%XZ.C.%XQ.Q.Z.b.b.n.b.8.b.b.N.Z.N.b.u.q.OXn.i.n.C.n.i.i.i.b.n.b.q.q.8.8.M.T.T.b.v.b.B.u...%.=.#.U t.A.OXC.b.b.C.N.q.q.b.&XT.N.j.w.w.8.9.q.M.N.b.N.C.N.v.q.C.N.5.6.v.N.N.B.b.v.v.u.u.v.v.8.v.j.f.v.j.8.j.N.-X;X&XQ.-XT.k.N.M.q.+...W j k P y.n.b.M.k.k.g.D.D.Y.E.Y.N.Y.Q.&X&XQ.;X9X;XT.Q.%XOXC.C.%X%XN.j.w.Q.;XJ.j.j.j.j.b.b.b.k.M.M.Y.Y.Y.x.M.Y.Y.k.k.Z.&X&X,X>X,XT.b.v.q.i.a.&.Z i % s z ..s.A.%X&X5X5X4X5X;XW.Y.Y.R.E.&X%XC.C.C.T.&X;X;XQ.T.T.;X9X&XM.T.C.C.&XT.b.j.b.q.Z.&XC.q.0.0.0.i.0.0.t.i.0.t.a.i.0.0.i.A.i.6.+.",
"k k k j N B B B B C N k N U ` Y | | %.s.#.[ ] A N j j j j j P ..a.XX+X<X+X|.u.r.e.u.e.e.u.n.p.r.4.8.4.r.n.n.n.i.u.t.6.6.6.6.0.u.n.p.p.u.6.6.u.a.y.O.! A B v v Z W t.a.s.n. Xn.v.N.N.B.v.v.i.u.u.u.i.u.u.i.i.i.n.n.n.OXn.n.i.i.u.u.u.u.t.6.6.0.u.u.u.u.u.i.n.n.n.N.B.B.i.u.OXOXn.i.A.OXXXC.OXOXn.i.i.u.6.6.6.q.u.u.u.n.OX:XOXn.n.u.n.XXn.XX@X@Xn.u.6.+.+.u.OXOXOXn.n.i.6.6.u.XXXXi.i.t.6.u.N.n.u.u.i.n.i.i.u.0.X.n.i.u.t.6.6.u.XXi.X.+.i.i.n.OXA.OX:Xn.u.i.u.n.u.v.C.&X%XC.&X&X%XC.n.Z.>XtX,X&X>X>X,X;X&XC.n.N.%X%X%XC.b.b.N.n.q.Z.N.B.b.b.b.N.N.b.q.q.i.i.u.0.u.0.u.b.b.b.b.n.b.v.C.C.b.v.B.v.6.| ..%..XO.t.t.i.OXC.b.q.8.8.u.C.%XC.n.b.N.Z.b.8.8.v.Z.C.N.N.n.v.q.n.q.5.q.N.C.OX%XN.v.8.5.5.9.9.4.8.j.B.N.b.q.j.j.T.;XT.N.N.j.7.j.b.b.i.%.A k f A y.u.6.v.T.=Xx.W.4X4X5X5X9X5X=X9XuXuX9X;XM.M.%XM.B.B.N.N.B.j.8.M.Y.Q.Y.M.m.M.J.M.M.M.M.N.Y.Y.E.E.Y.Y.W.T.j.M.&XT.Q.Q.T.j.7.j.N.%XOXa...k z u u v %.a.n.%X-X5X=X=XQ.Q.Q.=XQ.W.=X-X&X%XT.T.%X;X9XQ.Q.T.%X5X9X&XN.N.N.N.N.b.M.M.b.n.C.Z.8.) X.8.q.+.X.+.0.u.u.i.A.A.i.i.A.A.i.u.u.",
"0 0 0 f k B C S ] P Y ! o.t.a.@XOXOX+X1X$X@Xy.!  .[  ... .@.y.{.OXOXOXn.u.e.e.r.B.u.u.6.^ T ^ 5.8.u.8.B.n.6.u.OXOXi.+.| +.u.u.6.n.B.u.r.r.6.e.t.t.O.[ W J Z B B %.+X1X+X<X<X:XN.%X XN. X X|.n.n.u.n.i.u.i.u.u.i.t.i.n.n.n.n.n.n.6.0.6.O.X.X.6.u.n.OXOXn.n.n.n.n.n.n.B.b.u.n.XXn.0.i.n.n.n.n.n.n.n.b.i.i.6.u.b.u.OXn.i.n.n.i.n.OXn.XXOXXXXXOXXXi.+.6.u.i.n.:X:XOXn.i.u.6.6.0.t.t.o.t.6.X.6.i.i.6.t.t.t.O.| U D k Y D Y Y U | O.A.i.n.:X:XOXOX:XOXu.XXu.t.C.i.:Xn.b.%X%Xb.v.C.%XC.j.%X>X>X9X,X&X%X&XC.C.%X&X&X%XC.b.C.%XZ.b.N.OX&Xv.q.8.v.C.%X%XC.4.6.N.OXN.6.5.6.6.q.i.u.u.b.N.C.b.b.v.8.u.n.i.t.....s.1X@XXXb.b.q.C.N.6.w.N.N.v.b.N.N.n.N.%X%XC.C.v.N.;XC.v.v.N.b.q.5.q.v.j.v.T.-XT.v.8.9.9.9.9.4.8.j.b.C.b.8.q.w.q.N.T.C.w.5.w.j.M.b.a.%.S f h W .X|.8.j.M.R.z.K.E.W.Q.4X9X5XT.-X;X%XT.T.j.j.M.B.B.B.B.v.f.j.v.T.m.j.M.L.H.m.x.M.M.M.J.Y.J.Y.E.W.Y.J.Y.Y.k.j.N.Y.Q.Q.T.j.f.m.=X9X;Xn.] j M 4 8 B s.XXA.C.E.7XL.4XE.J.J.T.=X4X5X&X;X9XuXuX9X5X=X-X9X9X-XE.Y.R.Y.M.M.M.j.j.N.N.N.&XT.b.8.9.5.5.5.X.) _ X.0.A.*X>XC.C.A.u.+.6.0.X.",
"{ A A A ' { { ]  .#.{.#X1XXXA.XX1XOXn.u.u.n.XXa.{..XXXoXoX+XoX|.B.n.n.B.r.8.r.B.6.u. X*X%Xu.r.B.8.B.N.:X XX.X.6.0.n.A.6.T X.q.B.B.u.u.u.B.i.i.p.t.#.@.} { ' A V [ y.{.@X<X:XN.n.B.v.v.B.p.p.u.e.u.n.i.t.6.O.X.O.u.i.i.t.u.u.u.u.i.u.8.6.5.6.u.b.N.n.n.N.n.B.N.n.n.i.n.n.n.n.XXXXn.n.n.n.n.i.u.u.n.v.N.n.n.C.OXv.u.v.B.n.N.v.u.0.n.n.n.n.n.i.u.q.+.u.A.OXN.n.n.n.n.u.t.u.0.| | | ..O.e.O.6.t.6.+.o.| Y N D | %.t.s.i.A.XXXX.X.XXXA.*X2X:XOXn.b.n.n.N.u.6.N.u.u.6.v.v.M.N.N.N.N.C.M.>X9X&X;X;XT.T.;X%XT.&X-X%XN.M.v.b.N.M.v.j.M.%XN.b.b.N.N.b.q.9.q.u.v.u.8.6.8.i.0.u.u.q.8.u.b.b.N.v.6.6.B.n.n.s.O.O.|.*X2X*X&Xb.4.B.b.v.T.%XM.v.N.N.q.) ) v.%X,X%X8.8.b.q.5.8.q.N.b.q.k.M.j.j.T.N.N.M.j.j.j.m.M.M.B.8.8.v.8.4.9.q.9.q.C.C.b.q.N.M.M.u.s...B h v A t.u.v.M.H.R.L.S.S.L.R.4X5X=XT.N.N.v.v.N.N.j.j.v.v.v.m.m.v.m.J.E.m.l.x.H.S.l.g.M.k.m.J.L.H.L.L.L.H.H.J.J.M.v.k.M.M.M.k.g.d.g.x.x.j.q.e.W J y z S y.XXOX%XJ.J.S.m.m.T.5X5X-X=X=X5X;X&XQ.T.Q.4X5X9X9X8X4XR.L.L.H.M.x.x.M.M.M.M.N.m.k.j.8.7.,.,.R 5.6.q.u.N.OXn.6.Z.b.b.0.) X.5.T ",
".X&.%.s..X#X$X#XoX1X1XOXi.u.i.u.q.b.:X:XOXOX*X@XXXa.t.%.a.oX{.t.^ 6.p.n.n.u.u.v.B.n.n.n.N. X XB.v.B.8.8.6.T X.6.0.n.n.6.5.u.b.u.B.v.v.N.OXOXn.XXOX{.#.] ] { { ' ]  .e.XX*X Xi.n.B.v.v.b.n.i.t.6.6.b.i.6.+.T U T X.+.O.O.6.u.n.XXOXn.u.6.6.6.6.6.u.+.6.b.N.n.v.B.n.t.i.OXOXOXOXOXOXn.i.n.n.i.u.i.n.u.N.OXB.OXOX8.+.8.u.6.q.i.N.n.i.u.u.i.i.u.8.6.i.u.u.B.B.i.u.u.u.6.u.n.a.O.o.#.t.t.i.a.i.6.X.X._ | O.O.a.+X1X1X@X+X+XXXA..Xa.i.n.B.i.N.OXb.u.OXB.u.b.X.C.n.+.6.6.4.v.%X;XT.M.N.;X9X;X&X>X&XC.;X%X%X%X%XT.M.N.T.>X&XC.%XT.N.N.C.N.C.N.B.8.6.8.v.N.N.N.C.%X%Xb.6.6.0.0.6.5.6.u.v.b.q.q.n.*X*Xn.e.| o.XX@XtX>X%X9.M.j.9.v.%XN.b.;Xn.C.C.C.%X&XC.u.C.q.9.5.4.q.Z.b.w.Z.C.k.M.N.T.=Xj.m.M.M.m.m.J.=X%XB.9.4.9.5.4.6.9.4.5.q.b.N.n.b.j.j.v.a.%.Z h k A  .o.v.T.H.x.g.S.z.x.J.Q.J.M.M.N.=X-XT.T.N.M.N.9.5.j.N.J.M.M.M.J.J.R.L.H.S.H.L.m.k.x.H.L.H.L.L.l.H.R.W.T.T.Y.Q.J.x.j.z.z.l.l.z.S.z.N.:X%.H 7 y V O.i.OX=XH.H.S.z.x.H.T.T.J.=X5X=X=X=X=XW.=X4X5X=XW.L.L.E.W.K.l.H.l.k.Y.J.m.k.M.f.j.k.j.,.,.8.N.8.q.q.5.v.C.N.q.v.4.6.b.q.6.u.q.",
"a.a.a.XXXX|.OX@X XOX|.n.i.i.n.n.OXn.n.n.OXOXn.n.i.{.t.#.....&.%.] A P  .t.y.a.p.n.n.n.i.i.B.i.r.6.u.6.u.u.6.u.0.u.t.0.u.u.6.6.6.u.u.b.B.C.OXOXOXp.i.e. .&.&.[ [ %.XXs.XXn.n.n.b.v.v.v.i.b.i.u.u.q.u.u.0.6.O.O.6.i.u.6.+.X.X.O.e.i.u.X.+.6.6.0.+.u.0.6.6.t.u.i.n.n.N.n.n.n.n.n.n.n.n.n.i.i.i.i.i.i.b.B.B.B.N.N.N.n.i.u.u.u.u.i.b.u.i.i.u.u.u.i.i.B.v.i.v.i.u.q.u.u.u.u.u.i.p.u.t.t.t.6.t.t.t.t.t.u.XXXX@X+X*X1XOXOXn.i.i.i.u.u.i.u.u.u.v.b.b.b.b.u.b.i.i.t.6.+.6.i.B.n.N.C.&X%XC.T.-X%X%XC.C.&XT.&XN.C.%X%X%X%XT.C.C.b.v.N.C.N.M.C.N.v.b.9.b.N.N.C.OXb.N.b.u.b.u.i.q.6.5.6.u.b.N.v.B.N.C.OXOXn.u.O.t.a.XXOXOXC.M.M.N.T.M.C.;X>X&Xb.u.n.*X;XOXN.v.8.8.8.8.6.6.u.N.Z.M.k.k.N.Q.&X&Xv.T.%XT.J.m.m.N.N.N.u.5.) X.5.6.u.q.6.9.q.N.C.M.k.j.6.O. .Z h v A ! O.q.M.J.K.D.H.H.R.W.R.Y.Q.Y.J.J.j.v.v.j.q.) R 9.v.v.M.J.T.T.J.Y.H.m.J.H.m.M.x.x.x.M.H.J.L.Y.Y.W.=XW.W.W.Q.Y.H.M.M.k.j.J.W.L.S.z.J.N.#.h l y V t.u.C.N.=X4X4X-XW.=XW.Y.4XwX8X4X9X=XJ.J.=X=XJ.M.m.m.H.R.R.L.m.k.k.j.k.k.k.k.M.j.j.f.5.9.9.6.8.6.6.v.8.8.v.8.9.4.9.X.6.q.6.u.6.",
"0.0.0.u.i.u.B.n.N. Xn.v.u.u.i.i.u.6.u.i.n.n.u.0.X.o.U I S S ] A V h j I [ #.t.e.p.p.i.u.u.u.u.6.0.u.6.u.u.t.i.u.u.6.6.u.u.0.6.6.6.u.i.n.N.N.N.n.i.u.e. .}..X@. .t.XXi.XXn.n.b.b.v.v.v.v.b.b.u.u.0.0.u.u.0.t.u.i.i.i.t.6.O.O.e.t.i.u.X.O.t.u.i.t.6.O.+.X.X.+.O.O.6.u.i.u.i.u.u.i.n.n.b.u.u.i.i.u.v.b.B.B.N.N.N.N.n.n.i.i.i.i.i.i.u.i.i.u.u.u.i.u.B.v.i.v.i.u.u.u.i.i.i.i.i.i.i.u.i.u.u.u.u.t.t.i.t.i.6.6.6.t.n.u.t.6.6.6.6.6.u.u.u.u.u.v.b.b.b.b.u.i.b.u.t.O.O.O.u.i.n.n.N.%X%XN.C.-X%X%XT.C.&X%X&XN.C.%X%X%X%XC.C.C.b.v.N.C.N.b.C.C.b.N.8.N.C.C.C.OXb.N.b.u.b.u.q.q.u.i.B.N.b.v.v.n.n.C.OXOXn.t.O.t.a.XXOX%XC.M.M.T.N.b.N.%X&XC.q.+.0.n.N.b.u.q.b.v.v.v.8.6.q.b.N.b.j.k.N.T.Q.Q.v.T.T.T.J.M.m.N.v.b.v.8.5.6.q.u.u.u.8.9.j.N.T.N.m.j.6.O. .V h v A ! O.q.M.J.R.D.H.H.R.W.R.R.E.J.J.J.j.v.v.q.q.) ) 8.b.v.j.M.J.M.J.J.m.z.M.m.j.m.x.x.x.M.H.J.J.Y.Y.W.=X=XW.W.Q.Y.H.M.M.k.j.N.Q.L.D.z.J.N.#.k z y A a.n.%XT.=XW.-X-XW.&XW.E.4XwX8X5X9X=XY.Y.=X=XJ.M.m.m.H.Y.Y.J.m.k.j.j.k.k.k.k.M.j.j.f.8.5.9.6.8.6.6.v.8.8.v.8.9.9.8.5.6.0.6.6.X."
};
